LUTS_for_Software_DaVinci_Premiere_Avid_FinalCutPro/DaVinci-Resolve-with-Video-Range-Tag/Type-1-LUTs-For-Graphics-DaVinci Resolve-Requires-Scaling/4-NBCU_SDR2PQ_Type1-VRT.cube
TITLE "NBCU SDR to PQ For Graphics"
TITLE "SDR-BT.709 to PQ-BT.2100 Display-Light Conversion 3D Look-Up-Table"
#
# PLEASE DO NOT ALTER THE LINES BELOW
# 
# © 2020 NBCUniversal, LLC - Please do not remove this line
#
# Built using tools from and in collaboration with Cromorama and Nick Shaw - the creators of ORION-CONVERT
#
# SDR Display Light Conversion uses an assumed Lw of 203nits
#
# 100% SDR maps to 58% PQ - **NO SUPER-WHITES OR SUB-BLACKS**
#
# No Matrix Compensation (so make sure your device is using the correct matrix)
#
# Type I LUT - Narrow Range with **NO SUPER-WHITES OR SUB-BLACKS**
#
# For Graphics Input, scale RGB Full to Narrow Range For use with this LUT
# For Graphics Output, scale LUT Output from Narrow to Full range
# RESOLVE 17 VIDEO RANGE TAGS
LUT_IN_VIDEO_RANGE
LUT_OUT_VIDEO_RANGE
LUT_3D_SIZE 33
0.0000000 0.0000000 0.0000000
0.0370272 0.0123087 0.0055857
0.0763132 0.0286468 0.0138623
0.1112650 0.0450691 0.0228074
0.1424232 0.0609343 0.0318987
0.1704898 0.0760977 0.0409306
0.1960248 0.0905509 0.0498114
0.2194556 0.1043283 0.0584991
0.2411105 0.1174769 0.0669757
0.2612460 0.1300455 0.0752359
0.2800659 0.1420804 0.0832808
0.2977349 0.1536241 0.0911155
0.3143879 0.1647151 0.0987468
0.3301371 0.1753878 0.1061824
0.3450764 0.1856732 0.1134305
0.3592857 0.1955991 0.1204992
0.3728334 0.2051903 0.1273965
0.3857785 0.2144693 0.1341300
0.3981724 0.2234562 0.1407071
0.4100598 0.2321695 0.1471347
0.4214804 0.2406257 0.1534195
0.4324691 0.2488399 0.1595677
0.4430573 0.2568259 0.1655851
0.4532726 0.2645965 0.1714772
0.4631401 0.2721631 0.1772493
0.4726824 0.2795365 0.1829062
0.4819199 0.2867264 0.1884526
0.4908710 0.2937420 0.1938928
0.4995527 0.3005916 0.1992308
0.5079803 0.3072831 0.2044706
0.5161680 0.3138236 0.2096158
0.5241286 0.3202200 0.2146699
0.5318742 0.3264785 0.2196361
0.0272657 0.0441003 0.0139880
0.0448932 0.0455599 0.0152947
0.0792876 0.0511651 0.0199074
0.1127911 0.0603890 0.0267644
0.1433431 0.0717257 0.0346637
0.1711010 0.0840034 0.0429685
0.1964582 0.0965497 0.0513759
0.2197776 0.1090164 0.0597386
0.2413583 0.1212313 0.0679822
0.2614420 0.1331137 0.0760695
0.2802244 0.1446307 0.0839827
0.2978654 0.1557746 0.0917146
0.3144970 0.1665509 0.0992640
0.3302295 0.1769718 0.1066334
0.3451555 0.1870526 0.1138271
0.3593541 0.1968101 0.1208506
0.3728931 0.2062612 0.1277100
0.3858310 0.2154224 0.1344113
0.3982187 0.2243094 0.1409609
0.4101011 0.2329372 0.1473648
0.4215173 0.2413198 0.1536290
0.4325024 0.2494702 0.1597591
0.4430873 0.2574006 0.1657607
0.4532998 0.2651223 0.1716389
0.4631649 0.2726458 0.1773985
0.4727051 0.2799810 0.1830444
0.4819406 0.2871369 0.1885809
0.4908901 0.2941221 0.1940121
0.4995703 0.3009445 0.1993422
0.5079966 0.3076114 0.2045747
0.5161831 0.3141298 0.2097133
0.5241427 0.3205061 0.2147614
0.5318873 0.3267464 0.2197221
0.0583372 0.0888592 0.0321596
0.0664549 0.0893517 0.0326919
0.0902442 0.0914055 0.0348543
0.1188975 0.0953367 0.0387806
0.1471389 0.1010619 0.0441353
0.1736587 0.1082702 0.0504655
0.1982853 0.1165733 0.0573896
0.2211409 0.1256089 0.0646389
0.2424102 0.1350844 0.0720372
0.2622755 0.1447826 0.0794728
0.2808992 0.1545501 0.0868751
0.2984216 0.1642822 0.0942004
0.3149623 0.1739089 0.1014214
0.3306237 0.1833853 0.1085222
0.3454932 0.1926831 0.1154936
0.3596463 0.2017857 0.1223311
0.3731479 0.2106846 0.1290333
0.3860549 0.2193765 0.1356008
0.3984169 0.2278620 0.1420355
0.4102775 0.2361439 0.1483400
0.4216752 0.2442266 0.1545178
0.4326444 0.2521155 0.1605722
0.4432156 0.2598168 0.1665071
0.4534162 0.2673366 0.1723263
0.4632709 0.2746815 0.1780336
0.4728019 0.2818580 0.1836327
0.4820295 0.2888723 0.1891272
0.4909718 0.2957306 0.1945207
0.4996456 0.3024389 0.1998167
0.5080662 0.3090030 0.2050184
0.5162476 0.3154284 0.2101290
0.5242026 0.3217203 0.2151516
0.5319431 0.3278838 0.2200890
0.0870024 0.1278318 0.0501900
0.0914620 0.1280763 0.0504835
0.1071118 0.1291115 0.0517122
0.1296444 0.1311620 0.0540836
0.1542380 0.1343058 0.0575810
0.1785901 0.1385184 0.0620533
0.2018679 0.1437006 0.0672925
0.2238412 0.1497088 0.0730921
0.2445072 0.1563832 0.0792753
0.2639443 0.1635674 0.0857036
0.2822544 0.1711214 0.0922730
0.2995409 0.1789265 0.0989078
0.3159002 0.1868857 0.1055538
0.3314194 0.1949227 0.1121727
0.3461756 0.2029779 0.1187375
0.3602369 0.2110065 0.1252297
0.3736635 0.2189746 0.1316367
0.3865083 0.2268574 0.1379501
0.3988182 0.2346371 0.1441648
0.4106348 0.2423008 0.1502778
0.4219951 0.2498403 0.1562878
0.4329322 0.2572500 0.1621947
0.4434756 0.2645268 0.1679992
0.4536522 0.2716696 0.1737026
0.4634858 0.2786782 0.1793066
0.4729984 0.2855537 0.1848132
0.4822096 0.2922980 0.1902247
0.4911375 0.2989131 0.1955434
0.4997984 0.3054018 0.2007717
0.5082075 0.3117671 0.2059120
0.5163786 0.3180119 0.2109667
0.5243243 0.3241394 0.2159383
0.5320564 0.3301529 0.2208291
0.1131605 0.1621020 0.0674562
0.1159425 0.1622470 0.0676433
0.1265477 0.1628637 0.0684346
0.1436986 0.1640997 0.0699975
0.1642419 0.1660316 0.0723837
0.1858433 0.1686880 0.0755647
0.2072732 0.1720586 0.0794571
0.2279807 0.1761018 0.0839490
0.2477557 0.1807540 0.0889205
0.2665480 0.1859380 0.0942592
0.2843795 0.1915711 0.0998667
0.3013026 0.1975717 0.1056612
0.3173806 0.2038630 0.1115773
0.3326780 0.2103758 0.1175632
0.3472567 0.2170495 0.1235790
0.3611740 0.2238325 0.1295941
0.3744823 0.2306814 0.1355854
0.3872289 0.2375605 0.1415354
0.3994565 0.2444407 0.1474314
0.4112035 0.2512984 0.1532638
0.4225045 0.2581148 0.1590258
0.4333906 0.2648754 0.1647127
0.4438901 0.2715685 0.1703213
0.4540284 0.2781854 0.1758498
0.4638286 0.2847194 0.1812970
0.4733117 0.2911658 0.1866626
0.4824970 0.2975212 0.1919469
0.4914018 0.3037833 0.1971505
0.5000423 0.3099509 0.2022744
0.5084330 0.3160233 0.2073197
0.5165877 0.3220006 0.2122878
0.5245186 0.3278834 0.2171802
0.5322373 0.3336724 0.2219985
0.1371275 0.1926682 0.0838504
0.1390161 0.1927634 0.0839804
0.1465248 0.1931696 0.0845324
0.1595734 0.1939879 0.0856344
0.1763754 0.1952783 0.0873458
0.1950686 0.1970746 0.0896790
0.2143649 0.1993899 0.0926091
0.2335246 0.2022186 0.0960845
0.2521677 0.2055402 0.1000374
0.2701192 0.2093220 0.1043932
0.2873150 0.2135228 0.1090779
0.3037490 0.2180965 0.1140227
0.3194444 0.2229943 0.1191665
0.3344380 0.2281678 0.1244567
0.3487721 0.2335707 0.1298493
0.3624900 0.2391595 0.1353078
0.3756340 0.2448948 0.1408027
0.3882438 0.2507415 0.1463103
0.4003564 0.2566686 0.1518114
0.4120060 0.2626493 0.1572910
0.4232238 0.2686604 0.1627374
0.4340385 0.2746824 0.1681412
0.4444761 0.2806988 0.1734955
0.4545605 0.2866958 0.1787948
0.4643136 0.2926619 0.1840351
0.4737553 0.2985878 0.1892135
0.4829039 0.3044658 0.1943280
0.4917762 0.3102898 0.1993772
0.5003877 0.3160547 0.2043604
0.5087526 0.3217568 0.2092772
0.5168840 0.3273931 0.2141276
0.5247940 0.3329614 0.2189122
0.5324938 0.3384602 0.2236312
0.1592235 0.2202649 0.0993952
0.1605835 0.2203319 0.0994908
0.1661186 0.2206180 0.0998975
0.1761813 0.2211958 0.1007142
0.1898423 0.2221111 0.1019944
0.2057858 0.2233940 0.1037624
0.2228788 0.2250618 0.1060179
0.2403375 0.2271210 0.1087412
0.2576805 0.2295685 0.1118975
0.2746355 0.2323927 0.1154425
0.2910606 0.2355750 0.1193267
0.3068914 0.2390916 0.1234996
0.3221090 0.2429148 0.1279121
0.3367194 0.2470144 0.1325188
0.3507427 0.2513594 0.1372788
0.3642057 0.2559185 0.1421560
0.3771386 0.2606615 0.1471195
0.3895719 0.2655596 0.1521426
0.4015357 0.2705860 0.1572033
0.4130589 0.2757159 0.1622827
0.4241685 0.2809270 0.1673656
0.4348900 0.2861993 0.1724394
0.4452468 0.2915149 0.1774936
0.4552608 0.2968583 0.1825198
0.4649522 0.3022156 0.1875114
0.4743396 0.3075750 0.1924629
0.4834402 0.3129263 0.1973701
0.4922699 0.3182606 0.2022296
0.5008434 0.3235705 0.2070389
0.5091742 0.3288497 0.2117961
0.5172750 0.3340927 0.2164999
0.5251575 0.3392953 0.2211493
0.5328324 0.3444536 0.2257437
0.1797183 0.2454308 0.1141492
0.1807408 0.2454803 0.1142224
0.1849614 0.2456916 0.1145343
0.1928621 0.2461191 0.1151626
0.2040035 0.2467982 0.1161531
0.2175160 0.2477537 0.1175318
0.2324984 0.2490024 0.1193084
0.2482233 0.2505541 0.1214786
0.2641781 0.2524124 0.1240268
0.2800316 0.2545752 0.1269284
0.2955821 0.2570353 0.1301526
0.3107151 0.2597816 0.1336649
0.3253712 0.2627991 0.1374294
0.3395261 0.2660703 0.1414103
0.3531764 0.2695758 0.1455736
0.3663313 0.2732948 0.1498875
0.3790074 0.2772061 0.1543230
0.3912249 0.2812884 0.1588544
0.4030062 0.2855208 0.1634588
0.4143736 0.2898833 0.1681164
0.4253497 0.2943568 0.1728101
0.4359557 0.2989235 0.1775253
0.4462123 0.3035670 0.1822494
0.4561389 0.3082721 0.1869719
0.4657535 0.3130250 0.1916840
0.4750732 0.3178133 0.1963781
0.4841139 0.3226260 0.2010483
0.4928903 0.3274531 0.2056893
0.5014162 0.3322857 0.2102970
0.5097044 0.3371162 0.2148680
0.5177670 0.3419377 0.2193996
0.5256149 0.3467443 0.2238897
0.5332586 0.3515309 0.2283364
0.1988317 0.2685689 0.1281784
0.1996261 0.2686068 0.1282362
0.2029352 0.2687686 0.1284827
0.2092525 0.2690963 0.1289803
0.2184088 0.2696178 0.1297677
0.2298537 0.2703533 0.1308692
0.2429120 0.2713177 0.1322981
0.2569622 0.2725212 0.1340574
0.2715132 0.2739696 0.1361421
0.2862118 0.2756650 0.1385394
0.3008195 0.2776060 0.1412313
0.3151834 0.2797879 0.1441954
0.3292104 0.2822034 0.1474067
0.3428478 0.2848427 0.1508387
0.3560697 0.2876942 0.1544650
0.3688676 0.2907449 0.1582593
0.3812440 0.2939804 0.1621969
0.3932084 0.2973859 0.1662547
0.4047742 0.3009463 0.1704114
0.4159573 0.3046464 0.1746477
0.4267745 0.3084710 0.1789465
0.4372431 0.3124058 0.1832925
0.4473799 0.3164366 0.1876723
0.4572017 0.3205504 0.1920741
0.4667242 0.3247347 0.1964878
0.4759626 0.3289778 0.2009046
0.4849311 0.3332691 0.2053170
0.4936433 0.3375987 0.2097184
0.5021118 0.3419576 0.2141034
0.5103487 0.3463376 0.2184674
0.5183649 0.3507314 0.2228064
0.5261711 0.3551322 0.2271171
0.5337770 0.3595341 0.2313968
0.2167421 0.2899883 0.1415463
0.2173755 0.2900181 0.1415930
0.2200302 0.2901456 0.1417926
0.2251679 0.2904039 0.1421959
0.2327653 0.2908153 0.1428357
0.2424871 0.2913967 0.1437338
0.2538464 0.2921607 0.1449042
0.2663394 0.2931167 0.1463533
0.2795270 0.2942712 0.1480814
0.2930633 0.2956279 0.1500833
0.3066947 0.2971881 0.1523488
0.3202437 0.2989508 0.1548639
0.3335916 0.3009127 0.1576121
0.3466620 0.3030688 0.1605744
0.3594089 0.3054125 0.1637309
0.3718070 0.3079357 0.1670614
0.3838452 0.3106293 0.1705456
0.3955218 0.3134833 0.1741639
0.4068414 0.3164870 0.1778977
0.4178128 0.3196293 0.1817296
0.4284469 0.3228991 0.1856434
0.4387563 0.3262849 0.1896244
0.4487543 0.3297758 0.1936593
0.4584541 0.3333607 0.1977360
0.4678692 0.3370293 0.2018439
0.4770126 0.3407713 0.2059735
0.4858967 0.3445773 0.2101164
0.4945336 0.3484382 0.2142652
0.5029348 0.3523455 0.2184136
0.5111112 0.3562915 0.2225559
0.5190730 0.3602687 0.2266872
0.5268301 0.3642704 0.2308035
0.5343915 0.3682904 0.2349010
0.2335957 0.3099311 0.1543109
0.2341114 0.3099551 0.1543495
0.2362822 0.3100578 0.1545141
0.2405247 0.3102660 0.1548473
0.2468927 0.3105979 0.1553766
0.2551918 0.3110674 0.1561215
0.2650796 0.3116853 0.1570954
0.2761623 0.3124602 0.1583061
0.2880648 0.3133981 0.1597567
0.3004680 0.3145034 0.1614462
0.3131200 0.3157786 0.1633695
0.3258323 0.3172245 0.1655184
0.3384693 0.3188402 0.1678819
0.3509369 0.3206236 0.1704473
0.3631722 0.3225709 0.1731999
0.3751350 0.3246776 0.1761244
0.3868015 0.3269378 0.1792049
0.3981596 0.3293450 0.1824256
0.4092050 0.3318920 0.1857707
0.4199392 0.3345708 0.1892252
0.4303674 0.3373733 0.1927747
0.4404971 0.3402911 0.1964056
0.4503376 0.3433156 0.2001056
0.4598989 0.3464382 0.2038629
0.4691916 0.3496503 0.2076671
0.4782264 0.3529436 0.2115085
0.4870139 0.3563100 0.2153785
0.4955646 0.3597416 0.2192692
0.5038885 0.3632310 0.2231738
0.5119954 0.3667710 0.2270861
0.5198946 0.3703549 0.2310005
0.5275950 0.3739762 0.2349122
0.5351051 0.3776290 0.2388170
0.2495133 0.3285906 0.1665243
0.2499406 0.3286103 0.1665566
0.2517445 0.3286946 0.1666946
0.2552955 0.3288656 0.1669742
0.2606862 0.3291382 0.1674188
0.2678129 0.3295242 0.1680457
0.2764404 0.3300329 0.1688672
0.2862679 0.3306715 0.1698915
0.2969855 0.3314460 0.1711231
0.3083103 0.3323606 0.1725634
0.3200046 0.3334183 0.1742105
0.3318796 0.3346208 0.1760598
0.3437912 0.3359685 0.1781047
0.3556336 0.3374609 0.1803363
0.3673310 0.3390962 0.1827445
0.3788308 0.3408718 0.1853178
0.3900984 0.3427844 0.1880441
0.4011116 0.3448297 0.1909108
0.4118581 0.3470028 0.1939052
0.4223324 0.3492983 0.1970146
0.4325335 0.3517104 0.2002266
0.4424643 0.3542329 0.2035295
0.4521299 0.3568593 0.2069117
0.4615367 0.3595830 0.2103628
0.4706926 0.3623974 0.2138727
0.4796058 0.3652956 0.2174321
0.4882848 0.3682712 0.2210326
0.4967384 0.3713174 0.2246663
0.5049752 0.3744279 0.2283261
0.5130036 0.3775966 0.2320056
0.5208320 0.3808173 0.2356989
0.5284683 0.3840845 0.2394008
0.5359201 0.3873925 0.2431066
0.2645959 0.3461239 0.1782325
0.2649550 0.3461403 0.1782599
0.2664747 0.3462105 0.1783772
0.2694828 0.3463531 0.1786149
0.2740889 0.3465805 0.1789932
0.2802481 0.3469027 0.1795274
0.2878019 0.3473276 0.1802286
0.2965249 0.3478617 0.1811048
0.3061666 0.3485102 0.1821614
0.3164838 0.3492773 0.1834008
0.3272601 0.3501659 0.1848231
0.3383144 0.3511783 0.1864263
0.3495013 0.3523155 0.1882064
0.3607087 0.3535780 0.1901577
0.3718520 0.3549651 0.1922731
0.3828694 0.3564756 0.1945443
0.3937168 0.3581076 0.1969623
0.4043638 0.3598584 0.1995173
0.4147905 0.3617249 0.2021990
0.4249848 0.3637035 0.2049972
0.4349402 0.3657900 0.2079015
0.4446547 0.3679799 0.2109018
0.4541291 0.3702686 0.2139881
0.4633667 0.3726509 0.2171508
0.4723721 0.3751218 0.2203809
0.4811511 0.3776760 0.2236698
0.4897102 0.3803081 0.2270094
0.4980562 0.3830128 0.2303922
0.5061963 0.3857849 0.2338113
0.5141374 0.3886189 0.2372601
0.5218869 0.3915099 0.2407327
0.5294517 0.3944529 0.2442238
0.5368385 0.3974429 0.2477285
0.2789286 0.3626600 0.1894764
0.2792341 0.3626739 0.1895000
0.2805297 0.3627333 0.1896008
0.2831049 0.3628537 0.1898051
0.2870750 0.3630459 0.1901306
0.2924320 0.3633183 0.1905907
0.2990727 0.3636778 0.1911954
0.3068303 0.3641300 0.1919525
0.3155056 0.3646797 0.1928673
0.3248942 0.3653306 0.1939429
0.3348043 0.3660858 0.1951807
0.3450674 0.3669475 0.1965803
0.3555427 0.3679171 0.1981395
0.3661163 0.3689956 0.1998548
0.3766989 0.3701831 0.2017214
0.3872220 0.3714792 0.2037335
0.3976345 0.3728830 0.2058842
0.4078990 0.3743929 0.2081661
0.4179891 0.3760069 0.2105714
0.4278866 0.3777227 0.2130915
0.4375801 0.3795373 0.2157181
0.4470627 0.3814476 0.2184426
0.4563314 0.3834502 0.2212566
0.4653860 0.3855413 0.2241516
0.4742283 0.3877171 0.2271197
0.4828614 0.3899733 0.2301529
0.4912897 0.3923059 0.2332441
0.4995181 0.3947106 0.2363860
0.5075521 0.3971829 0.2395720
0.5153976 0.3997188 0.2427960
0.5230603 0.4023137 0.2460522
0.5305463 0.4049635 0.2493352
0.5378615 0.4076640 0.2526400
0.2925838 0.3783070 0.2002923
0.2928467 0.3783188 0.2003128
0.2939626 0.3783695 0.2004003
0.2961879 0.3784724 0.2005777
0.2996372 0.3786367 0.2008605
0.3043257 0.3788696 0.2012604
0.3101890 0.3791771 0.2017867
0.3171056 0.3795642 0.2024465
0.3249193 0.3800351 0.2032451
0.3334606 0.3805932 0.2041859
0.3425629 0.3812414 0.2052710
0.3520738 0.3819819 0.2065008
0.3618602 0.3828164 0.2078747
0.3718105 0.3837460 0.2093906
0.3818339 0.3847714 0.2110454
0.3918581 0.3858925 0.2128349
0.4018269 0.3871091 0.2147542
0.4116976 0.3884205 0.2167978
0.4214382 0.3898253 0.2189595
0.4310256 0.3913222 0.2212327
0.4404435 0.3929091 0.2236104
0.4496809 0.3945838 0.2260857
0.4587311 0.3963440 0.2286515
0.4675906 0.3981868 0.2313004
0.4762581 0.4001092 0.2340257
0.4847345 0.4021083 0.2368203
0.4930218 0.4041806 0.2396775
0.5011232 0.4063229 0.2425911
0.5090424 0.4085317 0.2455547
0.5167839 0.4108034 0.2485627
0.5243523 0.4131345 0.2516094
0.5317525 0.4155215 0.2546898
0.5389895 0.4179608 0.2577989
0.3056240 0.3931555 0.2107124
0.3058522 0.3931657 0.2107303
0.3068220 0.3932095 0.2108069
0.3087611 0.3932983 0.2109622
0.3117799 0.3934401 0.2112100
0.3159077 0.3936411 0.2115606
0.3211078 0.3939067 0.2120224
0.3272928 0.3942412 0.2126019
0.3343414 0.3946484 0.2133041
0.3421150 0.3951313 0.2141328
0.3504711 0.3956927 0.2150903
0.3592742 0.3963347 0.2161778
0.3684014 0.3970589 0.2173953
0.3777463 0.3978667 0.2187419
0.3872191 0.3987589 0.2202156
0.3967461 0.3997359 0.2218136
0.4062680 0.4007977 0.2235326
0.4157383 0.4019442 0.2253682
0.4251207 0.4031747 0.2273158
0.4343879 0.4044882 0.2293703
0.4435194 0.4058836 0.2315260
0.4525006 0.4073592 0.2337774
0.4613213 0.4089134 0.2361183
0.4699748 0.4105441 0.2385428
0.4784573 0.4122492 0.2410449
0.4867671 0.4140263 0.2436185
0.4949041 0.4158729 0.2462578
0.5028696 0.4177863 0.2489571
0.5106658 0.4197638 0.2517107
0.5182956 0.4218027 0.2545132
0.5257625 0.4238999 0.2573596
0.5330702 0.4260526 0.2602450
0.5402227 0.4282578 0.2631647
0.3181028 0.4072831 0.2207653
0.3183026 0.4072920 0.2207812
0.3191522 0.4073301 0.2208487
0.3208546 0.4074074 0.2209858
0.3235143 0.4075308 0.2212044
0.3271690 0.4077059 0.2215140
0.3318011 0.4079372 0.2219221
0.3373494 0.4082287 0.2224346
0.3437204 0.4085837 0.2230564
0.3508018 0.4090050 0.2237910
0.3584732 0.4094951 0.2246411
0.3666158 0.4100559 0.2256081
0.3751183 0.4106893 0.2266928
0.3838811 0.4113964 0.2278948
0.3928175 0.4121782 0.2292132
0.4018543 0.4130354 0.2306461
0.4109311 0.4139682 0.2321912
0.4199988 0.4149769 0.2338452
0.4290180 0.4160610 0.2356048
0.4379581 0.4172201 0.2374659
0.4467952 0.4184535 0.2394240
0.4555115 0.4197600 0.2414746
0.4640935 0.4211386 0.2436128
0.4725320 0.4225878 0.2458336
0.4808204 0.4241059 0.2481318
0.4889548 0.4256913 0.2505023
0.4969331 0.4273420 0.2529399
0.5047548 0.4290559 0.2554396
0.5124204 0.4308310 0.2579964
0.5199313 0.4326649 0.2606054
0.5272899 0.4345553 0.2632619
0.5344986 0.4364998 0.2659614
0.5415607 0.4384961 0.2686996
0.3300674 0.4207562 0.2304769
0.3302435 0.4207641 0.2304909
0.3309931 0.4207974 0.2305509
0.3324978 0.4208652 0.2306726
0.3348554 0.4209735 0.2308669
0.3381082 0.4211271 0.2311421
0.3422522 0.4213302 0.2315050
0.3472455 0.4215861 0.2319611
0.3530169 0.4218978 0.2325150
0.3594761 0.4222680 0.2331700
0.3665224 0.4226989 0.2339289
0.3740527 0.4231924 0.2347935
0.3819675 0.4237500 0.2357646
0.3901752 0.4243731 0.2368427
0.3985938 0.4250626 0.2380272
0.4071521 0.4258194 0.2393171
0.4157897 0.4266439 0.2407108
0.4244564 0.4275364 0.2422061
0.4331110 0.4284969 0.2438003
0.4417202 0.4295252 0.2454903
0.4502575 0.4306208 0.2472728
0.4587023 0.4317832 0.2491439
0.4670386 0.4330115 0.2510998
0.4752545 0.4343047 0.2531362
0.4833412 0.4356617 0.2552489
0.4912927 0.4370811 0.2574334
0.4991048 0.4385616 0.2596854
0.5067754 0.4401015 0.2620004
0.5143033 0.4416992 0.2643740
0.5216888 0.4433528 0.2668018
0.5289327 0.4450606 0.2692797
0.5360366 0.4468205 0.2718035
0.5430026 0.4486307 0.2743691
0.3415587 0.4336324 0.2398700
0.3417150 0.4336393 0.2398825
0.3423807 0.4336688 0.2399361
0.3437187 0.4337287 0.2400449
0.3458202 0.4338243 0.2402185
0.3487295 0.4339600 0.2404645
0.3524522 0.4341394 0.2407891
0.3569606 0.4343656 0.2411974
0.3622015 0.4346412 0.2416935
0.3681024 0.4349687 0.2422807
0.3745798 0.4353500 0.2429617
0.3815452 0.4357869 0.2437384
0.3889106 0.4362809 0.2446119
0.3965927 0.4368333 0.2455830
0.4045150 0.4374450 0.2466516
0.4126097 0.4381170 0.2478173
0.4208177 0.4388498 0.2490789
0.4290886 0.4396438 0.2504349
0.4373801 0.4404991 0.2518835
0.4456574 0.4414159 0.2534222
0.4538920 0.4423938 0.2550484
0.4620610 0.4434326 0.2567592
0.4701463 0.4445317 0.2585513
0.4781338 0.4456904 0.2604212
0.4860126 0.4469080 0.2623655
0.4937747 0.4481835 0.2643804
0.5014142 0.4495157 0.2664622
0.5089273 0.4509035 0.2686069
0.5163114 0.4523457 0.2708108
0.5235653 0.4538407 0.2730700
0.5306888 0.4553872 0.2753808
0.5376823 0.4569835 0.2777393
0.5445468 0.4586281 0.2801420
0.3526132 0.4459619 0.2489655
0.3527527 0.4459680 0.2489767
0.3533472 0.4459942 0.2490249
0.3545435 0.4460474 0.2491226
0.3564264 0.4461324 0.2492786
0.3590405 0.4462530 0.2494997
0.3623978 0.4464125 0.2497916
0.3664816 0.4466136 0.2501588
0.3712525 0.4468588 0.2506054
0.3766529 0.4471501 0.2511344
0.3826138 0.4474895 0.2517483
0.3890599 0.4478785 0.2524492
0.3959139 0.4483186 0.2532384
0.4031011 0.4488111 0.2541168
0.4105510 0.4493568 0.2550846
0.4181997 0.4499566 0.2561417
0.4259902 0.4506112 0.2572876
0.4338732 0.4513211 0.2585213
0.4418060 0.4520865 0.2598413
0.4497529 0.4529076 0.2612459
0.4576842 0.4537844 0.2627331
0.4655752 0.4547167 0.2643005
0.4734060 0.4557042 0.2659455
0.4811608 0.4567465 0.2676653
0.4888268 0.4578431 0.2694571
0.4963943 0.4589932 0.2713176
0.5038558 0.4601960 0.2732436
0.5112059 0.4614507 0.2752320
0.5184407 0.4627562 0.2772792
0.5255578 0.4641115 0.2793821
0.5325555 0.4655154 0.2815372
0.5394335 0.4669667 0.2837411
0.5461918 0.4684639 0.2859907
0.3632631 0.4577886 0.2577821
0.3633882 0.4577941 0.2577922
0.3639219 0.4578175 0.2578357
0.3649969 0.4578650 0.2579239
0.3666918 0.4579410 0.2580647
0.3690507 0.4580488 0.2582644
0.3720898 0.4581913 0.2585281
0.3758007 0.4583711 0.2588600
0.3801545 0.4585903 0.2592638
0.3851061 0.4588509 0.2597425
0.3905988 0.4591546 0.2602984
0.3965687 0.4595028 0.2609336
0.4029486 0.4598970 0.2616494
0.4096718 0.4603382 0.2624469
0.4166742 0.4608274 0.2633267
0.4238962 0.4613654 0.2642888
0.4312838 0.4619530 0.2653330
0.4387889 0.4625906 0.2664587
0.4463697 0.4632785 0.2676650
0.4539900 0.4640172 0.2689505
0.4616193 0.4648066 0.2703137
0.4692320 0.4656467 0.2717528
0.4768067 0.4665375 0.2732658
0.4843259 0.4674786 0.2748502
0.4917756 0.4684697 0.2765038
0.4991444 0.4695103 0.2782240
0.5064236 0.4705998 0.2800079
0.5136061 0.4717376 0.2818528
0.5206869 0.4729229 0.2837559
0.5276623 0.4741548 0.2857142
0.5345298 0.4754325 0.2877248
0.5412876 0.4767550 0.2897847
0.5479352 0.4781212 0.2918909
0.3735369 0.4691514 0.2663367
0.3736498 0.4691563 0.2663460
0.3741311 0.4691773 0.2663854
0.3751016 0.4692200 0.2664654
0.3766338 0.4692882 0.2665931
0.3787709 0.4693850 0.2667742
0.3815317 0.4695131 0.2670135
0.3849139 0.4696746 0.2673148
0.3888971 0.4698716 0.2676814
0.3934461 0.4701059 0.2681163
0.3985146 0.4703789 0.2686217
0.4040485 0.4706922 0.2691995
0.4099900 0.4710468 0.2698513
0.4162798 0.4714439 0.2705780
0.4228601 0.4718845 0.2713804
0.4296759 0.4723693 0.2722589
0.4366764 0.4728989 0.2732134
0.4438156 0.4734741 0.2742436
0.4510529 0.4740950 0.2753490
0.4583523 0.4747622 0.2765285
0.4656829 0.4754757 0.2777811
0.4730186 0.4762357 0.2791053
0.4803369 0.4770422 0.2804995
0.4876193 0.4778949 0.2819618
0.4948505 0.4787937 0.2834904
0.5020178 0.4797383 0.2850829
0.5091111 0.4807283 0.2867372
0.5161224 0.4817632 0.2884509
0.5230453 0.4828424 0.2902214
0.5298750 0.4839652 0.2920464
0.5366080 0.4851311 0.2939232
0.5432417 0.4863391 0.2958492
0.5497745 0.4875884 0.2978217
0.3834605 0.4800847 0.2746450
0.3835627 0.4800891 0.2746534
0.3839987 0.4801081 0.2746893
0.3848785 0.4801466 0.2747621
0.3862693 0.4802082 0.2748784
0.3882126 0.4802955 0.2750434
0.3907289 0.4804111 0.2752613
0.3938206 0.4805569 0.2755358
0.3974737 0.4807347 0.2758701
0.4016611 0.4809462 0.2762667
0.4063451 0.4811928 0.2767278
0.4114804 0.4814758 0.2772554
0.4170172 0.4817963 0.2778508
0.4229033 0.4821553 0.2785153
0.4290868 0.4825537 0.2792496
0.4355174 0.4829923 0.2800542
0.4421478 0.4834717 0.2809293
0.4489345 0.4839926 0.2818748
0.4558382 0.4845553 0.2828904
0.4628238 0.4851602 0.2839754
0.4698607 0.4858075 0.2851289
0.4769222 0.4864975 0.2863500
0.4839855 0.4872301 0.2876373
0.4910310 0.4880054 0.2889894
0.4980426 0.4888232 0.2904046
0.5050065 0.4896834 0.2918812
0.5119116 0.4905856 0.2934173
0.5187488 0.4915296 0.2950109
0.5255106 0.4925149 0.2966598
0.5321914 0.4935410 0.2983620
0.5387864 0.4946074 0.3001151
0.5452924 0.4957135 0.3019169
0.5517069 0.4968586 0.3037651
0.3930568 0.4906193 0.2827209
0.3931498 0.4906233 0.2827286
0.3935463 0.4906405 0.2827613
0.3943470 0.4906754 0.2828279
0.3956140 0.4907312 0.2829342
0.3973872 0.4908103 0.2830850
0.3996880 0.4909151 0.2832842
0.4025219 0.4910472 0.2835353
0.4058803 0.4912084 0.2838411
0.4097425 0.4914002 0.2842040
0.4140781 0.4916238 0.2846263
0.4188491 0.4918804 0.2851096
0.4240128 0.4921712 0.2856554
