LUTS_for_Software_DaVinci_Premiere_Avid_FinalCutPro/DaVinci-Resolve-with-Video-Range-Tag/Type-1-LUTs-For-Graphics-DaVinci Resolve-Requires-Scaling/4-NBCU_SDR2PQ_Type1-VRT.cube
TITLE "NBCU SDR to PQ For Graphics"
TITLE "SDR-BT.709 to PQ-BT.2100 Display-Light Conversion 3D Look-Up-Table"
#
# PLEASE DO NOT ALTER THE LINES BELOW
# 
# © 2020 NBCUniversal, LLC - Please do not remove this line
#
# Built using tools from and in collaboration with Cromorama and Nick Shaw - the creators of ORION-CONVERT
#
# SDR Display Light Conversion uses an assumed Lw of 203nits
#
# 100% SDR maps to 58% PQ - **NO SUPER-WHITES OR SUB-BLACKS**
#
# No Matrix Compensation (so make sure your device is using the correct matrix)
#
# Type I LUT - Narrow Range with **NO SUPER-WHITES OR SUB-BLACKS**
#
# For Graphics Input, scale RGB Full to Narrow Range For use with this LUT
# For Graphics Output, scale LUT Output from Narrow to Full range
# RESOLVE 17 VIDEO RANGE TAGS
LUT_IN_VIDEO_RANGE
LUT_OUT_VIDEO_RANGE
LUT_3D_SIZE 5
0.0000000 0.0000000 0.0000000
0.2411105 0.1174769 0.0669757
0.3728334 0.2051903 0.1273965
0.4631401 0.2721631 0.1772493
0.5318742 0.3264785 0.2196361
0.1988317 0.2685689 0.1281784
0.2715132 0.2739696 0.1361421
0.3812440 0.2939804 0.1621969
0.4667242 0.3247347 0.1964878
0.5337770 0.3595341 0.2313968
0.3181028 0.4072831 0.2207653
0.3437204 0.4085837 0.2230564
0.4109311 0.4139682 0.2321912
0.4808204 0.4241059 0.2481318
0.5415607 0.4384961 0.2686996
0.4023469 0.5007826 0.2905774
0.4141156 0.5013186 0.2916051
0.4532553 0.5035816 0.2958756
0.5047428 0.5080362 0.3039820
0.5558383 0.5147960 0.3156300
0.4675881 0.5712530 0.3467711
0.4740472 0.5715333 0.3473387
0.4979593 0.5727246 0.3497304
0.5345106 0.5751049 0.3544145
0.5753782 0.5788063 0.3614671
0.0986933 0.0573570 0.2666176
0.2457787 0.1241310 0.2679580
0.3739811 0.2071252 0.2734732
0.4636186 0.2730381 0.2837220
0.5321264 0.3269646 0.2980197
0.2065404 0.2694799 0.2735875
0.2748271 0.2748271 0.2748271
0.3822995 0.2946680 0.2799440
0.4671867 0.3252297 0.2895178
0.5340249 0.3598798 0.3029989
0.3201107 0.4074981 0.2984784
0.3452605 0.4087960 0.2994217
0.4117198 0.4141697 0.3033513
0.4812255 0.4242885 0.3108539
0.5417915 0.4386551 0.3217242
0.4032044 0.5008710 0.3346907
0.4148803 0.5014065 0.3353337
0.4537806 0.5036677 0.3380368
0.5050669 0.5081187 0.3433040
0.5560407 0.5148735 0.3511723
0.4680469 0.5712992 0.3737876
0.4744789 0.5715794 0.3742194
0.4983045 0.5727702 0.3760455
0.5347567 0.5751495 0.3796545
0.5755475 0.5788494 0.3851673
0.1771681 0.1115227 0.4048606
0.2632936 0.1465111 0.4051781
0.3787468 0.2149055 0.4065251
0.4656412 0.2766870 0.4092074
0.5331988 0.3290165 0.4133550
0.2330302 0.2732749 0.4065537
0.2877629 0.2784049 0.4068659
0.3866937 0.2975528 0.4081910
0.4691430 0.3273189 0.4108306
0.5350787 0.3613454 0.4149143
0.3282499 0.4084128 0.4134961
0.3515866 0.4096992 0.4137879
0.4150270 0.4150270 0.4150270
0.4829415 0.4250660 0.4174985
0.5427730 0.4393324 0.4213305
0.4067935 0.5012479 0.4262989
0.4180888 0.5017816 0.4265566
0.4559990 0.5040350 0.4276522
0.5064426 0.5084712 0.4298422
0.5569024 0.5152046 0.4332502
0.4699874 0.5714964 0.4439591
0.4763063 0.5717761 0.4441766
0.4997689 0.5729647 0.4451023
0.5358036 0.5753399 0.4469576
0.5762690 0.5790335 0.4498571
0.2385832 0.1571336 0.4981502
0.2907722 0.1769636 0.4982807
0.3877795 0.2287082 0.4988374
0.4696339 0.2836690 0.4999592
0.5353447 0.3330528 0.5017286
0.2697441 0.2805174 0.4988493
0.3094545 0.2852596 0.4989790
0.3950687 0.3031473 0.4995320
0.4730082 0.3314260 0.5006466
0.5371882 0.3642564 0.5024048
0.3429118 0.4102458 0.5017896
0.3632984 0.4115095 0.5019157
0.4214332 0.4167465 0.5024539
0.4863439 0.4266272 0.5035387
0.5447396 0.4406946 0.5052506
0.4137167 0.5020095 0.5075244
0.4243130 0.5025394 0.5076441
0.4603656 0.5047771 0.5081544
0.5091835 0.5091835 0.5091835
0.5586318 0.5158739 0.5108086
0.4738226 0.5718958 0.5161023
0.4799236 0.5721745 0.5162128
0.5026830 0.5733589 0.5166842
0.5378991 0.5757256 0.5176353
0.5777197 0.5794064 0.5191388
0.2891380 0.1964069 0.5685090
0.3224985 0.2087177 0.5685773
0.4007254 0.2468735 0.5688688
0.4757205 0.2938189 0.5694585
0.5386898 0.3391725 0.5703948
0.3081225 0.2910064 0.5688751
0.3361919 0.2952428 0.5689431
0.4071690 0.3114442 0.5692336
0.4789095 0.3376469 0.5698214
0.5404778 0.3687394 0.5707546
0.3625402 0.4131098 0.5704272
0.3795449 0.4143389 0.5704943
0.4309149 0.4194372 0.5707807
0.4915679 0.4290753 0.5713603
0.5478117 0.4428363 0.5722805
0.4238990 0.5032161 0.5735134
0.4335460 0.5037400 0.5735786
0.4669918 0.5059532 0.5738571
0.5134256 0.5103126 0.5744207
0.5613411 0.5169354 0.5753156
0.4796801 0.5725314 0.5782738
0.4854632 0.5728085 0.5783362
0.5071837 0.5739861 0.5786029
0.5411676 0.5763394 0.5791426
0.5800000 0.5800000 0.5800000
