LUTS_for_Software_DaVinci_Premiere_Avid_FinalCutPro/DaVinci-Resolve-with-Video-Range-Tag/Type-1-LUTs-For-Graphics-DaVinci Resolve-Requires-Scaling/4-NBCU_SDR2PQ_Type1-VRT.cube
TITLE "NBCU SDR to PQ For Graphics"
TITLE "SDR-BT.709 to PQ-BT.2100 Display-Light Conversion 3D Look-Up-Table"
#
# PLEASE DO NOT ALTER THE LINES BELOW
# 
# © 2020 NBCUniversal, LLC - Please do not remove this line
#
# Built using tools from and in collaboration with Cromorama and Nick Shaw - the creators of ORION-CONVERT
#
# SDR Display Light Conversion uses an assumed Lw of 203nits
#
# 100% SDR maps to 58% PQ - **NO SUPER-WHITES OR SUB-BLACKS**
#
# No Matrix Compensation (so make sure your device is using the correct matrix)
#
# Type I LUT - Narrow Range with **NO SUPER-WHITES OR SUB-BLACKS**
#
# For Graphics Input, scale RGB Full to Narrow Range For use with this LUT
# For Graphics Output, scale LUT Output from Narrow to Full range
# RESOLVE 17 VIDEO RANGE TAGS
LUT_IN_VIDEO_RANGE
LUT_OUT_VIDEO_RANGE
LUT_3D_SIZE 9
0.0000000 0.0000000 0.0000000
0.1424232 0.0609343 0.0318987
0.2411105 0.1174769 0.0669757
0.3143879 0.1647151 0.0987468
0.3728334 0.2051903 0.1273965
0.4214804 0.2406257 0.1534195
0.4631401 0.2721631 0.1772493
0.4995527 0.3005916 0.1992308
0.5318742 0.3264785 0.2196361
0.1131605 0.1621020 0.0674562
0.1642419 0.1660316 0.0723837
0.2477557 0.1807540 0.0889205
0.3173806 0.2038630 0.1115773
0.3744823 0.2306814 0.1355854
0.4225045 0.2581148 0.1590258
0.4638286 0.2847194 0.1812970
0.5000423 0.3099509 0.2022744
0.5322373 0.3336724 0.2219985
0.1988317 0.2685689 0.1281784
0.2184088 0.2696178 0.1297677
0.2715132 0.2739696 0.1361421
0.3292104 0.2822034 0.1474067
0.3812440 0.2939804 0.1621969
0.4267745 0.3084710 0.1789465
0.4667242 0.3247347 0.1964878
0.5021118 0.3419576 0.2141034
0.5337770 0.3595341 0.2313968
0.2645959 0.3461239 0.1782325
0.2740889 0.3465805 0.1789932
0.3061666 0.3485102 0.1821614
0.3495013 0.3523155 0.1882064
0.3937168 0.3581076 0.1969623
0.4349402 0.3657900 0.2079015
0.4723721 0.3751218 0.2203809
0.5061963 0.3857849 0.2338113
0.5368385 0.3974429 0.2477285
0.3181028 0.4072831 0.2207653
0.3235143 0.4075308 0.2212044
0.3437204 0.4085837 0.2230564
0.3751183 0.4106893 0.2266928
0.4109311 0.4139682 0.2321912
0.4467952 0.4184535 0.2394240
0.4808204 0.4241059 0.2481318
0.5124204 0.4308310 0.2579964
0.5415607 0.4384961 0.2686996
0.3632631 0.4577886 0.2577821
0.3666918 0.4579410 0.2580647
0.3801545 0.4585903 0.2592638
0.4029486 0.4598970 0.2616494
0.4312838 0.4619530 0.2653330
0.4616193 0.4648066 0.2703137
0.4917756 0.4684697 0.2765038
0.5206869 0.4729229 0.2837559
0.5479352 0.4781212 0.2918909
0.4023469 0.5007826 0.2905774
0.4046832 0.5008844 0.2907730
0.4141156 0.5013186 0.2916051
0.4309626 0.5021950 0.2932720
0.4532553 0.5035816 0.2958756
0.4785043 0.5055211 0.2994516
0.5047428 0.5080362 0.3039820
0.5307407 0.5111314 0.3094055
0.5558383 0.5147960 0.3156300
0.4367963 0.5381836 0.3200316
0.4384744 0.5382556 0.3201741
0.4453635 0.5385630 0.3207811
0.4580988 0.5391847 0.3220021
0.4757203 0.5401713 0.3239220
0.4965980 0.5415578 0.3265844
0.5191627 0.5433664 0.3299983
0.5422383 0.5456090 0.3341434
0.5650675 0.5482874 0.3389758
0.4675881 0.5712530 0.3467711
0.4688425 0.5713062 0.3468789
0.4740472 0.5715333 0.3473387
0.4838926 0.5719933 0.3482660
0.4979593 0.5727246 0.3497304
0.5152219 0.5737553 0.3517736
0.5345106 0.5751049 0.3544145
0.5548123 0.5767865 0.3576518
0.5753782 0.5788063 0.3614671
0.0497802 0.0267472 0.1606869
0.1457327 0.0649758 0.1616587
0.2420150 0.1187964 0.1656696
0.3147871 0.1653524 0.1731750
0.3730519 0.2055606 0.1837564
0.4216157 0.2408653 0.1965913
0.4632309 0.2723296 0.2108308
0.4996172 0.3007132 0.2257906
0.5319221 0.3265708 0.2409892
0.1183973 0.1627636 0.1657529
0.1666572 0.1666572 0.1666572
0.2485924 0.1812644 0.1704004
0.3177672 0.2042396 0.1774489
0.3746972 0.2309513 0.1874711
0.4226384 0.2583101 0.1997387
0.4639188 0.2848641 0.2134628
0.5001065 0.3100608 0.2279834
0.5322850 0.3337580 0.2428197
0.2003522 0.2687422 0.1840979
0.2195978 0.2697891 0.1848007
0.2721506 0.2741327 0.1877346
0.3295518 0.2823522 0.1933622
0.3814448 0.2941111 0.2015758
0.4269031 0.3085827 0.2119273
0.4668120 0.3248287 0.2238383
0.5021748 0.3420362 0.2367570
0.5338240 0.3595997 0.2502328
0.2652852 0.3461991 0.2114647
0.2747082 0.3466554 0.2119576
0.3066023 0.3485836 0.2140325
0.3497780 0.3523862 0.2180875
0.3938942 0.3581741 0.2241744
0.4350590 0.3658515 0.2321086
0.4724553 0.3751779 0.2415648
0.5062569 0.3858353 0.2521695
0.5368842 0.3974878 0.2635669
0.3184866 0.4073239 0.2418625
0.3238767 0.4075715 0.2422029
0.3440141 0.4086239 0.2436438
0.3753319 0.4107287 0.2464969
0.4110810 0.4140064 0.2508686
0.4469013 0.4184900 0.2567193
0.4808973 0.4241406 0.2639027
0.5124776 0.4308634 0.2722085
0.5416045 0.4385262 0.2814019
0.3635036 0.4578137 0.2720263
0.3669242 0.4579660 0.2722667
0.3803575 0.4586152 0.2732878
0.4031107 0.4599216 0.2753261
0.4314068 0.4619771 0.2784911
0.4617115 0.4648300 0.2828034
0.4918450 0.4684923 0.2882123
0.5207400 0.4729446 0.2946143
0.5479764 0.4781419 0.3018729
0.4025099 0.5007994 0.3006956
0.4048425 0.5009011 0.3008708
0.4142609 0.5013352 0.3016166
0.4310860 0.5022116 0.3031129
0.4533550 0.5035979 0.3054560
0.4785828 0.5055372 0.3086862
0.5048043 0.5080518 0.3127974
0.5307891 0.5111466 0.3177454
0.5558767 0.5148107 0.3234577
0.4369130 0.5381954 0.3275173
0.4385893 0.5382674 0.3276490
0.4454711 0.5385748 0.3282102
0.4581940 0.5391964 0.3293399
0.4758009 0.5401830 0.3311187
0.4966643 0.5415692 0.3335901
0.5192164 0.5433777 0.3367670
0.5422818 0.5456200 0.3406358
0.5651028 0.5482982 0.3451611
0.4676752 0.5712617 0.3524930
0.4689285 0.5713149 0.3525947
0.4741291 0.5715421 0.3530284
0.4839672 0.5720020 0.3539034
0.4980248 0.5727333 0.3552862
0.5152777 0.5737638 0.3572178
0.5345572 0.5751134 0.3597178
0.5548511 0.5767948 0.3627877
0.5754103 0.5788145 0.3664129
0.0986933 0.0573570 0.2666176
0.1582822 0.0788904 0.2668731
0.2457787 0.1241310 0.2679580
0.3164757 0.1680158 0.2701211
0.3739811 0.2071252 0.2734732
0.4221924 0.2418826 0.2780280
0.4636186 0.2730381 0.2837220
0.4998928 0.3012317 0.2904366
0.5321264 0.3269646 0.2980197
0.1367305 0.1655250 0.2679810
0.1761525 0.1692728 0.2682326
0.2520820 0.1834088 0.2693010
0.3194037 0.2058306 0.2714319
0.3756112 0.2320960 0.2747358
0.4232095 0.2591408 0.2792281
0.4643039 0.2854804 0.2848490
0.5003809 0.3105298 0.2914836
0.5324887 0.3341233 0.2989840
0.2065404 0.2694799 0.2735875
0.2244960 0.2705181 0.2738236
0.2748271 0.2748271 0.2748271
0.3309987 0.2829858 0.2768309
0.3822995 0.2946680 0.2799440
0.4274512 0.3090591 0.2841887
0.4671867 0.3252297 0.2895178
0.5024440 0.3423714 0.2958320
0.5340249 0.3598798 0.3029989
0.2681742 0.3465203 0.2839914
0.2773100 0.3469751 0.2842017
0.3084438 0.3488971 0.2850960
0.3509532 0.3526876 0.2868855
0.3946499 0.3584583 0.2896751
0.4355658 0.3661145 0.2934965
0.4728107 0.3754173 0.2983218
0.5065160 0.3860506 0.3040765
0.5370795 0.3976797 0.3106540
0.3201107 0.4074981 0.2984784
0.3254117 0.4077453 0.2986579
0.3452605 0.4087960 0.2994217
0.3762401 0.4108972 0.3009536
0.4117198 0.4141697 0.3033513
0.4473539 0.4186463 0.3066543
0.4812255 0.4242885 0.3108539
0.5127222 0.4310021 0.3159028
0.5417915 0.4386551 0.3217242
0.3645262 0.4579208 0.3157898
0.3679122 0.4580730 0.3159388
0.3812215 0.4587216 0.3165736
0.4038011 0.4600266 0.3178499
0.4319317 0.4620801 0.3198551
0.4621047 0.4649303 0.3226325
0.4921413 0.4685892 0.3261885
0.5209666 0.4730375 0.3304985
0.5481528 0.4782304 0.3355130
0.4032044 0.5008710 0.3346907
0.4055213 0.5009726 0.3348128
0.4148803 0.5014065 0.3353337
0.4316125 0.5022822 0.3363828
0.4537806 0.5036677 0.3380368
0.4789183 0.5056056 0.3403386
0.5050669 0.5081187 0.3433040
0.5309956 0.5112116 0.3469246
0.5560407 0.5148735 0.3511723
0.4374109 0.5382461 0.3542338
0.4390792 0.5383180 0.3543336
0.4459298 0.5386253 0.3547597
0.4586006 0.5392466 0.3556194
0.4761453 0.5402327 0.3569784
0.4969476 0.5416183 0.3588773
0.5194462 0.5434260 0.3613360
0.5424676 0.5456673 0.3643567
0.5652535 0.5483443 0.3679259
0.4680469 0.5712992 0.3737876
0.4692959 0.5713523 0.3738696
0.4744789 0.5715794 0.3742194
0.4842862 0.5720391 0.3749260
0.4983045 0.5727702 0.3760455
0.5155160 0.5738004 0.3776145
0.5347567 0.5751495 0.3796545
0.5550166 0.5768303 0.3821735
0.5755475 0.5788494 0.3851673
0.1406378 0.0856589 0.3438828
0.1783766 0.0985585 0.3439938
0.2529458 0.1337045 0.3444675
0.3198147 0.1731359 0.3454225
0.3758419 0.2102101 0.3469300
0.4233540 0.2439118 0.3490321
0.4644015 0.2744599 0.3517471
0.5004504 0.3022758 0.3550723
0.5325403 0.3277594 0.3589871
0.1629555 0.1708209 0.3444776
0.1923100 0.1743067 0.3445880
0.2587613 0.1875820 0.3450588
0.3226425 0.2089656 0.3460080
0.3774422 0.2343734 0.3475065
0.4243598 0.2608037 0.3495963
0.4650818 0.2867194 0.3522959
0.5009359 0.3114750 0.3556028
0.5329012 0.3348610 0.3594969
0.2177850 0.2709595 0.3469819
0.2336234 0.2719806 0.3470895
0.2800275 0.2762209 0.3475483
0.3338716 0.2842592 0.3484736
0.3840132 0.2957888 0.3499349
0.4285555 0.3100193 0.3519739
0.4679438 0.3260390 0.3546094
0.5029885 0.3430488 0.3578404
0.5344316 0.3604464 0.3616486
0.2737660 0.3471695 0.3518779
0.2823721 0.3476212 0.3519802
0.3120755 0.3495306 0.3524167
0.3532971 0.3532971 0.3532971
0.3961676 0.3590331 0.3546885
0.4365876 0.3666464 0.3566317
0.4735287 0.3759018 0.3591465
0.5070403 0.3864864 0.3622340
0.5374750 0.3980682 0.3658792
0.3233258 0.4078511 0.3592293
0.3284550 0.4080974 0.3593242
0.3477437 0.4091445 0.3597292
0.3780597 0.4112387 0.3605467
0.4130051 0.4145004 0.3618397
0.4482671 0.4189630 0.3636479
0.4818891 0.4245884 0.3659919
0.5132172 0.4312832 0.3688757
0.5421702 0.4389162 0.3722886
0.3665710 0.4581382 0.3688104
0.3698890 0.4582901 0.3688965
0.3829535 0.4589373 0.3692642
0.4051891 0.4602397 0.3700068
0.4329896 0.4622891 0.3711826
0.4628989 0.4651337 0.3728295
0.4927406 0.4687857 0.3749686
0.5214253 0.4732259 0.3776067
0.5485100 0.4784098 0.3807379
0.4046004 0.5010162 0.3802200
0.4068863 0.5011177 0.3802968
0.4161268 0.5015510 0.3806248
0.4326736 0.5024255 0.3812877
0.4546398 0.5038091 0.3823386
0.4795964 0.5057446 0.3838127
0.5055984 0.5082545 0.3857316
0.5314138 0.5113436 0.3881044
0.5563731 0.5150010 0.3909294
0.4384148 0.5383489 0.3929926
0.4400672 0.5384207 0.3930602
0.4468555 0.5387277 0.3933493
0.4594215 0.5393485 0.3939337
0.4768412 0.5403336 0.3948612
0.4975207 0.5417180 0.3961644
0.5199115 0.5435240 0.3978643
0.5428440 0.5457633 0.3999717
0.5655591 0.5484380 0.4024883
0.4687978 0.5713751 0.4066824
0.4700380 0.5714282 0.4067416
0.4751858 0.5716551 0.4069943
0.4849311 0.5721145 0.4075056
0.4988704 0.5728451 0.4083177
0.5159984 0.5738746 0.4094605
0.5351607 0.5752228 0.4109541
0.5553521 0.5769025 0.4128101
0.5758257 0.5789202 0.4150330
0.1771681 0.1115227 0.4048606
0.2021637 0.1198847 0.4049209
0.2632936 0.1465111 0.4051781
0.3249195 0.1806342 0.4056985
0.3787468 0.2149055 0.4065251
0.4251845 0.2470583 0.4076880
0.4656412 0.2766870 0.4092074
0.5013359 0.3039209 0.4110951
0.5331988 0.3290165 0.4133550
0.1913094 0.1785500 0.4051836
0.2126159 0.1816913 0.4052436
0.2684769 0.1938064 0.4055000
0.3276012 0.2137330 0.4060188
0.3803016 0.2378897 0.4068428
0.4261727 0.2633981 0.4080021
0.4663137 0.2886657 0.4095169
0.5018174 0.3129666 0.4113990
0.5335575 0.3360287 0.4136523
0.2330302 0.2732749 0.4065537
0.2464102 0.2742698 0.4066129
0.2877629 0.2784049 0.4068659
0.3382932 0.2862586 0.4073779
0.3866937 0.2975528 0.4081910
0.4302970 0.3115341 0.4093352
0.4691430 0.3273189 0.4108306
0.5038534 0.3441221 0.4126889
0.5350787 0.3613454 0.4149143
0.2820348 0.3481983 0.4092811
0.2899175 0.3486454 0.4093388
0.3176043 0.3505350 0.4095852
0.3569317 0.3542637 0.4100837
0.3985479 0.3599450 0.4108757
0.4382006 0.3674910 0.4119905
0.4746667 0.3766716 0.4134479
0.5078734 0.3871793 0.4152598
0.5381043 0.3986864 0.4174308
0.3282499 0.4084128 0.4134961
0.3331274 0.4086578 0.4135515
0.3515866 0.4096992 0.4137879
0.3809018 0.4117822 0.4142665
0.4150270 0.4150270 0.4150270
0.4497107 0.4194673 0.4160978
0.4829415 0.4250660 0.4174985
0.5140040 0.4317309 0.4192410
0.5427730 0.4393324 0.4213305
0.3697550 0.4584848 0.4192013
0.3729699 0.4586361 0.4192537
0.3856620 0.4592813 0.4194774
0.4073697 0.4605794 0.4199302
0.4346589 0.4626223 0.4206502
0.4641563 0.4654581 0.4216644
0.4936918 0.4690991 0.4229918
0.5221547 0.4735265 0.4246447
0.5490788 0.4786961 0.4266288
0.4067935 0.5012479 0.4262989
0.4090313 0.5013492 0.4263478
0.4180888 0.5017816 0.4265566
0.4343480 0.5026543 0.4269796
0.4559990 0.5040350 0.4276522
0.4806715 0.5059664 0.4286003
0.5064426 0.5084712 0.4298422
0.5320791 0.5115541 0.4313901
0.5569024 0.5152046 0.4332502
0.4400000 0.5385130 0.4346206
0.4416277 0.5385847 0.4346657
0.4483185 0.5388912 0.4348585
0.4607207 0.5395111 0.4352490
0.4779445 0.5404948 0.4358703
0.4984306 0.5418771 0.4367466
0.5206511 0.5436805 0.4378954
0.5434431 0.5459166 0.4393287
0.5660458 0.5485876 0.4410535
0.4699874 0.5714964 0.4439591
0.4712139 0.5715494 0.4440003
0.4763063 0.5717761 0.4441766
0.4859540 0.5722350 0.4445338
0.4997689 0.5729647 0.4451023
0.5167652 0.5739931 0.4459047
0.5358036 0.5753399 0.4469576
0.5558864 0.5770178 0.4482727
0.5762690 0.5790335 0.4498571
0.2095253 0.1352451 0.4552433
0.2268913 0.1410321 0.4552803
0.2761652 0.1612726 0.4554387
0.3317302 0.1901233 0.4557596
0.3827337 0.2211350 0.4562706
0.4277303 0.2513375 0.4569923
0.4673779 0.2797583 0.4579401
0.5025813 0.3062090 0.4591255
0.5341274 0.3307743 0.4605556
0.2191038 0.1882923 0.4554421
0.2347116 0.1910548 0.4554791
0.2806657 0.2018568 0.4556371
0.3342297 0.2200505 0.4559574
0.3842284 0.2426441 0.4564674
0.4286946 0.2669563 0.4571878
0.4680394 0.2913609 0.4581339
0.5030573 0.3150456 0.4593171
0.5344831 0.3376636 0.4607447
0.2507793 0.2764637 0.4562883
0.2617995 0.2774238 0.4563250
0.2977294 0.2814189 0.4564818
0.3442453 0.2890250 0.4567995
0.3903830 0.3000019 0.4573055
0.4327218 0.3136448 0.4580201
0.4708235 0.3291079 0.4589589
0.5050702 0.3456266 0.4601328
0.5359915 0.3626086 0.4615495
0.2926127 0.3496416 0.4579863
0.2996639 0.3500820 0.4580224
0.3249397 0.3519443 0.4581767
0.3618741 0.3556206 0.4584893
0.4018362 0.3612262 0.4589873
0.4404499 0.3686785 0.4596906
0.4762627 0.3777551 0.4606147
0.5090458 0.3881556 0.4617705
0.5389921 0.3995582 0.4631655
0.3348351 0.4092056 0.4606453
0.3393966 0.4094487 0.4606805
0.3567985 0.4104821 0.4608310
0.3848056 0.4125494 0.4611359
0.4178327 0.4157704 0.4616215
0.4517280 0.4201794 0.4623076
0.4844190 0.4257407 0.4632091
0.5151119 0.4323638 0.4643370
0.5436236 0.4399208 0.4656988
0.3741096 0.4589752 0.4643112
0.3771890 0.4591258 0.4643452
0.3893886 0.4597680 0.4644906
0.4103896 0.4610602 0.4647851
0.4369851 0.4630939 0.4652543
0.4659173 0.4659173 0.4659173
0.4950287 0.4695428 0.4667886
0.5231825 0.4739520 0.4678792
0.5498818 0.4791015 0.4691963
0.4098302 0.5015763 0.4689767
0.4120033 0.5016773 0.4690093
0.4208134 0.5021083 0.4691483
0.4366811 0.5029784 0.4694302
0.4579003 0.5043550 0.4698793
0.4821805 0.5062807 0.4705140
0.5076306 0.5087783 0.4713485
0.5330173 0.5118526 0.4723933
0.5576500 0.5154931 0.4736559
0.4422113 0.5387457 0.4745909
0.4438052 0.5388173 0.4746218
0.4503625 0.5391231 0.4747537
0.4625394 0.5397417 0.4750211
0.4794923 0.5407233 0.4754471
0.4997100 0.5421027 0.4760495
0.5216932 0.5439024 0.4768418
0.5442885 0.5461341 0.4778342
0.5667336 0.5487997 0.4790341
0.4716548 0.5716684 0.4810698
0.4728622 0.5717214 0.4810988
0.4778780 0.5719477 0.4812229
0.4873906 0.5724059 0.4814745
0.5010326 0.5731345 0.4818756
0.5178453 0.5741613 0.4824427
0.5367103 0.5755060 0.4831890
0.5566409 0.5771815 0.4841242
0.5768956 0.5791941 0.4852557
0.2385832 0.1571336 0.4981502
0.2511716 0.1613459 0.4981749
0.2907722 0.1769636 0.4982807
0.3400605 0.2010913 0.4984953
0.3877795 0.2287082 0.4988374
0.4310073 0.2566929 0.4993215
0.4696339 0.2836690 0.4999592
0.5042083 0.3091540 0.5007592
0.5353447 0.3330528 0.5017286
0.2454222 0.1995081 0.4982830
0.2571038 0.2018991 0.4983077
0.2946154 0.2113736 0.4984134
0.3423552 0.2277205 0.4986276
0.3892015 0.2485532 0.4989693
0.4319417 0.2714561 0.4994529
0.4702815 0.2948107 0.5000897
0.5046771 0.3177290 0.5008888
0.5356964 0.3397861 0.5018570
0.2697441 0.2805174 0.4988493
0.2787278 0.2814352 0.4988738
0.3094545 0.2852596 0.4989790
0.3516020 0.2925625 0.4991921
0.3950687 0.3031473 0.4995320
0.4358472 0.3163679 0.5000131
0.4730082 0.3314260 0.5006466
0.5066602 0.3475833 0.5014416
0.5371882 0.3642564 0.5024048
0.3049630 0.3515199 0.4999902
0.3111613 0.3519520 0.5000146
0.3338542 0.3537793 0.5001186
0.3680580 0.3573886 0.5003295
0.4060324 0.3628971 0.5006658
0.4433551 0.3702291 0.5011418
0.4783393 0.3791716 0.5017687
0.5105785 0.3894337 0.5025555
0.5401563 0.4007010 0.5035088
0.3429118 0.4102458 0.5017896
0.3471155 0.4104864 0.5018135
0.3632984 0.4115095 0.5019157
0.3897510 0.4135564 0.5021232
0.4214332 0.4167465 0.5024539
0.4543404 0.4211147 0.5029221
0.4863439 0.4266272 0.5035387
0.5165614 0.4331956 0.5043127
0.5447396 0.4406946 0.5052506
0.3795965 0.4596209 0.5042950
0.3825140 0.4597706 0.5043183
0.3941195 0.4604089 0.5044182
0.4142554 0.4616933 0.5046209
0.4399870 0.4637150 0.5049441
0.4682043 0.4665220 0.5054015
0.4967733 0.4701272 0.5060041
0.5245283 0.4745128 0.5067606
0.5509357 0.4796357 0.5076776
0.4137167 0.5020095 0.5075244
0.4158099 0.5021101 0.5075471
0.4243130 0.5025394 0.5076441
0.4396916 0.5034060 0.5078407
0.4603656 0.5047771 0.5081544
0.4841460 0.5066954 0.5085984
0.5091835 0.5091835 0.5091835
0.5342471 0.5122464 0.5099180
0.5586318 0.5158739 0.5108086
0.4450686 0.5390530 0.5114701
0.4466198 0.5391244 0.5114920
0.4530087 0.5394294 0.5115855
0.4648999 0.5400462 0.5117751
0.4815075 0.5410251 0.5120775
0.5013807 0.5424007 0.5125057
0.5230575 0.5441955 0.5130699
0.5453977 0.5464212 0.5137785
0.5676375 0.5490800 0.5146379
0.4738226 0.5718958 0.5161023
0.4750057 0.5719487 0.5161232
0.4799236 0.5721745 0.5162128
0.4892632 0.5726318 0.5163944
0.5026830 0.5733589 0.5166842
0.5192588 0.5743836 0.5170945
0.5378991 0.5757256 0.5176353
0.5576319 0.5773977 0.5183147
0.5777197 0.5794064 0.5191388
0.2649672 0.1774496 0.5354873
0.2744225 0.1806374 0.5355048
0.3064012 0.1929111 0.5355797
0.3496502 0.2130407 0.5357316
0.3938122 0.2373752 0.5359741
0.4350041 0.2630165 0.5363176
0.4724169 0.2883784 0.5367706
0.5062289 0.3127459 0.5373402
0.5368631 0.3358557 0.5380321
0.2700555 0.2116832 0.5355813
0.2790093 0.2137351 0.5355988
0.3096558 0.2219639 0.5356736
0.3517315 0.2364861 0.5358254
0.3951524 0.2554768 0.5360676
0.4359035 0.2768320 0.5364108
0.4730477 0.2989906 0.5368635
0.5066890 0.3210130 0.5374326
0.5372099 0.3424023 0.5381239
0.2890379 0.2853896 0.5359825
0.2963590 0.2862595 0.5359999
0.3224287 0.2898892 0.5360745
0.3601671 0.2968438 0.5362257
0.4006939 0.3069737 0.5364670
0.4396658 0.3196988 0.5368089
0.4757051 0.3342761 0.5372600
0.5086356 0.3499999 0.5378270
0.5386812 0.3662995 0.5385158
0.3185296 0.3538422 0.5367927
0.3239174 0.3542641 0.5368100
0.3440471 0.3560491 0.5368840
0.3753558 0.3595774 0.5370341
0.4110979 0.3649681 0.5372737
0.4469132 0.3721539 0.5376131
0.4809059 0.3809328 0.5380608
0.5124840 0.3910253 0.5386237
0.5416094 0.4021264 0.5393074
0.3522371 0.4115449 0.5380757
0.3560646 0.4117825 0.5380928
0.3709412 0.4127927 0.5381659
0.3956706 0.4148145 0.5383142
0.4258088 0.4179663 0.5385510
0.4575503 0.4222843 0.5388864
0.4887269 0.4277363 0.5393289
0.5183650 0.4342370 0.5398853
0.5461331 0.4416641 0.5405612
0.3861238 0.4604310 0.5398726
0.3888602 0.4605796 0.5398894
0.3997961 0.4612130 0.5399613
0.4189395 0.4624877 0.5401072
0.4436596 0.4644944 0.5403401
0.4710246 0.4672811 0.5406701
0.4989373 0.4708610 0.5411054
0.5262047 0.4752169 0.5416528
0.5522527 0.4803068 0.5423178
0.4184249 0.5025543 0.5422067
0.4204253 0.5026544 0.5422231
0.4285710 0.5030815 0.5422935
0.4433744 0.5039437 0.5424363
0.4633997 0.5053081 0.5426643
0.4865780 0.5072170 0.5429873
0.5111136 0.5096932 0.5434135
0.5357808 0.5127418 0.5439494
0.5598597 0.5163530 0.5446006
0.4485699 0.5394400 0.5450853
0.4500705 0.5395111 0.5451013
0.4562588 0.5398150 0.5451699
0.4678083 0.5404296 0.5453090
0.4839997 0.5414051 0.5455310
0.5034546 0.5427760 0.5458456
0.5247568 0.5445646 0.5462608
0.5467829 0.5467829 0.5467829
0.5687687 0.5494329 0.5474174
0.4764991 0.5721823 0.5485017
0.4776530 0.5722351 0.5485173
0.4824528 0.5724603 0.5485837
0.4915827 0.5729164 0.5487185
0.5047322 0.5736416 0.5489337
0.5210182 0.5746637 0.5492387
0.5393825 0.5760023 0.5496411
0.5588709 0.5776702 0.5501473
0.5787520 0.5796740 0.5507626
0.2891380 0.1964069 0.5685090
0.2964514 0.1988945 0.5685220
0.3224985 0.2087177 0.5685773
0.3602144 0.2255592 0.5686896
0.4007254 0.2468735 0.5688688
0.4396874 0.2701685 0.5691230
0.4757205 0.2938189 0.5694585
0.5086469 0.3169550 0.5698810
0.5386898 0.3391725 0.5703948
0.2930492 0.2243985 0.5685785
0.3000682 0.2261542 0.5685914
0.3252485 0.2332683 0.5686467
0.3620851 0.2460796 0.5687589
0.4019779 0.2632451 0.5689380
0.4405474 0.2829887 0.5691920
0.4763321 0.3038523 0.5695274
0.5090969 0.3248762 0.5699495
0.5390308 0.3455053 0.5704631
0.3081225 0.2910064 0.5688751
0.3141210 0.2918243 0.5688879
0.3361919 0.2952428 0.5689431
0.3697108 0.3018170 0.5690550
0.4071690 0.3114442 0.5692336
0.4441487 0.3236148 0.5694869
0.4789095 0.3376469 0.5698214
0.5110008 0.3528733 0.5702424
0.5404778 0.3687394 0.5707546
0.3328267 0.3566063 0.5694749
0.3374822 0.3570166 0.5694877
0.3552004 0.3587527 0.5695426
0.3836027 0.3621869 0.5696539
0.4169646 0.3674407 0.5698315
0.4511021 0.3744558 0.5700835
0.4839598 0.3830432 0.5704161
0.5147671 0.3929364 0.5708349
0.5433586 0.4038411 0.5713443
0.3625402 0.4131098 0.5704272
0.3659937 0.4133438 0.5704399
0.3795449 0.4143389 0.5704943
0.4024625 0.4163307 0.5706046
0.4309149 0.4194372 0.5707807
0.4613434 0.4236952 0.5710305
0.4915679 0.4290753 0.5713603
0.5205282 0.4354953 0.5717754
0.5478117 0.4428363 0.5722805
0.3935630 0.4614123 0.5717659
0.3961076 0.4615595 0.5717785
0.4063267 0.4621870 0.5718322
0.4243871 0.4634502 0.5719411
0.4479779 0.4654388 0.5721152
0.4743711 0.4682010 0.5723619
0.5015230 0.4717505 0.5726877
0.5282182 0.4760708 0.5730979
0.5538403 0.4811210 0.5735969
0.4238990 0.5032161 0.5735134
0.4257971 0.5033155 0.5735257
0.4335460 0.5037400 0.5735786
0.4477043 0.5045970 0.5736859
0.4669918 0.5059532 0.5738571
0.4894758 0.5078508 0.5741000
0.5134256 0.5103126 0.5744207
0.5376256 0.5133440 0.5748244
0.5613411 0.5169354 0.5753156
0.4526944 0.5399109 0.5756817
0.4541377 0.5399817 0.5756938
0.4600978 0.5402843 0.5757457
0.4712562 0.5408963 0.5758508
0.4869674 0.5418676 0.5760187
0.5059351 0.5432327 0.5762569
0.5267971 0.5450139 0.5765713
0.5484516 0.5472231 0.5769672
0.5701350 0.5498626 0.5774489
0.4796801 0.5725314 0.5782738
0.4808002 0.5725839 0.5782856
0.4854632 0.5728085 0.5783362
0.4943497 0.5732631 0.5784389
0.5071837 0.5739861 0.5786029
0.5231295 0.5750049 0.5788355
0.5411676 0.5763394 0.5791426
0.5603658 0.5780022 0.5795294
0.5800000 0.5800000 0.5800000
