LUTS_for_Software_DaVinci_Premiere_Avid_FinalCutPro/DaVinci-Resolve-with-Video-Range-Tag/Type-1-LUTs-For-Graphics-DaVinci Resolve-Requires-Scaling/5-NBCU_PQ2SDR_Type1-VRT.cube
TITLE "NBCU PQ-to-SDR For Graphics"
TITLE "PQ-BT.2100 to SDR-BT.709 Display-Light Conversion 3D Look-Up-Table"
# Narrow Range IRE in and out
#
# PLEASE DO NOT ALTER THE LINES BELOW
# 
# © 2020 NBCUniversal, LLC - Please do not remove this line
#
# Built using tools from and in collaboration with Cromorama and Nick Shaw - the creators of ORION-CONVERT
#
# SDR Display Light Conversion uses an assumed Lw of 203nits
#
# 58% PQ maps to 100% SDR - **NO SUPER-WHITES OR SUB-BLACKS**
#
# No Matrix Compensation (so make sure your device is using the correct matrix)
#
# Type I LUT - Narrow Range with **NO SUPER-WHITES OR SUB-BLACKS**
#
# For Graphics Input, scale RGB Full to Narrow Range For use with this LUT
# For Graphics Output, scale LUT Output from Narrow to Full range
# RESOLVE 17 VIDEO RANGE TAGS
LUT_IN_VIDEO_RANGE
LUT_OUT_VIDEO_RANGE
# IRE in and out
LUT_3D_SIZE 33
0.0000000 0.0000000 0.0000000
0.0273492 -0.0092948 -0.0041660
0.0519946 -0.0176707 -0.0079201
0.0789597 -0.0268350 -0.0120276
0.1089467 -0.0370262 -0.0165954
0.1424171 -0.0484013 -0.0216938
0.1797949 -0.0611044 -0.0273874
0.2215185 -0.0684932 -0.0337430
0.2680620 -0.0684932 -0.0408328
0.3199477 -0.0684932 -0.0487364
0.3777570 -0.0684932 -0.0575422
0.4421399 -0.0684932 -0.0673494
0.5138263 -0.0684932 -0.0684932
0.5936380 -0.0684932 -0.0684932
0.6825021 -0.0684932 -0.0684932
0.7814670 -0.0684932 -0.0684932
0.8809319 -0.0684932 -0.0684932
0.9499162 -0.0684932 -0.0684932
0.9987064 -0.0684932 -0.0684932
1.0348725 -0.0684932 -0.0684932
1.0581250 -0.0684932 -0.0684932
1.0709329 -0.0684932 -0.0684932
1.0790434 -0.0684932 -0.0684932
1.0846535 -0.0684932 -0.0684932
1.0887755 -0.0684932 -0.0684932
1.0901826 -0.0684932 -0.0684932
1.0901826 -0.0684932 -0.0684932
1.0901826 -0.0684932 -0.0684932
1.0901826 -0.0684932 -0.0684932
1.0901826 -0.0684932 -0.0684932
1.0901826 -0.0684932 -0.0684932
1.0901826 -0.0684932 -0.0684932
1.0901826 -0.0684932 -0.0684932
-0.0177409 0.0233216 -0.0085027
0.0227983 0.0222169 -0.0091113
0.0503163 0.0172690 -0.0109706
0.0780382 -0.0159274 -0.0139810
0.1083621 -0.0313405 -0.0179108
0.1420160 -0.0447100 -0.0226206
0.1795057 -0.0585045 -0.0280646
0.2213027 -0.0684932 -0.0342520
0.2678968 -0.0684932 -0.0412240
0.3198188 -0.0684932 -0.0490425
0.3776548 -0.0684932 -0.0577852
0.4420579 -0.0684932 -0.0675445
0.5137599 -0.0684932 -0.0684932
0.5935838 -0.0684932 -0.0684932
0.6824575 -0.0684932 -0.0684932
0.7814301 -0.0684932 -0.0684932
0.8809099 -0.0684932 -0.0684932
0.9499049 -0.0684932 -0.0684932
0.9987002 -0.0684932 -0.0684932
1.0348690 -0.0684932 -0.0684932
1.0581240 -0.0684932 -0.0684932
1.0709327 -0.0684932 -0.0684932
1.0790435 -0.0684932 -0.0684932
1.0846538 -0.0684932 -0.0684932
1.0887758 -0.0684932 -0.0684932
1.0901826 -0.0684932 -0.0684932
1.0901826 -0.0684932 -0.0684932
1.0901826 -0.0684932 -0.0684932
1.0901826 -0.0684932 -0.0684932
1.0901826 -0.0684932 -0.0684932
1.0901826 -0.0684932 -0.0684932
1.0901826 -0.0684932 -0.0684932
1.0901826 -0.0684932 -0.0684932
-0.0337279 0.0443377 -0.0161648
-0.0229126 0.0439001 -0.0164220
0.0433429 0.0422374 -0.0173218
0.0745142 0.0382224 -0.0190968
0.1061757 0.0286666 -0.0218675
0.1405290 -0.0242181 -0.0256408
0.1784379 -0.0471548 -0.0303755
0.2205074 -0.0656293 -0.0360367
0.2672888 -0.0684932 -0.0426184
0.3193446 -0.0684932 -0.0501445
0.3772791 -0.0684932 -0.0586655
0.4417566 -0.0684932 -0.0682544
0.5135159 -0.0684932 -0.0684932
0.5933844 -0.0684932 -0.0684932
0.6822935 -0.0684932 -0.0684932
0.7812944 -0.0684932 -0.0684932
0.8808293 -0.0684932 -0.0684932
0.9498634 -0.0684932 -0.0684932
0.9986776 -0.0684932 -0.0684932
1.0348562 -0.0684932 -0.0684932
1.0581203 -0.0684932 -0.0684932
1.0709321 -0.0684932 -0.0684932
1.0790441 -0.0684932 -0.0684932
1.0846547 -0.0684932 -0.0684932
1.0887769 -0.0684932 -0.0684932
1.0901826 -0.0684932 -0.0684932
1.0901826 -0.0684932 -0.0684932
1.0901826 -0.0684932 -0.0684932
1.0901826 -0.0684932 -0.0684932
1.0901826 -0.0684932 -0.0684932
1.0901826 -0.0684932 -0.0684932
1.0901826 -0.0684932 -0.0684932
1.0901826 -0.0684932 -0.0684932
-0.0512197 0.0673318 -0.0245481
-0.0461373 0.0670891 -0.0246924
0.0129225 0.0661866 -0.0252127
0.0658211 0.0641424 -0.0263051
0.1011401 0.0601201 -0.0281649
0.1371846 0.0523729 -0.0309450
0.1760616 0.0349856 -0.0347352
0.2187472 -0.0411799 -0.0395739
0.2659470 -0.0684932 -0.0454747
0.3183000 -0.0684932 -0.0524521
0.3764526 -0.0684932 -0.0605360
0.4410942 -0.0684932 -0.0684932
0.5129795 -0.0684932 -0.0684932
0.5929464 -0.0684932 -0.0684932
0.6819333 -0.0684932 -0.0684932
0.7809965 -0.0684932 -0.0684932
0.8806522 -0.0684932 -0.0684932
0.9497722 -0.0684932 -0.0684932
0.9986278 -0.0684932 -0.0684932
1.0348279 -0.0684932 -0.0684932
1.0581122 -0.0684932 -0.0684932
1.0709309 -0.0684932 -0.0684932
1.0790452 -0.0684932 -0.0684932
1.0846568 -0.0684932 -0.0684932
1.0887793 -0.0684932 -0.0684932
1.0901826 -0.0684932 -0.0684932
1.0901826 -0.0684932 -0.0684932
1.0901826 -0.0684932 -0.0684932
1.0901826 -0.0684932 -0.0684932
1.0901826 -0.0684932 -0.0684932
1.0901826 -0.0684932 -0.0684932
1.0901826 -0.0684932 -0.0684932
1.0901826 -0.0684932 -0.0684932
-0.0684932 0.0929028 -0.0338709
-0.0675598 0.0927483 -0.0339631
-0.0538701 0.0921778 -0.0342986
0.0430847 0.0909076 -0.0350197
0.0908183 0.0885021 -0.0362952
0.1307104 0.0842511 -0.0383025
0.1715659 0.0768437 -0.0412038
0.2154543 0.0631738 -0.0451270
0.2634520 0.0257254 -0.0501606
0.3163644 -0.0671557 -0.0563635
0.3749245 -0.0684932 -0.0637822
0.4398713 -0.0684932 -0.0684932
0.5119901 -0.0684932 -0.0684932
0.5921390 -0.0684932 -0.0684932
0.6812696 -0.0684932 -0.0684932
0.7804477 -0.0684932 -0.0684932
0.8803255 -0.0684932 -0.0684932
0.9496041 -0.0684932 -0.0684932
0.9985362 -0.0684932 -0.0684932
1.0347758 -0.0684932 -0.0684932
1.0580973 -0.0684932 -0.0684932
1.0709285 -0.0684932 -0.0684932
1.0790474 -0.0684932 -0.0684932
1.0846607 -0.0684932 -0.0684932
1.0887838 -0.0684932 -0.0684932
1.0901826 -0.0684932 -0.0684932
1.0901826 -0.0684932 -0.0684932
1.0901826 -0.0684932 -0.0684932
1.0901826 -0.0684932 -0.0684932
1.0901826 -0.0684932 -0.0684932
1.0901826 -0.0684932 -0.0684932
1.0901826 -0.0684932 -0.0684932
1.0901826 -0.0684932 -0.0684932
-0.0684932 0.1214442 -0.0442766
-0.0684932 0.1213381 -0.0443400
-0.0684932 0.1209472 -0.0445718
-0.0570109 0.1200828 -0.0450749
0.0683692 0.1184686 -0.0459808
0.1187193 0.1156915 -0.0474457
0.1636368 0.1111020 -0.0496394
0.2097709 0.1035816 -0.0527302
0.2591942 0.0908579 -0.0568688
0.3130825 0.0661875 -0.0621785
0.3723434 -0.0539505 -0.0684932
0.4378106 -0.0684932 -0.0684932
0.5103257 -0.0684932 -0.0684932
0.5907821 -0.0684932 -0.0684932
0.6801551 -0.0684932 -0.0684932
0.7795266 -0.0684932 -0.0684932
0.8797758 -0.0684932 -0.0684932
0.9493215 -0.0684932 -0.0684932
0.9983823 -0.0684932 -0.0684932
1.0346884 -0.0684932 -0.0684932
1.0580720 -0.0684932 -0.0684932
1.0709243 -0.0684932 -0.0684932
1.0790508 -0.0684932 -0.0684932
1.0846670 -0.0684932 -0.0684932
1.0887911 -0.0684932 -0.0684932
1.0901826 -0.0684932 -0.0684932
1.0901826 -0.0684932 -0.0684932
1.0901826 -0.0684932 -0.0684932
1.0901826 -0.0684932 -0.0684932
1.0901826 -0.0684932 -0.0684932
1.0901826 -0.0684932 -0.0684932
1.0901826 -0.0684932 -0.0684932
1.0901826 -0.0684932 -0.0684932
-0.0684932 0.1533175 -0.0558972
-0.0684932 0.1532410 -0.0559429
-0.0684932 0.1529594 -0.0561106
-0.0684932 0.1523385 -0.0564763
-0.0530350 0.1511864 -0.0571408
0.0952530 0.1492270 -0.0582310
0.1498776 0.1460551 -0.0598979
0.2003221 0.1410485 -0.0623100
0.2522584 0.1331837 -0.0656423
0.3077953 0.1205547 -0.0684932
0.3682124 0.0986270 -0.0684932
0.4345261 0.0429355 -0.0684932
0.5076798 -0.0684932 -0.0684932
0.5886288 -0.0684932 -0.0684932
0.6783885 -0.0684932 -0.0684932
0.7780678 -0.0684932 -0.0684932
0.8789020 -0.0684932 -0.0684932
0.9488732 -0.0684932 -0.0684932
0.9981384 -0.0684932 -0.0684932
1.0345500 -0.0684932 -0.0684932
1.0580316 -0.0684932 -0.0684932
1.0709172 -0.0684932 -0.0684932
1.0790559 -0.0684932 -0.0684932
1.0846768 -0.0684932 -0.0684932
1.0888025 -0.0684932 -0.0684932
1.0901826 -0.0684932 -0.0684932
1.0901826 -0.0684932 -0.0684932
1.0901826 -0.0684932 -0.0684932
1.0901826 -0.0684932 -0.0684932
1.0901826 -0.0684932 -0.0684932
1.0901826 -0.0684932 -0.0684932
1.0901826 -0.0684932 -0.0684932
1.0901826 -0.0684932 -0.0684932
-0.0684932 0.1888968 -0.0684932
-0.0684932 0.1888397 -0.0684932
-0.0684932 0.1886296 -0.0684932
-0.0684932 0.1881671 -0.0684932
-0.0684932 0.1873117 -0.0684932
-0.0288518 0.1858655 -0.0684932
0.1247605 0.1835473 -0.0684932
0.1846585 0.1799490 -0.0684932
0.2411919 0.1744564 -0.0684932
0.2995200 0.1660900 -0.0684932
0.3618166 0.1531260 -0.0684932
0.4294742 0.1319293 -0.0684932
0.5036271 0.0906769 -0.0684932
0.5853399 -0.0684932 -0.0684932
0.6756953 -0.0684932 -0.0684932
0.7758467 -0.0684932 -0.0684932
0.8775635 -0.0684932 -0.0684932
0.9481887 -0.0684932 -0.0684932
0.9977668 -0.0684932 -0.0684932
1.0343394 -0.0684932 -0.0684932
1.0579689 -0.0684932 -0.0684932
1.0709055 -0.0684932 -0.0684932
1.0790629 -0.0684932 -0.0684932
1.0846910 -0.0684932 -0.0684932
1.0888193 -0.0684932 -0.0684932
1.0901826 -0.0684932 -0.0684932
1.0901826 -0.0684932 -0.0684932
1.0901826 -0.0684932 -0.0684932
1.0901826 -0.0684932 -0.0684932
1.0901826 -0.0684932 -0.0684932
1.0901826 -0.0684932 -0.0684932
1.0901826 -0.0684932 -0.0684932
1.0901826 -0.0684932 -0.0684932
-0.0684932 0.2285861 -0.0684932
-0.0684932 0.2285424 -0.0684932
-0.0684932 0.2283816 -0.0684932
-0.0684932 0.2280280 -0.0684932
-0.0684932 0.2273751 -0.0684932
-0.0684932 0.2262748 -0.0684932
0.0617944 0.2245205 -0.0684932
0.1574455 0.2218211 -0.0684932
0.2234573 0.2177583 -0.0684932
0.2867103 0.2117119 -0.0684932
0.3520948 0.2027153 -0.0684932
0.4218762 0.1891328 -0.0684932
0.4975720 0.1677689 -0.0684932
0.5804468 0.1301858 -0.0684932
0.6716999 -0.0570234 -0.0684932
0.7725580 -0.0684932 -0.0684932
0.8755642 -0.0684932 -0.0684932
0.9471707 -0.0684932 -0.0684932
0.9972157 -0.0684932 -0.0684932
1.0340276 -0.0684932 -0.0684932
1.0578739 -0.0684932 -0.0684932
1.0708863 -0.0684932 -0.0684932
1.0790716 -0.0684932 -0.0684932
1.0847106 -0.0684932 -0.0684932
1.0888430 -0.0684932 -0.0684932
1.0901826 -0.0684932 -0.0684932
1.0901826 -0.0684932 -0.0684932
1.0901826 -0.0684932 -0.0684932
1.0901826 -0.0684932 -0.0684932
1.0901826 -0.0684932 -0.0684932
1.0901826 -0.0684932 -0.0684932
1.0901826 -0.0684932 -0.0684932
1.0901826 -0.0684932 -0.0684932
-0.0684932 0.2728309 -0.0684932
-0.0684932 0.2727968 -0.0684932
-0.0684932 0.2726713 -0.0684932
-0.0684932 0.2723955 -0.0684932
-0.0684932 0.2718869 -0.0684932
-0.0684932 0.2710312 -0.0684932
-0.0684932 0.2696713 -0.0684932
0.0990140 0.2675890 -0.0684932
0.1937640 0.2644792 -0.0684932
0.2667094 0.2599073 -0.0684932
0.3373913 0.2532364 -0.0684932
0.4105818 0.2434907 -0.0684932
0.4886636 0.2290655 -0.0684932
0.5732948 0.2069860 -0.0684932
0.6658852 0.1702935 -0.0684932
0.7677859 0.0859630 -0.0684932
0.8726248 -0.0684932 -0.0684932
0.9456842 -0.0684932 -0.0684932
0.9964143 -0.0684932 -0.0684932
1.0335755 -0.0684932 -0.0684932
1.0577317 -0.0684932 -0.0684932
1.0708543 -0.0684932 -0.0684932
1.0790807 -0.0684932 -0.0684932
1.0847362 -0.0684932 -0.0684932
1.0888749 -0.0684932 -0.0684932
1.0901826 -0.0684932 -0.0684932
1.0901826 -0.0684932 -0.0684932
1.0901826 -0.0684932 -0.0684932
1.0901826 -0.0684932 -0.0684932
1.0901826 -0.0684932 -0.0684932
1.0901826 -0.0684932 -0.0684932
1.0901826 -0.0684932 -0.0684932
1.0901826 -0.0684932 -0.0684932
-0.0684932 0.3221269 -0.0684932
-0.0684932 0.3220999 -0.0684932
-0.0684932 0.3220004 -0.0684932
-0.0684932 0.3217820 -0.0684932
-0.0684932 0.3213793 -0.0684932
-0.0684932 0.3207028 -0.0684932
-0.0684932 0.3196296 -0.0684932
-0.0684932 0.3179912 -0.0684932
0.1353122 0.3155556 -0.0684932
0.2341631 0.3120001 -0.0684932
0.3148994 0.3068682 -0.0684932
0.3938084 0.2994966 -0.0684932
0.4756505 0.2888831 -0.0684932
0.5629523 0.2734140 -0.0684932
0.6575308 0.2502089 -0.0684932
0.7609590 0.2130459 -0.0684932
0.8683398 0.1393542 -0.0684932
0.9435383 -0.0684932 -0.0684932
0.9952645 -0.0684932 -0.0684932
1.0329295 -0.0684932 -0.0684932
1.0575198 -0.0684932 -0.0684932
1.0708008 -0.0684932 -0.0684932
1.0790872 -0.0684932 -0.0684932
1.0847672 -0.0684932 -0.0684932
1.0889159 -0.0684932 -0.0684932
1.0901826 -0.0684932 -0.0684932
1.0901826 -0.0684932 -0.0684932
1.0901826 -0.0684932 -0.0684932
1.0901826 -0.0684932 -0.0684932
1.0901826 -0.0684932 -0.0684932
1.0901826 -0.0684932 -0.0684932
1.0901826 -0.0684932 -0.0684932
1.0901826 -0.0684932 -0.0684932
-0.0684932 0.3770286 -0.0684932
-0.0684932 0.3770069 -0.0684932
-0.0684932 0.3769271 -0.0684932
-0.0684932 0.3767519 -0.0684932
-0.0684932 0.3764291 -0.0684932
-0.0684932 0.3758871 -0.0684932
-0.0684932 0.3750285 -0.0684932
-0.0684932 0.3737201 -0.0684932
-0.0684932 0.3717807 -0.0684932
0.1736899 0.3689618 -0.0684932
0.2791148 0.3649193 -0.0684932
0.3685692 0.3591692 -0.0684932
0.4566050 0.3510133 -0.0684932
0.5480536 0.3394075 -0.0684932
0.6456139 0.3226979 -0.0684932
0.7512832 0.2980142 -0.0684932
0.8621001 0.2580803 -0.0684932
0.9404576 0.1797067 -0.0684932
0.9936284 -0.0684932 -0.0684932
1.0320155 -0.0684932 -0.0684932
1.0572048 -0.0684932 -0.0684932
1.0707112 -0.0684932 -0.0684932
1.0790841 -0.0684932 -0.0684932
1.0848007 -0.0684932 -0.0684932
1.0889650 -0.0684932 -0.0684932
1.0901826 -0.0684932 -0.0684932
1.0901826 -0.0684932 -0.0684932
1.0901826 -0.0684932 -0.0684932
1.0901826 -0.0684932 -0.0684932
1.0901826 -0.0684932 -0.0684932
1.0901826 -0.0684932 -0.0684932
1.0901826 -0.0684932 -0.0684932
1.0901826 -0.0684932 -0.0684932
-0.0684932 0.4381582 -0.0684932
-0.0684932 0.4381406 -0.0684932
-0.0684932 0.4380760 -0.0684932
-0.0684932 0.4379341 -0.0684932
-0.0684932 0.4376726 -0.0684932
-0.0684932 0.4372339 -0.0684932
-0.0684932 0.4365394 -0.0684932
-0.0684932 0.4354824 -0.0684932
-0.0684932 0.4339186 -0.0684932
-0.0684932 0.4316519 -0.0684932
0.2153293 0.4284147 -0.0684932
0.3291332 0.4238375 -0.0684932
0.4283272 0.4174032 -0.0684932
0.5265049 0.4083701 -0.0684932
0.6286394 0.3956375 -0.0684932
0.7376330 0.3774844 -0.0684932
0.8529506 0.3498635 -0.0684932
0.9360333 0.2950453 -0.0684932
0.9913083 0.2116570 -0.0684932
1.0307300 -0.0684932 -0.0684932
1.0567362 -0.0684932 -0.0684932
1.0705611 -0.0684932 -0.0684932
1.0790586 -0.0684932 -0.0684932
1.0848295 -0.0684932 -0.0684932
1.0890185 -0.0684932 -0.0684932
1.0901826 -0.0684932 -0.0684932
1.0901826 -0.0684932 -0.0684932
1.0901826 -0.0684932 -0.0684932
1.0901826 -0.0684932 -0.0684932
1.0901826 -0.0684932 -0.0684932
1.0901826 -0.0684932 -0.0684932
1.0901826 -0.0684932 -0.0684932
1.0901826 -0.0684932 -0.0684932
-0.0684932 0.5062165 -0.0684932
-0.0684932 0.5062021 -0.0684932
-0.0684932 0.5061494 -0.0684932
-0.0684932 0.5060334 -0.0684932
-0.0684932 0.5058199 -0.0684932
-0.0684932 0.5054617 -0.0684932
-0.0684932 0.5048950 -0.0684932
-0.0684932 0.5040332 -0.0684932
-0.0684932 0.5027598 -0.0684932
-0.0684932 0.5009174 -0.0684932
-0.0684932 0.4982931 -0.0684932
0.2610027 0.4945971 -0.0684932
0.3847875 0.4894308 -0.0684932
0.4948585 0.4822376 -0.0684932
0.6043248 0.4722233 -0.0684932
0.7183675 0.4582162 -0.0684932
0.8393024 0.4379725 -0.0684932
0.9296325 0.3918733 -0.0684932
0.9880125 0.3243661 -0.0684932
1.0289248 0.2375765 -0.0684932
1.0560376 0.1082926 -0.0684932
1.0703109 -0.0684932 -0.0684932
1.0789872 -0.0684932 -0.0684932
1.0848388 -0.0684932 -0.0684932
1.0890665 -0.0684932 -0.0684932
1.0901826 -0.0684932 -0.0684932
1.0901826 -0.0684932 -0.0684932
1.0901826 -0.0684932 -0.0684932
1.0901826 -0.0684932 -0.0684932
1.0901826 -0.0684932 -0.0684932
1.0901826 -0.0684932 -0.0684932
1.0901826 -0.0684932 -0.0684932
1.0901826 -0.0684932 -0.0684932
-0.0684932 0.5819941 -0.0684932
-0.0684932 0.5819823 -0.0684932
-0.0684932 0.5819388 -0.0684932
-0.0684932 0.5818435 -0.0684932
-0.0684932 0.5816679 -0.0684932
-0.0684932 0.5813734 -0.0684932
-0.0684932 0.5809076 -0.0684932
-0.0684932 0.5801996 -0.0684932
-0.0684932 0.5791545 -0.0684932
-0.0684932 0.5776442 -0.0684932
-0.0684932 0.5754969 -0.0684932
-0.0403017 0.5724806 -0.0684932
0.3113670 0.5682799 -0.0684932
0.4467131 0.5624624 -0.0684932
0.5689359 0.5544257 -0.0684932
0.6909888 0.5433131 -0.0684932
0.8183255 0.5278667 -0.0684932
0.9202223 0.4880476 -0.0684932
0.9832943 0.4238935 -0.0684932
1.0263830 0.3481203 -0.0684932
1.0549942 0.2675597 -0.0684932
1.0698986 0.1971382 -0.0684932
1.0788307 0.1166493 -0.0684932
1.0848017 -0.0684932 -0.0684932
1.0890898 -0.0684932 -0.0684932
1.0901826 -0.0684932 -0.0684932
1.0901826 -0.0684932 -0.0684932
1.0901826 -0.0684932 -0.0684932
1.0901826 -0.0684932 -0.0684932
1.0901826 -0.0684932 -0.0684932
1.0901826 -0.0684932 -0.0684932
1.0901826 -0.0684932 -0.0684932
1.0901826 -0.0684932 -0.0684932
-0.0684932 0.6663850 -0.0684932
-0.0684932 0.6663753 -0.0684932
-0.0684932 0.6663393 -0.0684932
-0.0684932 0.6662604 -0.0684932
-0.0684932 0.6661152 -0.0684932
-0.0684932 0.6658716 -0.0684932
-0.0684932 0.6654865 -0.0684932
-0.0684932 0.6649013 -0.0684932
-0.0684932 0.6640380 -0.0684932
-0.0684932 0.6627916 -0.0684932
-0.0684932 0.6610216 -0.0684932
-0.0684932 0.6585397 -0.0684932
0.1223564 0.6550920 -0.0684932
0.3670619 0.6503343 -0.0684932
0.5156227 0.6437952 -0.0684932
0.6514334 0.6348192 -0.0684932
0.7875449 0.6224760 -0.0684932
0.9059868 0.5899316 -0.0684932
0.9764340 0.5248946 -0.0684932
1.0227745 0.4491256 -0.0684932
1.0534324 0.3736269 -0.0684932
1.0692277 0.3172408 -0.0684932
1.0785254 0.2712359 -0.0684932
1.0846723 0.2292604 -0.0684932
1.0890537 0.1867209 -0.0684932
1.0901826 0.1371095 -0.0684932
1.0901826 0.0438698 -0.0684932
1.0901826 -0.0684932 -0.0684932
1.0901826 -0.0684932 -0.0684932
1.0901826 -0.0684932 -0.0684932
1.0901826 -0.0684932 -0.0684932
1.0901826 -0.0684932 -0.0684932
1.0901826 -0.0684932 -0.0684932
-0.0684932 0.7604027 -0.0684932
-0.0684932 0.7603946 -0.0684932
-0.0684932 0.7603647 -0.0684932
-0.0684932 0.7602991 -0.0684932
-0.0684932 0.7601784 -0.0684932
-0.0684932 0.7599760 -0.0684932
-0.0684932 0.7596559 -0.0684932
-0.0684932 0.7591699 -0.0684932
-0.0684932 0.7584530 -0.0684932
-0.0684932 0.7574186 -0.0684932
-0.0684932 0.7559510 -0.0684932
-0.0684932 0.7538956 -0.0684932
-0.0684932 0.7510455 -0.0684932
0.1842570 0.7471221 -0.0684932
0.4287541 0.7417482 -0.0684932
0.5923194 0.7344076 -0.0684932
0.7433416 0.7243833 -0.0684932
0.8833871 0.7012944 -0.0684932
0.9661895 0.6340931 -0.0684932
1.0175727 0.5531697 -0.0684932
1.0510867 0.4739585 -0.0684932
1.0681519 0.4180219 -0.0684932
1.0779723 0.3760670 -0.0684932
1.0843770 0.3413068 -0.0684932
1.0889004 0.3103658 -0.0684932
1.0901826 0.2812819 -0.0684932
1.0901826 0.2526815 -0.0684932
1.0901826 0.2233240 -0.0684932
1.0901826 0.1916625 -0.0684932
1.0901826 0.1549213 -0.0684932
1.0901826 0.1049183 -0.0684932
1.0901826 -0.0684932 -0.0684932
1.0901826 -0.0684932 -0.0684932
-0.0684932 0.8607974 -0.0684932
-0.0684932 0.8607919 -0.0684932
-0.0684932 0.8607718 -0.0684932
-0.0684932 0.8607276 -0.0684932
-0.0684932 0.8606463 -0.0684932
-0.0684932 0.8605098 -0.0684932
-0.0684932 0.8602939 -0.0684932
-0.0684932 0.8599656 -0.0684932
-0.0684932 0.8594803 -0.0684932
-0.0684932 0.8587779 -0.0684932
-0.0684932 0.8577771 -0.0684932
-0.0684932 0.8563669 -0.0684932
-0.0684932 0.8543946 -0.0684932
-0.0684932 0.8516474 -0.0684932
0.2419756 0.8478228 -0.0684932
0.4964780 0.8424799 -0.0684932
0.6773401 0.8349548 -0.0684932
0.8443875 0.8228523 -0.0684932
0.9502021 0.7571006 -0.0684932
1.0098810 0.6671062 -0.0684932
1.0475376 0.5787593 -0.0684932
1.0664471 0.5179917 -0.0684932
1.0770200 0.4747673 -0.0684932
1.0838011 0.4405635 -0.0684932
1.0885380 0.4114070 -0.0684932
1.0901826 0.3852093 -0.0684932
1.0901826 0.3607587 -0.0684932
1.0901826 0.3372804 -0.0684932
1.0901826 0.3142180 -0.0684932
1.0901826 0.2911095 -0.0684932
1.0901826 0.2674985 -0.0684932
1.0901826 0.2428462 -0.0684932
1.0901826 0.2163977 -0.0684932
-0.0684932 0.9347056 -0.0684932
-0.0684932 0.9347027 -0.0684932
-0.0684932 0.9346924 -0.0684932
-0.0684932 0.9346697 -0.0684932
-0.0684932 0.9346278 -0.0684932
-0.0684932 0.9345577 -0.0684932
-0.0684932 0.9344467 -0.0684932
-0.0684932 0.9342780 -0.0684932
-0.0684932 0.9340289 -0.0684932
-0.0684932 0.9336690 -0.0684932
-0.0684932 0.9331572 -0.0684932
-0.0684932 0.9324383 -0.0684932
-0.0684932 0.9314372 -0.0684932
-0.0684932 0.9300510 -0.0684932
-0.0684932 0.9281370 -0.0684932
0.2902369 0.9254940 -0.0684932
0.5518508 0.9218312 -0.0684932
0.7472629 0.9167157 -0.0684932
0.9233194 0.8997710 -0.0684932
0.9980287 0.7976200 -0.0684932
1.0420836 0.6947052 -0.0684932
1.0637627 0.6245753 -0.0684932
1.0754363 0.5769798 -0.0684932
1.0827692 0.5406498 -0.0684932
1.0878246 0.5105516 -0.0684932
1.0901826 0.4841429 -0.0684932
1.0901826 0.4600214 -0.0684932
1.0901826 0.4373578 -0.0684932
1.0901826 0.4156276 -0.0684932
1.0901826 0.3944729 -0.0684932
1.0901826 0.3736249 -0.0684932
1.0901826 0.3528574 -0.0684932
1.0901826 0.3319556 -0.0684932
-0.0684932 0.9868090 -0.0684932
-0.0684932 0.9868074 -0.0684932
-0.0684932 0.9868018 -0.0684932
-0.0684932 0.9867894 -0.0684932
-0.0684932 0.9867666 -0.0684932
-0.0684932 0.9867284 -0.0684932
-0.0684932 0.9866679 -0.0684932
-0.0684932 0.9865760 -0.0684932
-0.0684932 0.9864405 -0.0684932
-0.0684932 0.9862449 -0.0684932
-0.0684932 0.9859670 -0.0684932
-0.0684932 0.9855775 -0.0684932
-0.0684932 0.9850365 -0.0684932
-0.0684932 0.9842903 -0.0684932
-0.0684932 0.9832653 -0.0684932
-0.0684932 0.9818601 -0.0684932
0.3283458 0.9799318 -0.0684932
0.5925766 0.9772757 -0.0684932
0.7967835 0.9735893 -0.0684932
0.9784672 0.9535124 -0.0684932
1.0334442 0.8291797 -0.0684932
1.0595209 0.7438675 -0.0684932
1.0728554 0.6887160 -0.0684932
1.0810097 0.6480984 -0.0684932
1.0865413 0.6153266 -0.0684932
1.0901826 0.5871273 -0.0684932
1.0901826 0.5617456 -0.0684932
1.0901826 0.5381797 -0.0684932
1.0901826 0.5158289 -0.0684932
1.0901826 0.4943140 -0.0684932
1.0901826 0.4733805 -0.0684932
1.0901826 0.4528432 -0.0684932
1.0901826 0.4325536 -0.0684932
-0.0684932 1.0247099 -0.0684932
-0.0684932 1.0247091 -0.0684932
-0.0684932 1.0247062 -0.0684932
-0.0684932 1.0246998 -0.0684932
-0.0684932 1.0246879 -0.0684932
-0.0684932 1.0246681 -0.0684932
-0.0684932 1.0246367 -0.0684932
-0.0684932 1.0245890 -0.0684932
-0.0684932 1.0245187 -0.0684932
-0.0684932 1.0244171 -0.0684932
-0.0684932 1.0242727 -0.0684932
-0.0684932 1.0240703 -0.0684932
-0.0684932 1.0237889 -0.0684932
-0.0684932 1.0234005 -0.0684932
-0.0684932 1.0228665 -0.0684932
-0.0684932 1.0221338 -0.0684932
-0.0684932 1.0211280 -0.0684932
0.3609250 1.0197431 -0.0684932
0.6245567 1.0178252 -0.0684932
0.8339611 1.0151448 -0.0684932
1.0189638 0.9929761 -0.0684932
1.0526834 0.8834158 -0.0684932
1.0686645 0.8162468 -0.0684932
1.0780846 0.7687035 -0.0684932
1.0843420 0.7314428 -0.0684932
1.0888283 0.7000398 -0.0684932
1.0901826 0.6721768 -0.0684932
1.0901826 0.6465599 -0.0684932
1.0901826 0.6224361 -0.0684932
1.0901826 0.5993520 -0.0684932
1.0901826 0.5770241 -0.0684932
1.0901826 0.5552645 -0.0684932
1.0901826 0.5339382 -0.0684932
-0.0684932 1.0461672 -0.0684932
-0.0684932 1.0461668 -0.0684932
-0.0684932 1.0461654 -0.0684932
-0.0684932 1.0461622 -0.0684932
-0.0684932 1.0461564 -0.0684932
-0.0684932 1.0461465 -0.0684932
-0.0684932 1.0461310 -0.0684932
-0.0684932 1.0461074 -0.0684932
-0.0684932 1.0460726 -0.0684932
-0.0684932 1.0460222 -0.0684932
-0.0684932 1.0459507 -0.0684932
-0.0684932 1.0458503 -0.0684932
-0.0684932 1.0457107 -0.0684932
-0.0684932 1.0455178 -0.0684932
-0.0684932 1.0452522 -0.0684932
-0.0684932 1.0448872 -0.0684932
-0.0684932 1.0443855 -0.0684932
-0.0684932 1.0436937 -0.0684932
0.4505805 1.0427352 -0.0684932
0.6912207 1.0413973 -0.0684932
0.8985705 1.0395105 -0.0684932
1.0434909 1.0168777 -0.0684932
1.0630557 0.9379495 -0.0684932
1.0740681 0.8853787 -0.0684932
1.0811949 0.8462631 -0.0684932
1.0862250 0.8145927 -0.0684932
1.0899952 0.7871708 -0.0684932
1.0901826 0.7621190 -0.0684932
1.0901826 0.7382399 -0.0684932
1.0901826 0.7147091 -0.0684932
1.0901826 0.6909088 -0.0684932
1.0901826 0.6668629 -0.0684932
1.0901826 0.6433642 -0.0684932
-0.0684932 1.0586334 -0.0684932
-0.0684932 1.0586332 -0.0684932
-0.0684932 1.0586323 -0.0684932
