LUTS_for_Software_DaVinci_Premiere_Avid_FinalCutPro/DaVinci-Resolve-with-Video-Range-Tag/Type-1-LUTs-For-Graphics-DaVinci Resolve-Requires-Scaling/5-NBCU_PQ2SDR_Type1-VRT.cube
TITLE "NBCU PQ-to-SDR For Graphics"
TITLE "PQ-BT.2100 to SDR-BT.709 Display-Light Conversion 3D Look-Up-Table"
# Narrow Range IRE in and out
#
# PLEASE DO NOT ALTER THE LINES BELOW
# 
# © 2020 NBCUniversal, LLC - Please do not remove this line
#
# Built using tools from and in collaboration with Cromorama and Nick Shaw - the creators of ORION-CONVERT
#
# SDR Display Light Conversion uses an assumed Lw of 203nits
#
# 58% PQ maps to 100% SDR - **NO SUPER-WHITES OR SUB-BLACKS**
#
# No Matrix Compensation (so make sure your device is using the correct matrix)
#
# Type I LUT - Narrow Range with **NO SUPER-WHITES OR SUB-BLACKS**
#
# For Graphics Input, scale RGB Full to Narrow Range For use with this LUT
# For Graphics Output, scale LUT Output from Narrow to Full range
# RESOLVE 17 VIDEO RANGE TAGS
LUT_IN_VIDEO_RANGE
LUT_OUT_VIDEO_RANGE
# IRE in and out
LUT_3D_SIZE 5
0.0000000 0.0000000 0.0000000
0.2680620 -0.0684932 -0.0408328
0.8809319 -0.0684932 -0.0684932
1.0887755 -0.0684932 -0.0684932
1.0901826 -0.0684932 -0.0684932
-0.0684932 0.2285861 -0.0684932
0.2234573 0.2177583 -0.0684932
0.8755642 -0.0684932 -0.0684932
1.0888430 -0.0684932 -0.0684932
1.0901826 -0.0684932 -0.0684932
-0.0684932 0.7604027 -0.0684932
-0.0684932 0.7584530 -0.0684932
0.7433416 0.7243833 -0.0684932
1.0889004 0.3103658 -0.0684932
1.0901826 -0.0684932 -0.0684932
-0.0684932 1.0725697 -0.0684932
-0.0684932 1.0725405 -0.0684932
-0.0684932 1.0720102 -0.0684932
1.0722466 1.0449000 -0.0684932
1.0901826 0.8765663 -0.0684932
-0.0684932 1.0901826 -0.0684932
-0.0684932 1.0901826 -0.0684932
-0.0684932 1.0901826 -0.0684932
0.8649174 1.0889467 -0.0684932
1.0901826 1.0636613 -0.0684932
-0.0684932 -0.0295456 0.2273904
0.2630976 -0.0684932 0.2258459
0.8802794 -0.0684932 0.1947768
1.0887733 -0.0684932 -0.0684932
1.0901826 -0.0684932 -0.0684932
-0.0684932 0.2278826 0.2186377
0.2170051 0.2170051 0.2170051
0.8748818 -0.0684932 0.1844911
1.0888400 -0.0684932 -0.0684932
1.0901826 -0.0684932 -0.0684932
-0.0684932 0.7602722 -0.0684932
-0.0684932 0.7583220 -0.0684932
0.7421651 0.7242437 -0.0684932
1.0888879 0.3102381 -0.0684932
1.0901826 -0.0684932 -0.0684932
-0.0684932 1.0725750 -0.0684932
-0.0684932 1.0725457 -0.0684932
-0.0684932 1.0720148 -0.0684932
1.0722090 1.0450878 -0.0684932
1.0901826 0.8766487 -0.0684932
-0.0684932 1.0901826 -0.0684932
-0.0684932 1.0901826 -0.0684932
-0.0684932 1.0901826 -0.0684932
0.8647185 1.0889484 -0.0684932
1.0901826 1.0637686 -0.0684932
-0.0684932 -0.0684932 0.7564252
0.1412280 -0.0684932 0.7561394
0.8686842 -0.0684932 0.7456882
1.0887254 -0.0684932 0.4384438
1.0901826 -0.0684932 0.3362423
-0.0684932 0.2155031 0.7548396
-0.0684932 0.2036807 0.7545530
0.8627388 -0.0684932 0.7454696
1.0887784 -0.0684932 0.4377624
1.0901826 -0.0684932 0.3356642
-0.0684932 0.7580626 0.7273089
-0.0684932 0.7561044 0.7270069
0.7218781 0.7218781 0.7218781
1.0886710 0.3080623 0.4257434
1.0901826 -0.0684932 0.3252203
-0.0684932 1.0726636 0.3550248
-0.0684932 1.0726335 0.3547709
-0.0684932 1.0720913 0.3504042
1.0715682 1.0482798 0.3101658
1.0901826 0.8780456 0.1855724
-0.0684932 1.0901826 -0.0684932
-0.0684932 1.0901826 -0.0684932
-0.0684932 1.0901826 -0.0684932
0.8613456 1.0889776 -0.0684932
1.0901826 1.0655881 -0.0684932
-0.0684932 -0.0684932 1.0362084
-0.0684932 -0.0684932 1.0372339
0.5908535 -0.0684932 1.0480164
1.0879899 -0.0684932 0.9339426
1.0901826 -0.0684932 0.8320552
-0.0684932 0.1153899 1.0386544
-0.0684932 0.1009033 1.0395159
0.5837141 -0.0684932 1.0490114
1.0879908 -0.0684932 0.9350225
1.0901826 -0.0684932 0.8325299
-0.0684932 0.5411771 1.0552593
-0.0684932 0.5395166 1.0554586
0.4479279 0.5110332 1.0583199
1.0872467 0.2928343 0.9531194
1.0901826 -0.0684932 0.8405696
-0.0684932 1.0729885 1.0294585
-0.0684932 1.0729553 1.0297822
-0.0684932 1.0723633 1.0352731
1.0674982 1.0674982 1.0674982
1.0901826 0.8879009 0.9022187
-0.0684932 1.0901826 0.8956193
-0.0684932 1.0901826 0.8957601
-0.0684932 1.0901826 0.8981491
0.8346782 1.0891856 0.9169525
1.0889527 1.0804517 0.9133854
-0.0684932 -0.0684932 1.0557705
-0.0684932 -0.0684932 1.0563124
0.4467726 -0.0684932 1.0632496
1.0849627 -0.0684932 1.0419068
1.0901826 -0.0684932 0.9464493
-0.0684932 -0.0299719 1.0570993
-0.0684932 -0.0593621 1.0575932
0.4413036 -0.0684932 1.0640253
1.0849618 -0.0684932 1.0431213
1.0901826 -0.0684932 0.9470667
-0.0684932 0.4453590 1.0696247
-0.0684932 0.4441796 1.0698096
0.3235073 0.4233359 1.0725565
1.0843387 0.2415776 1.0637812
1.0901826 -0.0684932 0.9575706
-0.0684932 1.0020125 1.0848093
-0.0684932 1.0016851 1.0848394
-0.0684932 0.9961134 1.0853301
0.9510669 0.9591711 1.0876825
1.0901826 0.8885954 1.0423099
-0.0684932 1.0901826 1.0472947
-0.0684932 1.0901826 1.0474791
-0.0684932 1.0901826 1.0506090
0.8193072 1.0892291 1.0757179
1.0877688 1.0877688 1.0877688
