LUTS_for_Software_DaVinci_Premiere_Avid_FinalCutPro/DaVinci-Resolve-with-Video-Range-Tag/Type-1-LUTs-For-Graphics-DaVinci Resolve-Requires-Scaling/5-NBCU_PQ2SDR_Type1-VRT.cube
TITLE "NBCU PQ-to-SDR For Graphics"
TITLE "PQ-BT.2100 to SDR-BT.709 Display-Light Conversion 3D Look-Up-Table"
# Narrow Range IRE in and out
#
# PLEASE DO NOT ALTER THE LINES BELOW
# 
# © 2020 NBCUniversal, LLC - Please do not remove this line
#
# Built using tools from and in collaboration with Cromorama and Nick Shaw - the creators of ORION-CONVERT
#
# SDR Display Light Conversion uses an assumed Lw of 203nits
#
# 58% PQ maps to 100% SDR - **NO SUPER-WHITES OR SUB-BLACKS**
#
# No Matrix Compensation (so make sure your device is using the correct matrix)
#
# Type I LUT - Narrow Range with **NO SUPER-WHITES OR SUB-BLACKS**
#
# For Graphics Input, scale RGB Full to Narrow Range For use with this LUT
# For Graphics Output, scale LUT Output from Narrow to Full range
# RESOLVE 17 VIDEO RANGE TAGS
LUT_IN_VIDEO_RANGE
LUT_OUT_VIDEO_RANGE
# IRE in and out
LUT_3D_SIZE 9
0.0000000 0.0000000 0.0000000
0.1089467 -0.0370262 -0.0165954
0.2680620 -0.0684932 -0.0408328
0.5138263 -0.0684932 -0.0684932
0.8809319 -0.0684932 -0.0684932
1.0581250 -0.0684932 -0.0684932
1.0887755 -0.0684932 -0.0684932
1.0901826 -0.0684932 -0.0684932
1.0901826 -0.0684932 -0.0684932
-0.0684932 0.0929028 -0.0338709
0.0908183 0.0885021 -0.0362952
0.2634520 0.0257254 -0.0501606
0.5119901 -0.0684932 -0.0684932
0.8803255 -0.0684932 -0.0684932
1.0580973 -0.0684932 -0.0684932
1.0887838 -0.0684932 -0.0684932
1.0901826 -0.0684932 -0.0684932
1.0901826 -0.0684932 -0.0684932
-0.0684932 0.2285861 -0.0684932
-0.0684932 0.2273751 -0.0684932
0.2234573 0.2177583 -0.0684932
0.4975720 0.1677689 -0.0684932
0.8755642 -0.0684932 -0.0684932
1.0578739 -0.0684932 -0.0684932
1.0888430 -0.0684932 -0.0684932
1.0901826 -0.0684932 -0.0684932
1.0901826 -0.0684932 -0.0684932
-0.0684932 0.4381582 -0.0684932
-0.0684932 0.4376726 -0.0684932
-0.0684932 0.4339186 -0.0684932
0.4283272 0.4174032 -0.0684932
0.8529506 0.3498635 -0.0684932
1.0567362 -0.0684932 -0.0684932
1.0890185 -0.0684932 -0.0684932
1.0901826 -0.0684932 -0.0684932
1.0901826 -0.0684932 -0.0684932
-0.0684932 0.7604027 -0.0684932
-0.0684932 0.7601784 -0.0684932
-0.0684932 0.7584530 -0.0684932
-0.0684932 0.7510455 -0.0684932
0.7433416 0.7243833 -0.0684932
1.0510867 0.4739585 -0.0684932
1.0889004 0.3103658 -0.0684932
1.0901826 0.1916625 -0.0684932
1.0901826 -0.0684932 -0.0684932
-0.0684932 1.0247099 -0.0684932
-0.0684932 1.0246879 -0.0684932
-0.0684932 1.0245187 -0.0684932
-0.0684932 1.0237889 -0.0684932
-0.0684932 1.0211280 -0.0684932
1.0189638 0.9929761 -0.0684932
1.0843420 0.7314428 -0.0684932
1.0901826 0.6224361 -0.0684932
1.0901826 0.5339382 -0.0684932
-0.0684932 1.0725697 -0.0684932
-0.0684932 1.0725664 -0.0684932
-0.0684932 1.0725405 -0.0684932
-0.0684932 1.0724281 -0.0684932
-0.0684932 1.0720102 -0.0684932
0.6276439 1.0704204 -0.0684932
1.0722466 1.0449000 -0.0684932
1.0901826 0.9378675 -0.0684932
1.0901826 0.8765663 -0.0684932
-0.0684932 1.0851113 -0.0684932
-0.0684932 1.0851096 -0.0684932
-0.0684932 1.0850965 -0.0684932
-0.0684932 1.0850395 -0.0684932
-0.0684932 1.0848287 -0.0684932
0.2962358 1.0840303 -0.0684932
0.9604318 1.0822899 -0.0684932
1.0853822 1.0577005 -0.0684932
1.0901826 0.9991011 -0.0684932
-0.0684932 1.0901826 -0.0684932
-0.0684932 1.0901826 -0.0684932
-0.0684932 1.0901826 -0.0684932
-0.0684932 1.0901826 -0.0684932
-0.0684932 1.0901826 -0.0684932
-0.0684932 1.0901826 -0.0684932
0.8649174 1.0889467 -0.0684932
1.0399693 1.0881381 -0.0684932
1.0901826 1.0636613 -0.0684932
-0.0296115 -0.0120081 0.0924169
0.1069291 -0.0380409 0.0917891
0.2674965 -0.0684932 0.0867540
0.5135992 -0.0684932 0.0581439
0.8808569 -0.0684932 -0.0684932
1.0581203 -0.0684932 -0.0684932
1.0887753 -0.0684932 -0.0684932
1.0901826 -0.0684932 -0.0684932
1.0901826 -0.0684932 -0.0684932
-0.0684932 0.0926169 0.0888595
0.0881960 0.0881960 0.0881960
0.2628726 0.0239151 0.0828493
0.5117618 -0.0684932 0.0508996
0.8802501 -0.0684932 -0.0684932
1.0580926 -0.0684932 -0.0684932
1.0887835 -0.0684932 -0.0684932
1.0901826 -0.0684932 -0.0684932
1.0901826 -0.0684932 -0.0684932
-0.0684932 0.2285052 0.0491538
-0.0684932 0.2272936 0.0476078
0.2227272 0.2176717 0.0320855
0.4973344 0.1676441 -0.0663459
0.8754858 -0.0684932 -0.0684932
1.0578690 -0.0684932 -0.0684932
1.0888426 -0.0684932 -0.0684932
1.0901826 -0.0684932 -0.0684932
1.0901826 -0.0684932 -0.0684932
-0.0684932 0.4381257 -0.0684932
-0.0684932 0.4376400 -0.0684932
-0.0684932 0.4338856 -0.0684932
0.4280341 0.4173684 -0.0684932
0.8528567 0.3498262 -0.0684932
1.0567305 -0.0684932 -0.0684932
1.0890178 -0.0684932 -0.0684932
1.0901826 -0.0684932 -0.0684932
1.0901826 -0.0684932 -0.0684932
-0.0684932 0.7603877 -0.0684932
-0.0684932 0.7601634 -0.0684932
-0.0684932 0.7584379 -0.0684932
-0.0684932 0.7510302 -0.0684932
0.7432061 0.7243673 -0.0684932
1.0510790 0.4739561 -0.0684932
1.0888989 0.3103511 -0.0684932
1.0901826 0.1916390 -0.0684932
1.0901826 -0.0684932 -0.0684932
-0.0684932 1.0247088 -0.0684932
-0.0684932 1.0246868 -0.0684932
-0.0684932 1.0245175 -0.0684932
-0.0684932 1.0237877 -0.0684932
-0.0684932 1.0211266 -0.0684932
1.0189483 0.9930084 -0.0684932
1.0843392 0.7314492 -0.0684932
1.0901826 0.6224393 -0.0684932
1.0901826 0.5339396 -0.0684932
-0.0684932 1.0725703 -0.0684932
-0.0684932 1.0725670 -0.0684932
-0.0684932 1.0725411 -0.0684932
-0.0684932 1.0724286 -0.0684932
-0.0684932 1.0720107 -0.0684932
0.6275756 1.0704208 -0.0684932
1.0722423 1.0449216 -0.0684932
1.0901826 0.9378809 -0.0684932
1.0901826 0.8765758 -0.0684932
-0.0684932 1.0851118 -0.0684932
-0.0684932 1.0851101 -0.0684932
-0.0684932 1.0850969 -0.0684932
-0.0684932 1.0850400 -0.0684932
-0.0684932 1.0848291 -0.0684932
0.2960954 1.0840307 -0.0684932
0.9604067 1.0822901 -0.0684932
1.0853796 1.0577165 -0.0684932
1.0901826 0.9991131 -0.0684932
-0.0684932 1.0901826 -0.0684932
-0.0684932 1.0901826 -0.0684932
-0.0684932 1.0901826 -0.0684932
-0.0684932 1.0901826 -0.0684932
-0.0684932 1.0901826 -0.0684932
-0.0684932 1.0901826 -0.0684932
0.8648945 1.0889469 -0.0684932
1.0399523 1.0881383 -0.0684932
1.0901826 1.0636737 -0.0684932
-0.0684932 -0.0295456 0.2273904
0.0892259 -0.0448216 0.2272132
0.2630976 -0.0684932 0.2258459
0.5118504 -0.0684932 0.2198911
0.8802794 -0.0684932 0.1947768
1.0580844 -0.0684932 0.0545630
1.0887733 -0.0684932 -0.0684932
1.0901826 -0.0684932 -0.0684932
1.0901826 -0.0684932 -0.0684932
-0.0684932 0.0903791 0.2264059
0.0626816 0.0857944 0.2262276
0.2583627 -0.0174541 0.2248519
0.5100042 -0.0684932 0.2188590
0.8796696 -0.0684932 0.1936373
1.0580565 -0.0684932 0.0509042
1.0887815 -0.0684932 -0.0684932
1.0901826 -0.0684932 -0.0684932
1.0901826 -0.0684932 -0.0684932
-0.0684932 0.2278826 0.2186377
-0.0684932 0.2266664 0.2184505
0.2170051 0.2170051 0.2170051
0.4955047 0.1666816 0.2106959
0.8748818 -0.0684932 0.1844911
1.0578312 -0.0684932 -0.0345737
1.0888400 -0.0684932 -0.0684932
1.0901826 -0.0684932 -0.0684932
1.0901826 -0.0684932 -0.0684932
-0.0684932 0.4378758 0.1801030
-0.0684932 0.4373898 0.1798573
-0.0684932 0.4336323 0.1779546
0.4257741 0.4171009 0.1695159
0.8521335 0.3495390 0.1336026
1.0566864 -0.0684932 -0.0684932
1.0890127 -0.0684932 -0.0684932
1.0901826 -0.0684932 -0.0684932
1.0901826 -0.0684932 -0.0684932
-0.0684932 0.7602722 -0.0684932
-0.0684932 0.7600479 -0.0684932
-0.0684932 0.7583220 -0.0684932
-0.0684932 0.7509127 -0.0684932
0.7421651 0.7242437 -0.0684932
1.0510194 0.4739379 -0.0684932
1.0888879 0.3102381 -0.0684932
1.0901826 0.1914582 -0.0684932
1.0901826 -0.0684932 -0.0684932
-0.0684932 1.0247003 -0.0684932
-0.0684932 1.0246783 -0.0684932
-0.0684932 1.0245089 -0.0684932
-0.0684932 1.0237787 -0.0684932
-0.0684932 1.0211161 -0.0684932
1.0188291 0.9932567 -0.0684932
1.0843178 0.7314988 -0.0684932
1.0901826 0.6224642 -0.0684932
1.0901826 0.5339499 -0.0684932
-0.0684932 1.0725750 -0.0684932
-0.0684932 1.0725717 -0.0684932
-0.0684932 1.0725457 -0.0684932
-0.0684932 1.0724332 -0.0684932
-0.0684932 1.0720148 -0.0684932
0.6270508 1.0704236 -0.0684932
1.0722090 1.0450878 -0.0684932
1.0901826 0.9379838 -0.0684932
1.0901826 0.8766487 -0.0684932
-0.0684932 1.0851154 -0.0684932
-0.0684932 1.0851137 -0.0684932
-0.0684932 1.0851006 -0.0684932
-0.0684932 1.0850436 -0.0684932
-0.0684932 1.0848325 -0.0684932
0.2950142 1.0840334 -0.0684932
0.9602134 1.0822920 -0.0684932
1.0853595 1.0578393 -0.0684932
1.0901826 0.9992057 -0.0684932
-0.0684932 1.0901826 -0.0684932
-0.0684932 1.0901826 -0.0684932
-0.0684932 1.0901826 -0.0684932
-0.0684932 1.0901826 -0.0684932
-0.0684932 1.0901826 -0.0684932
-0.0684932 1.0901826 -0.0684932
0.8647185 1.0889484 -0.0684932
1.0398216 1.0881396 -0.0684932
1.0901826 1.0637686 -0.0684932
-0.0684932 -0.0566337 0.4358663
-0.0684932 -0.0643869 0.4357951
0.2430985 -0.0684932 0.4352475
0.5043104 -0.0684932 0.4329057
0.8777892 -0.0684932 0.4200174
1.0579297 -0.0684932 0.2910253
1.0887645 -0.0684932 0.2214278
1.0901826 -0.0684932 0.1790559
1.0901826 -0.0684932 0.1421201
-0.0684932 0.0798406 0.4354713
-0.0684932 0.0743140 0.4354000
0.2377952 -0.0529131 0.4348518
0.5024253 -0.0684932 0.4325069
0.8771667 -0.0684932 0.4197180
1.0579008 -0.0684932 0.2907332
1.0887723 -0.0684932 0.2211378
1.0901826 -0.0684932 0.1787688
1.0901826 -0.0684932 0.1418092
-0.0684932 0.2252054 0.4324217
-0.0684932 0.2239687 0.4323497
0.1898589 0.2141352 0.4317960
0.4876075 0.1624942 0.4294278
0.8722766 -0.0684932 0.4173659
1.0576682 -0.0684932 0.2884768
1.0888280 -0.0684932 0.2188888
1.0901826 -0.0684932 0.1765378
1.0901826 -0.0684932 0.1393847
-0.0684932 0.4368098 0.4190889
-0.0684932 0.4363221 0.4190137
-0.0684932 0.4325516 0.4184351
0.4159596 0.4159596 0.4159596
0.8490098 0.3482984 0.4061771
1.0564974 -0.0684932 0.2785572
1.0889904 -0.0684932 0.2088465
1.0901826 -0.0684932 0.1664589
1.0901826 -0.0684932 0.1282233
-0.0684932 0.7597805 0.3671356
-0.0684932 0.7595559 0.3670450
-0.0684932 0.7578285 0.3663484
-0.0684932 0.7504124 0.3633618
0.7377106 0.7237173 0.3526705
1.0507644 0.4738608 0.2377271
1.0888405 0.3097562 0.1653846
1.0901826 0.1906850 0.1196033
1.0901826 -0.0684932 0.0657322
-0.0684932 1.0246639 -0.0684932
-0.0684932 1.0246418 -0.0684932
-0.0684932 1.0244720 -0.0684932
-0.0684932 1.0237399 -0.0684932
-0.0684932 1.0210713 -0.0684932
1.0183188 0.9943159 -0.0684932
1.0842261 0.7317101 -0.0684932
1.0901826 0.6225702 -0.0684932
1.0901826 0.5339937 -0.0684932
-0.0684932 1.0725950 -0.0684932
-0.0684932 1.0725916 -0.0684932
-0.0684932 1.0725656 -0.0684932
-0.0684932 1.0724524 -0.0684932
-0.0684932 1.0720321 -0.0684932
0.6248097 1.0704357 -0.0684932
1.0720672 1.0457963 -0.0684932
1.0901826 0.9384225 -0.0684932
1.0901826 0.8769592 -0.0684932
-0.0684932 1.0851309 -0.0684932
-0.0684932 1.0851292 -0.0684932
-0.0684932 1.0851160 -0.0684932
-0.0684932 1.0850587 -0.0684932
-0.0684932 1.0848467 -0.0684932
0.2903472 1.0840449 -0.0684932
0.9593897 1.0822997 -0.0684932
1.0852741 1.0583625 -0.0684932
1.0901826 0.9995999 -0.0684932
-0.0684932 1.0901826 -0.0684932
-0.0684932 1.0901826 -0.0684932
-0.0684932 1.0901826 -0.0684932
-0.0684932 1.0901826 -0.0684932
-0.0684932 1.0901826 -0.0684932
-0.0684932 1.0901826 -0.0684932
0.8639687 1.0889550 -0.0684932
1.0392648 1.0881450 -0.0684932
1.0901826 1.0641731 -0.0684932
-0.0684932 -0.0684932 0.7564252
-0.0684932 -0.0684932 0.7563923
0.1412280 -0.0684932 0.7561394
0.4766981 -0.0684932 0.7550616
0.8686842 -0.0684932 0.7456882
1.0573670 -0.0684932 0.5421237
1.0887254 -0.0684932 0.4384438
1.0901826 -0.0684932 0.3808759
1.0901826 -0.0684932 0.3362423
-0.0684932 -0.0415195 0.7562428
-0.0684932 -0.0525429 0.7562098
0.1293677 -0.0684932 0.7559569
0.4746576 -0.0684932 0.7548787
0.8680134 -0.0684932 0.7456706
1.0573349 -0.0684932 0.5420681
1.0887319 -0.0684932 0.4383654
1.0901826 -0.0684932 0.3808082
1.0901826 -0.0684932 0.3361759
-0.0684932 0.2155031 0.7548396
-0.0684932 0.2141872 0.7548066
-0.0684932 0.2036807 0.7545530
0.4585617 0.1465514 0.7534720
0.8627388 -0.0684932 0.7454696
1.0570784 -0.0684932 0.5416495
1.0887784 -0.0684932 0.4377624
1.0901826 -0.0684932 0.3802858
1.0901826 -0.0684932 0.3356642
-0.0684932 0.4330647 0.7488253
-0.0684932 0.4325711 0.7487919
-0.0684932 0.4287543 0.7485355
0.3788925 0.4119460 0.7474423
0.8375098 0.3437270 0.7430294
1.0558204 -0.0684932 0.5400140
1.0889061 -0.0684932 0.4351655
1.0901826 -0.0684932 0.3780189
1.0901826 -0.0684932 0.3334475
-0.0684932 0.7580626 0.7273089
-0.0684932 0.7578373 0.7272741
-0.0684932 0.7561044 0.7270069
-0.0684932 0.7486643 0.7258681
0.7218781 0.7218781 0.7218781
1.0498603 0.4735995 0.5355423
1.0886710 0.3080623 0.4257434
1.0901826 0.1879424 0.3695737
1.0901826 -0.0684932 0.3252203
-0.0684932 1.0245343 0.5322521
-0.0684932 1.0245121 0.5322498
-0.0684932 1.0243408 0.5322329
-0.0684932 1.0236024 0.5321657
-0.0684932 1.0209128 0.5319876
1.0165061 0.9980414 0.5250394
1.0839036 0.7324527 0.3906442
1.0901826 0.6229415 0.3361456
1.0901826 0.5341469 0.2927124
-0.0684932 1.0726636 0.3550248
-0.0684932 1.0726601 0.3549956
-0.0684932 1.0726335 0.3547709
-0.0684932 1.0725184 0.3538102
-0.0684932 1.0720913 0.3504042
0.6169055 1.0704772 0.3388501
1.0715682 1.0482798 0.3101658
1.0899734 0.9399585 0.2493734
1.0901826 0.8780456 0.1855724
-0.0684932 1.0851844 0.2322922
-0.0684932 1.0851827 0.2322484
-0.0684932 1.0851693 0.2319111
-0.0684932 1.0851110 0.2304637
-0.0684932 1.0848957 0.2252643
0.2731794 1.0840847 0.2067436
0.9565085 1.0823265 0.1627614
1.0849744 1.0601945 0.1029494
1.0901826 1.0009792 -0.0684932
-0.0684932 1.0901826 -0.0684932
-0.0684932 1.0901826 -0.0684932
-0.0684932 1.0901826 -0.0684932
-0.0684932 1.0901826 -0.0684932
-0.0684932 1.0901826 -0.0684932
-0.0684932 1.0901826 -0.0684932
0.8613456 1.0889776 -0.0684932
1.0373190 1.0881638 -0.0684932
1.0901826 1.0655881 -0.0684932
-0.0684932 -0.0684932 0.9998448
-0.0684932 -0.0684932 1.0000092
-0.0684932 -0.0684932 1.0011899
0.3312748 -0.0684932 1.0050283
0.7055312 -0.0684932 1.0117937
1.0553711 -0.0684932 0.9059424
1.0885197 -0.0684932 0.7494265
1.0901826 -0.0684932 0.6583673
1.0901826 -0.0684932 0.5885672
-0.0684932 -0.0684932 1.0002491
-0.0684932 -0.0684932 1.0004070
-0.0684932 -0.0684932 1.0015426
0.3287017 -0.0684932 1.0052575
0.7046257 -0.0684932 1.0118767
1.0553305 -0.0684932 0.9061165
1.0885227 -0.0684932 0.7494449
1.0901826 -0.0684932 0.6583840
1.0901826 -0.0684932 0.5885762
-0.0684932 0.1591511 1.0028745
-0.0684932 0.1577342 1.0029939
-0.0684932 0.1462462 1.0038622
0.3082042 0.0691500 1.0068157
0.6976957 -0.0684932 1.0124657
1.0550108 -0.0684932 0.9074519
1.0885432 -0.0684932 0.7495857
1.0901826 -0.0684932 0.6585115
1.0901826 -0.0684932 0.5886454
-0.0684932 0.3567668 1.0090980
-0.0684932 0.3563005 1.0091506
-0.0684932 0.3527032 1.0095420
0.1916485 0.3370101 1.0109867
0.6683477 0.2746969 1.0142583
1.0535100 -0.0684932 0.9131157
1.0885714 -0.0684932 0.7501753
1.0901826 -0.0684932 0.6590452
1.0901826 -0.0684932 0.5889320
-0.0684932 0.6292801 1.0150077
-0.0684932 0.6290745 1.0150189
-0.0684932 0.6274954 1.0151040
-0.0684932 0.6207616 1.0154366
0.5584748 0.5970008 1.0162938
1.0468369 0.4728199 0.9331779
1.0880852 0.3024869 0.7522616
1.0901826 0.1786193 0.6608286
1.0901826 -0.0684932 0.5898515
-0.0684932 1.0240903 0.9825442
-0.0684932 1.0240675 0.9825956
-0.0684932 1.0238918 0.9829908
-0.0684932 1.0231348 0.9846773
-0.0684932 1.0203825 0.9906110
1.0103227 1.0103227 1.0103227
1.0828385 0.7348911 0.7621979
1.0901826 0.6241483 0.6665206
1.0901826 0.5346413 0.5923303
-0.0684932 1.0728718 0.7653351
-0.0684932 1.0728681 0.7653457
-0.0684932 1.0728401 0.7654274
-0.0684932 1.0727187 0.7657766
-0.0684932 1.0722713 0.7670117
0.5905658 1.0706026 0.7711657
1.0699206 1.0563784 0.7626696
1.0890820 0.9449455 0.6663029
1.0901826 0.8815646 0.5930602
-0.0684932 1.0853506 0.6497137
-0.0684932 1.0853488 0.6497198
-0.0684932 1.0853346 0.6497663
-0.0684932 1.0852733 0.6499645
-0.0684932 1.0850480 0.6506578
0.2037376 1.0842083 0.6529091
0.9471775 1.0824091 0.6547310
1.0839927 1.0661446 0.6362364
1.0901826 1.0054487 0.5763626
-0.0684932 1.0901826 0.5594894
-0.0684932 1.0901826 0.5594916
-0.0684932 1.0901826 0.5595081
-0.0684932 1.0901826 0.5595782
-0.0684932 1.0901826 0.5598222
-0.0684932 1.0901826 0.5605983
0.8528506 1.0890484 0.5617181
1.0310389 1.0882224 0.5584928
1.0901826 1.0701705 0.5378363
-0.0684932 -0.0684932 1.0362084
-0.0684932 -0.0684932 1.0363304
-0.0684932 -0.0684932 1.0372339
0.2130521 -0.0684932 1.0405308
0.5908535 -0.0684932 1.0480164
1.0199789 -0.0684932 1.0583303
1.0879899 -0.0684932 0.9339426
1.0901826 -0.0684932 0.8735327
1.0901826 -0.0684932 0.8320552
-0.0684932 -0.0684932 1.0365140
-0.0684932 -0.0684932 1.0366334
-0.0684932 -0.0684932 1.0375178
0.2097852 -0.0684932 1.0407530
0.5900345 -0.0684932 1.0481360
1.0196248 -0.0684932 1.0583729
1.0879903 -0.0684932 0.9340672
1.0901826 -0.0684932 0.8736101
1.0901826 -0.0684932 0.8321099
-0.0684932 0.1153899 1.0386544
-0.0684932 0.1138493 1.0387565
-0.0684932 0.1009033 1.0395159
0.1819763 -0.0684932 1.0423381
0.5837141 -0.0684932 1.0490114
1.0169029 -0.0684932 1.0586919
1.0879908 -0.0684932 0.9350225
1.0901826 -0.0684932 0.8742045
1.0901826 -0.0684932 0.8325299
-0.0684932 0.3028763 1.0450880
-0.0684932 0.3024699 1.0451493
-0.0684932 0.2993267 1.0456103
-0.0684932 0.2854723 1.0473963
0.5561653 0.2289060 1.0520697
1.0052609 -0.0684932 1.0599079
1.0879416 -0.0684932 0.9390727
1.0901826 -0.0684932 0.8767314
1.0901826 -0.0684932 0.8343175
-0.0684932 0.5411771 1.0552593
-0.0684932 0.5409859 1.0552825
-0.0684932 0.5395166 1.0554586
-0.0684932 0.5332407 1.0561749
0.4479279 0.5110332 1.0583199
0.9640045 0.4346292 1.0629203
1.0872467 0.2928343 0.9531194
1.0901826 0.1623839 0.8855497
1.0901826 -0.0684932 0.8405696
-0.0684932 0.8861650 1.0644676
-0.0684932 0.8860701 1.0644740
-0.0684932 0.8853409 1.0645234
-0.0684932 0.8822352 1.0647296
-0.0684932 0.8713842 1.0654014
0.8203180 0.8363819 1.0671642
1.0815078 0.7346209 1.0001188
1.0901826 0.6245693 0.9149517
1.0901826 0.5351554 0.8613202
-0.0684932 1.0729885 1.0294585
-0.0684932 1.0729846 1.0294958
-0.0684932 1.0729553 1.0297822
-0.0684932 1.0728285 1.0310026
-0.0684932 1.0723633 1.0352731
0.5508884 1.0706474 1.0491523
1.0674982 1.0674982 1.0674982
1.0876729 0.9523923 0.9612152
1.0901826 0.8879009 0.9022187
-0.0684932 1.0855921 0.9507736
-0.0684932 1.0855902 0.9507968
-0.0684932 1.0855750 0.9509747
-0.0684932 1.0855093 0.9517329
-0.0684932 1.0852693 0.9543881
-0.0684932 1.0843881 0.9630243
0.9310590 1.0825267 0.9773054
1.0821875 1.0768364 0.9765497
1.0901826 1.0142611 0.9166827
-0.0684932 1.0901826 0.8956193
-0.0684932 1.0901826 0.8956355
-0.0684932 1.0901826 0.8957601
-0.0684932 1.0901826 0.8962909
-0.0684932 1.0901826 0.8981491
-0.0684932 1.0901826 0.9041844
0.8346782 1.0891856 0.9169525
1.0175701 1.0883368 0.9214505
1.0889527 1.0804517 0.9133854
-0.0684932 -0.0684932 1.0490339
-0.0684932 -0.0684932 1.0491200
-0.0684932 -0.0684932 1.0497641
0.0333431 -0.0684932 1.0522227
0.5149916 -0.0684932 1.0584298
0.9328588 -0.0684932 1.0685046
1.0869861 -0.0684932 1.0004063
1.0901826 -0.0684932 0.9423105
1.0901826 -0.0684932 0.9094625
-0.0684932 -0.0684932 1.0492501
-0.0684932 -0.0684932 1.0493348
-0.0684932 -0.0684932 1.0499695
-0.0372047 -0.0684932 1.0523951
0.5143076 -0.0684932 1.0585370
0.9325507 -0.0684932 1.0685478
1.0869861 -0.0684932 1.0005494
1.0901826 -0.0684932 0.9424028
1.0901826 -0.0684932 0.9095295
-0.0684932 0.0775121 1.0508068
-0.0684932 0.0754575 1.0508828
-0.0684932 0.0559753 1.0514527
-0.0684932 -0.0684932 1.0536493
0.5090005 -0.0684932 1.0593292
0.9301773 -0.0684932 1.0688726
1.0869832 -0.0684932 1.0016475
1.0901826 -0.0684932 0.9431114
1.0901826 -0.0684932 0.9100443
-0.0684932 0.2671150 1.0559413
-0.0684932 0.2667579 1.0559931
-0.0684932 0.2639914 1.0563846
-0.0684932 0.2517033 1.0579313
0.4853132 0.2000265 1.0621974
0.9199353 -0.0684932 1.0701337
1.0869248 -0.0684932 1.0063138
1.0901826 -0.0684932 0.9461278
1.0901826 -0.0684932 0.9122376
-0.0684932 0.4909484 1.0654597
-0.0684932 0.4907895 1.0654827
-0.0684932 0.4895672 1.0656575
-0.0684932 0.4843162 1.0663722
0.3855546 0.4653941 1.0685484
0.8827305 0.3970754 1.0734287
1.0862379 0.2759207 1.0225920
1.0901826 0.1432740 0.9566879
1.0901826 -0.0684932 0.9199306
-0.0684932 0.8176560 1.0757375
-0.0684932 0.8175720 1.0757445
-0.0684932 0.8169266 1.0757985
-0.0684932 0.8141767 1.0760242
-0.0684932 0.8045575 1.0767652
0.7503127 0.7733415 1.0787516
1.0806244 0.7233707 1.0774053
1.0901826 0.6189230 0.9920386
1.0901826 0.5332133 0.9455911
-0.0684932 1.0398303 1.0790660
-0.0684932 1.0397899 1.0790697
-0.0684932 1.0394794 1.0790979
-0.0684932 1.0381554 1.0792166
-0.0684932 1.0335104 1.0796141
0.4925002 1.0183426 1.0807385
0.9906354 0.9958748 1.0818376
1.0870342 0.9542234 1.0518035
1.0901826 0.8898515 0.9978469
-0.0684932 1.0856171 1.0415748
-0.0684932 1.0856151 1.0416024
-0.0684932 1.0855996 1.0418140
-0.0684932 1.0855329 1.0427161
-0.0684932 1.0852894 1.0458749
-0.0684932 1.0844000 1.0561486
0.9232198 1.0825127 1.0739287
1.0813504 1.0813504 1.0813504
1.0901826 1.0180040 1.0225701
-0.0684932 1.0901826 1.0003904
-0.0684932 1.0901826 1.0004103
-0.0684932 1.0901826 1.0005631
-0.0684932 1.0901826 1.0012141
-0.0684932 1.0901826 1.0034933
-0.0684932 1.0901826 1.0108969
0.8256976 1.0892344 1.0267973
1.0112305 1.0883752 1.0338906
1.0881827 1.0853559 1.0341911
-0.0684932 -0.0684932 1.0557705
-0.0684932 -0.0684932 1.0558340
-0.0684932 -0.0684932 1.0563124
-0.0684932 -0.0684932 1.0581871
0.4467726 -0.0684932 1.0632496
0.8455433 -0.0684932 1.0724070
1.0849627 -0.0684932 1.0419068
1.0901826 -0.0684932 0.9779530
1.0901826 -0.0684932 0.9464493
-0.0684932 -0.0684932 1.0559302
-0.0684932 -0.0684932 1.0559930
-0.0684932 -0.0684932 1.0564662
-0.0684932 -0.0684932 1.0583216
0.4461490 -0.0684932 1.0633416
0.8452974 -0.0684932 1.0724491
1.0849629 -0.0684932 1.0420467
1.0901826 -0.0684932 0.9780476
1.0901826 -0.0684932 0.9465204
-0.0684932 -0.0299719 1.0570993
-0.0684932 -0.0352756 1.0571571
-0.0684932 -0.0593621 1.0575932
-0.0684932 -0.0684932 1.0593116
0.4413036 -0.0684932 1.0640253
0.8434007 -0.0684932 1.0727663
1.0849618 -0.0684932 1.0431213
1.0901826 -0.0684932 0.9787740
1.0901826 -0.0684932 0.9470667
-0.0684932 0.2361634 1.0611795
-0.0684932 0.2358352 1.0612223
-0.0684932 0.2332907 1.0615463
-0.0684932 0.2219467 1.0628443
0.4194926 0.1732539 1.0665662
0.8351644 -0.0684932 1.0740121
1.0849179 -0.0684932 1.0476988
1.0901826 -0.0684932 0.9818692
1.0901826 -0.0684932 0.9493951
-0.0684932 0.4453590 1.0696247
-0.0684932 0.4452235 1.0696461
-0.0684932 0.4441796 1.0698096
-0.0684932 0.4396839 1.0704809
0.3235073 0.4233359 1.0725565
0.8046193 0.3627525 1.0773759
1.0843387 0.2415776 1.0637812
1.0901826 0.0903230 0.9927319
1.0901826 -0.0684932 0.9575706
-0.0684932 0.7554117 1.0800442
-0.0684932 0.7553430 1.0800515
-0.0684932 0.7548152 1.0801072
-0.0684932 0.7525613 1.0803406
-0.0684932 0.7446155 1.0811099
0.6886214 0.7182552 1.0831942
1.0470344 0.6748442 1.0851931
1.0901826 0.6017890 1.0292337
1.0901826 0.5260216 0.9848827
-0.0684932 1.0020125 1.0848093
-0.0684932 1.0019748 1.0848128
-0.0684932 1.0016851 1.0848394
-0.0684932 1.0004496 1.0849519
-0.0684932 0.9961134 1.0853301
0.4202554 0.9819362 1.0864154
0.9510669 0.9591711 1.0876825
1.0784729 0.9448118 1.0879092
1.0901826 0.8885954 1.0423099
-0.0684932 1.0854385 1.0853596
-0.0684932 1.0854366 1.0853884
-0.0684932 1.0852606 1.0854489
-0.0684932 1.0843349 1.0855311
-0.0684932 1.0810874 1.0858099
-0.0684932 1.0704793 1.0866288
0.8895862 1.0512367 1.0878052
1.0394191 1.0421372 1.0881184
1.0901826 1.0194350 1.0712522
-0.0684932 1.0901826 1.0472947
-0.0684932 1.0901826 1.0473159
-0.0684932 1.0901826 1.0474791
-0.0684932 1.0901826 1.0481745
-0.0684932 1.0901826 1.0506090
-0.0684932 1.0901826 1.0585167
0.8193072 1.0892291 1.0757179
1.0076783 1.0883618 1.0837861
1.0877688 1.0877688 1.0877688
