3D_Type_III_Cube_LUTS_for_Software/HLG-to-from-SDR - Type III For Most Hardware/For DaVinci Resolve 17 - Video Level Tag Added - Type III/3-NBCU_HLG2SDR_DL_VRT.cube
TITLE "HLG-BT.2100 to SDR-BT.709 Display-Light Conversion 3D Look-Up-Table"
#
# PLEASE DO NOT ALTER THE LINES BELOW
# 
# © 2020 NBCUniversal, LLC - Please do not remove this line
#
# Built using tools from and in collaboration with Cromorama and Nick Shaw - the creators of ORION-CONVERT
#
# MaxRGB 2-stage highlight compression knee
#
# Parameters designed by Chris Seeger, NBCU Advanced Technology (chris.seeger@nbcuni.com)
# In collaboration with Michael Drazin, NBCU Sports Group (michael.drazin@nbcuni.com)
#
# 75% HLG maps to 95% SDR (before highlight compression)
# Highlight compression from 95% to 109% SDR
# Stage 1 Pre-rolled-off HDR highlights
# Stage 2 Post-Rolled off converted SDR highlights
#
# Sophisticated Highlight Knee REQUIRES the use of devices using Tetrehedral Interpolation
#
# Display-Light Conversion (absolute chromaticity is preserved from input to output)
# Display-Light Conversion preserves original artistic intent
#
# No Matrix Compensation (so make sure your device is using the correct matrix)
#
# Type III LUT - Full Range Processing for Narrow Range Signals
# RESOLVE 17 VIDEO RANGE TAGS
LUT_IN_VIDEO_RANGE
LUT_OUT_VIDEO_RANGE
LUT_3D_SIZE 33
-0.0076089 -0.0076089 -0.0076089
0.1008766 -0.0089487 -0.0067274
0.1201138 -0.0092784 -0.0063639
0.1324724 -0.0095366 -0.0059595
0.1561263 -0.0097884 -0.0043807
0.1733527 -0.0063723 0.0012708
0.2081441 -0.0152886 -0.0034320
0.2515443 -0.0283405 -0.0106646
0.2918434 -0.0397153 -0.0157362
0.3313510 -0.0509469 -0.0202012
0.3705415 -0.0623183 -0.0244541
0.4095752 -0.0684932 -0.0286519
0.4485206 -0.0684932 -0.0328687
0.4874118 -0.0684932 -0.0371418
0.5262673 -0.0684932 -0.0414899
0.5650981 -0.0684932 -0.0459214
0.6041378 -0.0684932 -0.0504654
0.6471761 -0.0684932 -0.0555760
0.6959742 -0.0684932 -0.0614932
0.7511110 -0.0684932 -0.0683250
0.8073511 -0.0684932 -0.0684932
0.8523044 -0.0684932 -0.0684932
0.8883739 -0.0684932 -0.0684932
0.9177320 -0.0684932 -0.0684932
0.9419178 -0.0684932 -0.0684932
0.9607907 -0.0684932 -0.0684932
0.9725358 -0.0684932 -0.0684932
0.9803341 -0.0684932 -0.0684932
0.9858809 -0.0684932 -0.0684932
0.9900249 -0.0684932 -0.0684932
0.9932368 -0.0684932 -0.0684932
0.9957985 -0.0684932 -0.0684932
0.9978887 -0.0684932 -0.0684932
-0.0144423 0.0324843 -0.0056133
0.0304272 0.0273339 -0.0031121
0.0955883 0.0262954 -0.0018567
0.1124339 0.0256947 -0.0001886
0.1310862 0.0265735 0.0074374
0.1767137 0.0121467 -0.0053550
0.2163465 0.0005997 -0.0110065
0.2554181 -0.0111734 -0.0155183
0.2943253 -0.0232493 -0.0196277
0.3331640 -0.0355631 -0.0235932
0.3719682 -0.0480527 -0.0275341
0.4107525 -0.0606721 -0.0315119
0.4495244 -0.0684932 -0.0355596
0.4882879 -0.0684932 -0.0396945
0.5270456 -0.0684932 -0.0439243
0.5657990 -0.0684932 -0.0482514
0.6047757 -0.0684932 -0.0527007
0.6477568 -0.0684932 -0.0577159
0.6965018 -0.0684932 -0.0635343
0.7515897 -0.0684932 -0.0684932
0.8076825 -0.0684932 -0.0684932
0.8525173 -0.0684932 -0.0684932
0.8885131 -0.0684932 -0.0684932
0.9178242 -0.0684932 -0.0684932
0.9419797 -0.0684932 -0.0684932
0.9608338 -0.0684932 -0.0684932
0.9725692 -0.0684932 -0.0684932
0.9803619 -0.0684932 -0.0684932
0.9859051 -0.0684932 -0.0684932
0.9900466 -0.0684932 -0.0684932
0.9932567 -0.0684932 -0.0684932
0.9958169 -0.0684932 -0.0684932
0.9979061 -0.0684932 -0.0684932
-0.0148470 0.0900996 -0.0038869
0.0247742 0.0779210 0.0008321
0.0811784 0.0701104 0.0044567
0.0964611 0.0531160 0.0144807
0.1396849 0.0375531 -0.0022328
0.1785960 0.0239344 -0.0082227
0.2173724 0.0105553 -0.0128401
0.2561223 -0.0027351 -0.0169443
0.2948638 -0.0159826 -0.0208421
0.3336018 -0.0292058 -0.0246789
0.3723380 -0.0424140 -0.0285321
0.4110734 -0.0556122 -0.0324449
0.4498081 -0.0684932 -0.0364410
0.4885425 -0.0684932 -0.0405328
0.5272767 -0.0684932 -0.0447254
0.5660107 -0.0684932 -0.0490192
0.6049709 -0.0684932 -0.0534381
0.6479367 -0.0684932 -0.0584227
0.6966671 -0.0684932 -0.0642091
0.7517411 -0.0684932 -0.0684932
0.8077880 -0.0684932 -0.0684932
0.8525857 -0.0684932 -0.0684932
0.8885581 -0.0684932 -0.0684932
0.9178542 -0.0684932 -0.0684932
0.9419999 -0.0684932 -0.0684932
0.9608479 -0.0684932 -0.0684932
0.9725802 -0.0684932 -0.0684932
0.9803710 -0.0684932 -0.0684932
0.9859131 -0.0684932 -0.0684932
0.9900537 -0.0684932 -0.0684932
0.9932632 -0.0684932 -0.0684932
0.9958230 -0.0684932 -0.0684932
0.9979119 -0.0684932 -0.0684932
-0.0129302 0.1041470 -0.0004956
0.0224552 0.0962165 0.0055193
0.0429324 0.0973911 0.0008580
0.1012406 0.0971138 -0.0017049
0.1407457 0.0931201 -0.0062081
0.1793722 0.0727988 -0.0105171
0.2179818 0.0257259 -0.0144997
0.2566213 0.0081217 -0.0182933
0.2952852 -0.0073763 -0.0220132
0.3339659 -0.0220301 -0.0257356
0.3726584 -0.0362416 -0.0295084
0.4113592 -0.0501877 -0.0333601
0.4500660 -0.0639603 -0.0373072
0.4887775 -0.0684932 -0.0413577
0.5274924 -0.0684932 -0.0455142
0.5662100 -0.0684932 -0.0497758
0.6051561 -0.0684932 -0.0541651
0.6481085 -0.0684932 -0.0591198
0.6968258 -0.0684932 -0.0648751
0.7518872 -0.0684932 -0.0684932
0.8078902 -0.0684932 -0.0684932
0.8526521 -0.0684932 -0.0684932
0.8886019 -0.0684932 -0.0684932
0.9178836 -0.0684932 -0.0684932
0.9420198 -0.0684932 -0.0684932
0.9608618 -0.0684932 -0.0684932
0.9725910 -0.0684932 -0.0684932
0.9803800 -0.0684932 -0.0684932
0.9859209 -0.0684932 -0.0684932
0.9900607 -0.0684932 -0.0684932
0.9932697 -0.0684932 -0.0684932
0.9958291 -0.0684932 -0.0684932
0.9979175 -0.0684932 -0.0684932
-0.0263473 0.1334407 -0.0068789
-0.0021672 0.1337868 -0.0098288
0.0115507 0.1336539 -0.0106273
0.0365449 0.1334333 -0.0113579
0.1359080 0.1323404 -0.0132824
0.1784475 0.1294090 -0.0159034
0.2181913 0.1233524 -0.0188790
0.2572100 0.1116451 -0.0220522
0.2959942 0.0772305 -0.0253663
0.3346966 0.0098345 -0.0288054
0.3733716 -0.0122245 -0.0323676
0.4120400 -0.0304900 -0.0360540
0.4507098 -0.0471111 -0.0398648
0.4893840 -0.0628197 -0.0437986
0.5280634 -0.0684932 -0.0478523
0.5667481 -0.0684932 -0.0520212
0.6056637 -0.0684932 -0.0563252
0.6485856 -0.0684932 -0.0611931
0.6972719 -0.0684932 -0.0668576
0.7523022 -0.0684932 -0.0684932
0.8081829 -0.0684932 -0.0684932
0.8528440 -0.0684932 -0.0684932
0.8887295 -0.0684932 -0.0684932
0.9179693 -0.0684932 -0.0684932
0.9420780 -0.0684932 -0.0684932
0.9609027 -0.0684932 -0.0684932
0.9726229 -0.0684932 -0.0684932
0.9804067 -0.0684932 -0.0684932
0.9859442 -0.0684932 -0.0684932
0.9900817 -0.0684932 -0.0684932
0.9932888 -0.0684932 -0.0684932
0.9958469 -0.0684932 -0.0684932
0.9979344 -0.0684932 -0.0684932
-0.0485395 0.1698772 -0.0175671
-0.0265699 0.1696485 -0.0189351
-0.0167874 0.1695170 -0.0193642
-0.0047759 0.1693623 -0.0197780
0.1131487 0.1687644 -0.0209602
0.1713071 0.1673855 -0.0227638
0.2152651 0.1647836 -0.0250327
0.2561033 0.1604396 -0.0276466
0.2957789 0.1536586 -0.0305266
0.3349434 0.1432452 -0.0336246
0.3738630 0.1262839 -0.0369116
0.4126596 0.0824136 -0.0403690
0.4513929 -0.0028574 -0.0439835
0.4900935 -0.0289936 -0.0477445
0.5287779 -0.0499153 -0.0516430
0.5674550 -0.0684932 -0.0556702
0.6063558 -0.0684932 -0.0598424
0.6492567 -0.0684932 -0.0645752
0.6979166 -0.0684932 -0.0684932
0.7529164 -0.0684932 -0.0684932
0.8086235 -0.0684932 -0.0684932
0.8531379 -0.0684932 -0.0684932
0.8889277 -0.0684932 -0.0684932
0.9181044 -0.0684932 -0.0684932
0.9421707 -0.0684932 -0.0684932
0.9609684 -0.0684932 -0.0684932
0.9726744 -0.0684932 -0.0684932
0.9804498 -0.0684932 -0.0684932
0.9859819 -0.0684932 -0.0684932
0.9901156 -0.0684932 -0.0684932
0.9933200 -0.0684932 -0.0684932
0.9958760 -0.0684932 -0.0684932
0.9979617 -0.0684932 -0.0684932
-0.0684932 0.2056868 -0.0267988
-0.0520652 0.2054252 -0.0277308
-0.0445319 0.2053163 -0.0280336
-0.0361461 0.2051983 -0.0283301
-0.0001481 0.2047867 -0.0291997
0.1529790 0.2039271 -0.0305849
0.2069505 0.2024025 -0.0324119
0.2517314 0.1999613 -0.0346093
0.2934512 0.1963220 -0.0371171
0.3337882 0.1911485 -0.0398888
0.3734160 0.1839889 -0.0428899
0.4126533 0.1741373 -0.0460943
0.4516656 0.1602703 -0.0494821
0.4905441 0.1390626 -0.0530372
0.5293414 0.0879729 -0.0567462
0.5680889 -0.0137199 -0.0605975
0.6070319 -0.0437822 -0.0646040
0.6499574 -0.0684932 -0.0684932
0.6986269 -0.0684932 -0.0684932
0.7536230 -0.0684932 -0.0684932
0.8091471 -0.0684932 -0.0684932
0.8534978 -0.0684932 -0.0684932
0.8891765 -0.0684932 -0.0684932
0.9182772 -0.0684932 -0.0684932
0.9422913 -0.0684932 -0.0684932
0.9610549 -0.0684932 -0.0684932
0.9727427 -0.0684932 -0.0684932
0.9805073 -0.0684932 -0.0684932
0.9860323 -0.0684932 -0.0684932
0.9901611 -0.0684932 -0.0684932
0.9933619 -0.0684932 -0.0684932
0.9959151 -0.0684932 -0.0684932
0.9979987 -0.0684932 -0.0684932
-0.0684932 0.2414233 -0.0361498
-0.0684932 0.2411835 -0.0368799
-0.0684932 0.2410928 -0.0371202
-0.0655382 0.2409977 -0.0373568
-0.0420398 0.2406824 -0.0380585
0.0971542 0.2400646 -0.0391975
0.1904042 0.2390225 -0.0407351
0.2426978 0.2374096 -0.0426283
0.2880188 0.2350637 -0.0448361
0.3304404 0.2318079 -0.0473218
0.3713788 0.2274418 -0.0500544
0.4114783 0.2217226 -0.0530084
0.4510740 0.2143293 -0.0561622
0.4903548 0.2047939 -0.0594980
0.5294329 0.1923530 -0.0630006
0.5683780 0.1755461 -0.0666565
0.6074610 0.1505009 -0.0684932
0.6504931 0.0421682 -0.0684932
0.6992415 -0.0372849 -0.0684932
0.7542907 -0.0684932 -0.0684932
0.8096732 -0.0684932 -0.0684932
0.8538780 -0.0684932 -0.0684932
0.8894498 -0.0684932 -0.0684932
0.9184729 -0.0684932 -0.0684932
0.9424312 -0.0684932 -0.0684932
0.9611571 -0.0684932 -0.0684932
0.9728243 -0.0684932 -0.0684932
0.9805766 -0.0684932 -0.0684932
0.9860934 -0.0684932 -0.0684932
0.9902164 -0.0684932 -0.0684932
0.9934129 -0.0684932 -0.0684932
0.9959628 -0.0684932 -0.0684932
0.9980438 -0.0684932 -0.0684932
-0.0684932 0.2771487 -0.0459029
-0.0684932 0.2769356 -0.0465140
-0.0684932 0.2768584 -0.0467163
-0.0684932 0.2767788 -0.0469161
-0.0684932 0.2765225 -0.0475116
-0.0341012 0.2760407 -0.0484876
0.1581614 0.2752589 -0.0498212
0.2271337 0.2740842 -0.0514854
0.2784984 0.2724120 -0.0534522
0.3242022 0.2701291 -0.0556942
0.3671896 0.2671141 -0.0581862
0.4086591 0.2632331 -0.0609057
0.4492082 0.2583329 -0.0638328
0.4891697 0.2522271 -0.0669502
0.5287428 0.2446748 -0.0684932
0.5680523 0.2353428 -0.0684932
0.6074076 0.2236563 -0.0684932
0.6506607 0.2070654 -0.0684932
0.6995881 0.1805265 -0.0684932
0.7547755 0.1213732 -0.0684932
0.8101129 -0.0473381 -0.0684932
0.8542269 -0.0684932 -0.0684932
0.8897175 -0.0684932 -0.0684932
0.9186741 -0.0684932 -0.0684932
0.9425803 -0.0684932 -0.0684932
0.9612690 -0.0684932 -0.0684932
0.9729150 -0.0684932 -0.0684932
0.9806542 -0.0684932 -0.0684932
0.9861623 -0.0684932 -0.0684932
0.9902791 -0.0684932 -0.0684932
0.9934710 -0.0684932 -0.0684932
0.9960173 -0.0684932 -0.0684932
0.9980955 -0.0684932 -0.0684932
-0.0684932 0.3128743 -0.0560900
-0.0684932 0.3126849 -0.0566206
-0.0684932 0.3126179 -0.0567968
-0.0684932 0.3125495 -0.0569710
-0.0684932 0.3123332 -0.0574918
-0.0684932 0.3119378 -0.0583498
0.0000617 0.3113145 -0.0595304
0.2011807 0.3104014 -0.0610159
0.2635598 0.3091266 -0.0627864
0.3143297 0.3074119 -0.0648216
0.3603194 0.3051738 -0.0671018
0.4037706 0.3023237 -0.0684932
0.4457058 0.2987659 -0.0684932
0.4866717 0.2943940 -0.0684932
0.5269899 0.2890851 -0.0684932
0.5668615 0.2826907 -0.0684932
0.6066483 0.2749743 -0.0684932
0.6502632 0.2646631 -0.0684932
0.6994953 0.2500592 -0.0684932
0.7549306 0.2283003 -0.0684932
0.8103746 0.1908192 -0.0684932
0.8544905 0.0263335 -0.0684932
0.8899477 -0.0684932 -0.0684932
0.9188617 -0.0684932 -0.0684932
0.9427273 -0.0684932 -0.0684932
0.9613835 -0.0684932 -0.0684932
0.9730099 -0.0684932 -0.0684932
0.9807365 -0.0684932 -0.0684932
0.9862360 -0.0684932 -0.0684932
0.9903466 -0.0684932 -0.0684932
0.9935338 -0.0684932 -0.0684932
0.9960766 -0.0684932 -0.0684932
0.9981518 -0.0684932 -0.0684932
-0.0684932 0.3486022 -0.0666738
-0.0684932 0.3484328 -0.0671448
-0.0684932 0.3483736 -0.0673015
-0.0684932 0.3483137 -0.0674565
-0.0684932 0.3481264 -0.0679209
-0.0684932 0.3477905 -0.0684932
-0.0675042 0.3472727 -0.0684932
0.1506517 0.3465294 -0.0684932
0.2408106 0.3455097 -0.0684932
0.2998253 0.3441568 -0.0684932
0.3501805 0.3424101 -0.0684932
0.3963920 0.3402055 -0.0684932
0.4402295 0.3374755 -0.0684932
0.4825731 0.3341481 -0.0684932
0.5239209 0.3301449 -0.0684932
0.5645787 0.3253781 -0.0684932
0.6049785 0.3197107 -0.0684932
0.6491169 0.3122969 -0.0684932
0.6988004 0.3021509 -0.0684932
0.7546142 0.2879441 -0.0684932
0.8103678 0.2654325 -0.0684932
0.8546141 0.2281113 -0.0684932
0.8901073 0.1626830 -0.0684932
0.9190158 -0.0518436 -0.0684932
0.9428602 -0.0684932 -0.0684932
0.9614932 -0.0684932 -0.0684932
0.9731035 -0.0684932 -0.0684932
0.9808193 -0.0684932 -0.0684932
0.9863111 -0.0684932 -0.0684932
0.9904160 -0.0684932 -0.0684932
0.9935988 -0.0684932 -0.0684932
0.9961381 -0.0684932 -0.0684932
0.9982106 -0.0684932 -0.0684932
-0.0684932 0.3843327 -0.0684932
-0.0684932 0.3841798 -0.0684932
-0.0684932 0.3841269 -0.0684932
-0.0684932 0.3840736 -0.0684932
-0.0684932 0.3839083 -0.0684932
-0.0684932 0.3836159 -0.0684932
-0.0684932 0.3831728 -0.0684932
-0.0402171 0.3825473 -0.0684932
0.2043456 0.3817019 -0.0684932
0.2790516 0.3805944 -0.0684932
0.3359954 0.3791790 -0.0684932
0.3860442 0.3774074 -0.0684932
0.4324330 0.3752287 -0.0684932
0.4765969 0.3725899 -0.0684932
0.5193001 0.3694349 -0.0684932
0.5609962 0.3657032 -0.0684932
0.6022112 0.3613014 -0.0684932
0.6470535 0.3556023 -0.0684932
0.6973528 0.3479202 -0.0684932
0.7536923 0.3374193 -0.0684932
0.8100046 0.3204570 -0.0684932
0.8545445 0.2922247 -0.0684932
0.8901636 0.2520917 -0.0684932
0.9191163 0.1915923 -0.0684932
0.9429666 -0.0313243 -0.0684932
0.9615902 -0.0684932 -0.0684932
0.9731904 -0.0684932 -0.0684932
0.9808983 -0.0684932 -0.0684932
0.9863839 -0.0684932 -0.0684932
0.9904841 -0.0684932 -0.0684932
0.9936632 -0.0684932 -0.0684932
0.9961995 -0.0684932 -0.0684932
0.9982695 -0.0684932 -0.0684932
-0.0684932 0.4200653 -0.0684932
-0.0684932 0.4199262 -0.0684932
-0.0684932 0.4198785 -0.0684932
-0.0684932 0.4198305 -0.0684932
-0.0684932 0.4196824 -0.0684932
-0.0684932 0.4194234 -0.0684932
-0.0684932 0.4190357 -0.0684932
-0.0684932 0.4184960 -0.0684932
0.1185260 0.4177759 -0.0684932
0.2486950 0.4168430 -0.0684932
0.3165702 0.4156621 -0.0684932
0.3721039 0.4141955 -0.0684932
0.4219170 0.4124039 -0.0684932
0.4684508 0.4102459 -0.0684932
0.5128938 0.4076788 -0.0684932
0.5559155 0.4046575 -0.0684932
0.5981720 0.4011119 -0.0684932
0.6439173 0.3965496 -0.0684932
0.6950129 0.3904508 -0.0684932
0.7520406 0.3822152 -0.0684932
0.8091989 0.3683050 -0.0684932
0.8542296 0.3437509 -0.0684932
0.8900846 0.3100808 -0.0684932
0.9191433 0.2663871 -0.0684932
0.9430342 0.2050187 -0.0684932
0.9616667 -0.0081717 -0.0684932
0.9732648 -0.0684932 -0.0684932
0.9809687 -0.0684932 -0.0684932
0.9864507 -0.0684932 -0.0684932
0.9905476 -0.0684932 -0.0684932
0.9937240 -0.0684932 -0.0684932
0.9962580 -0.0684932 -0.0684932
0.9983262 -0.0684932 -0.0684932
-0.0684932 0.4557998 -0.0684932
-0.0684932 0.4556724 -0.0684932
-0.0684932 0.4556288 -0.0684932
-0.0684932 0.4555852 -0.0684932
-0.0684932 0.4554511 -0.0684932
-0.0684932 0.4552183 -0.0684932
-0.0684932 0.4548735 -0.0684932
-0.0684932 0.4543988 -0.0684932
-0.0684932 0.4537722 -0.0684932
0.1991459 0.4529685 -0.0684932
0.2897708 0.4519601 -0.0684932
0.3536609 0.4507171 -0.0684932
0.4081705 0.4492079 -0.0684932
0.4577965 0.4473998 -0.0684932
0.5044510 0.4452588 -0.0684932
0.5491354 0.4427495 -0.0684932
0.5926903 0.4398166 -0.0684932
0.6395604 0.4360590 -0.0684932
0.6916506 0.4310631 -0.0684932
0.7495432 0.4243658 -0.0684932
0.8078648 0.4124693 -0.0684932
0.8536186 0.3897109 -0.0684932
0.8898392 0.3586136 -0.0684932
0.9190773 0.3201090 -0.0684932
0.9430507 0.2726553 -0.0684932
0.9617148 0.2133596 -0.0684932
0.9733209 0.1385534 -0.0684932
0.9810262 -0.0360932 -0.0684932
0.9865075 -0.0684932 -0.0684932
0.9906032 -0.0684932 -0.0684932
0.9937783 -0.0684932 -0.0684932
0.9963110 -0.0684932 -0.0684932
0.9983780 -0.0684932 -0.0684932
-0.0684932 0.4915357 -0.0684932
-0.0684932 0.4914182 -0.0684932
-0.0684932 0.4913782 -0.0684932
-0.0684932 0.4913382 -0.0684932
-0.0684932 0.4912156 -0.0684932
-0.0684932 0.4910042 -0.0684932
-0.0684932 0.4906935 -0.0684932
-0.0684932 0.4902696 -0.0684932
-0.0684932 0.4897152 -0.0684932
-0.0192119 0.4890103 -0.0684932
0.2508530 0.4881328 -0.0684932
0.3292221 0.4870587 -0.0684932
0.3904758 0.4857624 -0.0684932
0.4442071 0.4842172 -0.0684932
0.4936809 0.4823954 -0.0684932
0.5404376 0.4802685 -0.0684932
0.5855908 0.4777913 -0.0684932
0.6338364 0.4746288 -0.0684932
0.6871405 0.4704410 -0.0684932
0.7460909 0.4648549 -0.0684932
0.8059127 0.4544776 -0.0684932
0.8526607 0.4326279 -0.0684932
0.8893969 0.4025111 -0.0684932
0.9188996 0.3659964 -0.0684932
0.9430043 0.3232259 -0.0684932
0.9617265 0.2757586 -0.0684932
0.9733529 0.2335944 -0.0684932
0.9810660 0.1929944 -0.0684932
0.9865506 0.1453536 -0.0684932
0.9906476 0.0008410 -0.0684932
0.9938230 -0.0397259 -0.0684932
0.9963557 -0.0606539 -0.0684932
0.9984225 -0.0684932 -0.0684932
-0.0684932 0.5272728 -0.0684932
-0.0684932 0.5271639 -0.0684932
-0.0684932 0.5271269 -0.0684932
-0.0684932 0.5270900 -0.0684932
-0.0684932 0.5269771 -0.0684932
-0.0684932 0.5267833 -0.0684932
-0.0684932 0.5265004 -0.0684932
-0.0684932 0.5261172 -0.0684932
-0.0684932 0.5256200 -0.0684932
-0.0684932 0.5249928 -0.0684932
0.1825502 0.5242174 -0.0684932
0.2959406 0.5232743 -0.0684932
0.3677285 0.5221425 -0.0684932
0.4271022 0.5208001 -0.0684932
0.4802217 0.5192240 -0.0684932
0.5295692 0.5173907 -0.0684932
0.5766815 0.5152625 -0.0684932
0.6265931 0.5125541 -0.0684932
0.6813578 0.5089796 -0.0684932
0.7415779 0.5042300 -0.0684932
0.8032451 0.4951392 -0.0684932
0.8513034 0.4737350 -0.0684932
0.8887272 0.4437556 -0.0684932
0.9185914 0.4077894 -0.0684932
0.9428832 0.3667964 -0.0684932
0.9616943 0.3235748 -0.0684932
0.9733552 0.2883509 -0.0684932
0.9810837 0.2588928 -0.0684932
0.9865760 0.2329230 -0.0684932
0.9906772 0.2088403 -0.0684932
0.9938552 0.1852210 -0.0684932
0.9963894 0.1602114 -0.0684932
0.9984570 0.1294727 -0.0684932
-0.0684932 0.5632198 -0.0684932
-0.0684932 0.5631183 -0.0684932
-0.0684932 0.5630840 -0.0684932
-0.0684932 0.5630497 -0.0684932
-0.0684932 0.5629451 -0.0684932
-0.0684932 0.5627662 -0.0684932
-0.0684932 0.5625065 -0.0684932
-0.0684932 0.5621570 -0.0684932
-0.0684932 0.5617065 -0.0684932
-0.0684932 0.5611418 -0.0684932
-0.0684932 0.5604483 -0.0684932
0.2463951 0.5596098 -0.0684932
0.3378274 0.5586088 -0.0684932
0.4054903 0.5574270 -0.0684932
0.4634860 0.5560452 -0.0684932
0.5161333 0.5544437 -0.0684932
0.5656703 0.5525903 -0.0684932
0.6176069 0.5502388 -0.0684932
0.6741262 0.5471448 -0.0684932
0.7358617 0.5430470 -0.0684932
0.7997276 0.5351579 -0.0684932
0.8494783 0.5139738 -0.0684932
0.8877928 0.4836145 -0.0684932
0.9181312 0.4473767 -0.0684932
0.9426746 0.4067814 -0.0684932
0.9616101 0.3652250 -0.0684932
0.9733218 0.3327328 -0.0684932
0.9810746 0.3069129 -0.0684932
0.9865799 0.2855554 -0.0684932
0.9906889 0.2673170 -0.0684932
0.9938718 0.2513319 -0.0684932
0.9964093 0.2370116 -0.0684932
0.9984792 0.2239350 -0.0684932
-0.0684932 0.6028636 -0.0684932
-0.0684932 0.6027693 -0.0684932
-0.0684932 0.6027375 -0.0684932
-0.0684932 0.6027056 -0.0684932
-0.0684932 0.6026089 -0.0684932
-0.0684932 0.6024440 -0.0684932
-0.0684932 0.6022057 -0.0684932
-0.0684932 0.6018869 -0.0684932
-0.0684932 0.6014784 -0.0684932
-0.0684932 0.6009698 -0.0684932
-0.0684932 0.6003489 -0.0684932
0.1033540 0.5996026 -0.0684932
0.2917892 0.5987165 -0.0684932
0.3748414 0.5976754 -0.0684932
0.4404768 0.5964635 -0.0684932
0.4979087 0.5950640 -0.0684932
0.5508127 0.5934501 -0.0684932
0.6054860 0.5914087 -0.0684932
0.6643332 0.5887314 -0.0684932
0.7280557 0.5851969 -0.0684932
0.7947159 0.5786092 -0.0684932
0.8468542 0.5576081 -0.0684932
0.8864189 0.5264382 -0.0684932
0.9174263 0.4892809 -0.0684932
0.9423299 0.4481909 -0.0684932
0.9614480 0.4070143 -0.0684932
0.9732371 0.3756754 -0.0684932
0.9810279 0.3514858 -0.0684932
0.9865546 0.3320895 -0.0684932
0.9906768 0.3160708 -0.0684932
0.9938683 0.3025314 -0.0684932
0.9964117 0.2908727 -0.0684932
0.9984860 0.2806799 -0.0684932
-0.0684932 0.6478274 -0.0684932
-0.0684932 0.6477401 -0.0684932
-0.0684932 0.6477106 -0.0684932
-0.0684932 0.6476813 -0.0684932
-0.0684932 0.6475921 -0.0684932
-0.0684932 0.6474406 -0.0684932
-0.0684932 0.6472226 -0.0684932
-0.0684932 0.6469324 -0.0684932
-0.0684932 0.6465629 -0.0684932
-0.0684932 0.6461055 -0.0684932
-0.0684932 0.6455507 -0.0684932
-0.0684932 0.6448877 -0.0684932
0.1977392 0.6441049 -0.0684932
0.3268415 0.6431899 -0.0684932
0.4067702 0.6421295 -0.0684932
0.4719470 0.6409102 -0.0684932
0.5299216 0.6395092 -0.0684932
0.5885401 0.6377433 -0.0684932
0.6506464 0.6354352 -0.0684932
0.7170967 0.6323987 -0.0684932
0.7873121 0.6272669 -0.0684932
0.8429784 0.6066582 -0.0684932
0.8843642 0.5742484 -0.0684932
0.9163435 0.5354917 -0.0684932
0.9417742 0.4930676 -0.0684932
0.9611642 0.4512687 -0.0684932
0.9730711 0.4200850 -0.0684932
0.9809213 0.3964850 -0.0684932
0.9864822 0.3779218 -0.0684932
0.9906258 0.3628780 -0.0684932
0.9938318 0.3503971 -0.0684932
0.9963854 0.3398458 -0.0684932
0.9984671 0.3307879 -0.0684932
-0.0684932 0.6986456 -0.0684932
-0.0684932 0.6985651 -0.0684932
-0.0684932 0.6985379 -0.0684932
-0.0684932 0.6985109 -0.0684932
-0.0684932 0.6984290 -0.0684932
-0.0684932 0.6982901 -0.0684932
-0.0684932 0.6980911 -0.0684932
-0.0684932 0.6978276 -0.0684932
-0.0684932 0.6974938 -0.0684932
-0.0684932 0.6970830 -0.0684932
-0.0684932 0.6965877 -0.0684932
-0.0684932 0.6959992 -0.0684932
-0.0684932 0.6953083 -0.0684932
0.2344158 0.6945049 -0.0684932
0.3538012 0.6935783 -0.0684932
0.4336017 0.6925176 -0.0684932
0.4999146 0.6913036 -0.0684932
0.5645532 0.6897793 -0.0684932
0.6313982 0.6877943 -0.0684932
0.7016888 0.6851927 -0.0684932
0.7761983 0.6815003 -0.0684932
0.8372258 0.6620214 -0.0684932
0.8813061 0.6279888 -0.0684932
0.9147064 0.5868870 -0.0684932
0.9409073 0.5422433 -0.0684932
0.9606982 0.4988790 -0.0684932
0.9727814 0.4670392 -0.0684932
0.9807222 0.4432937 -0.0684932
0.9863359 0.4248652 -0.0684932
0.9905132 0.4101146 -0.0684932
0.9937420 0.3980174 -0.0684932
0.9963121 0.3879007 -0.0684932
0.9984060 0.3793038 -0.0684932
-0.0684932 0.7559015 -0.0684932
-0.0684932 0.7558275 -0.0684932
-0.0684932 0.7558026 -0.0684932
-0.0684932 0.7557778 -0.0684932
-0.0684932 0.7557027 -0.0684932
-0.0684932 0.7555758 -0.0684932
-0.0684932 0.7553945 -0.0684932
-0.0684932 0.7551555 -0.0684932
-0.0684932 0.7548543 -0.0684932
-0.0684932 0.7544856 -0.0684932
-0.0684932 0.7540435 -0.0684932
-0.0684932 0.7535213 -0.0684932
-0.0684932 0.7529114 -0.0684932
-0.0684932 0.7522059 -0.0684932
0.2513482 0.7513964 -0.0684932
0.3724831 0.7504739 -0.0684932
0.4550511 0.7494225 -0.0684932
0.5298179 0.7481076 -0.0684932
0.6039892 0.7464024 -0.0684932
0.6799063 0.7441766 -0.0684932
0.7591991 0.7412524 -0.0684932
0.8285760 0.7247443 -0.0684932
0.8767469 0.6888727 -0.0684932
0.9122525 0.6445851 -0.0684932
0.9395832 0.5967206 -0.0684932
0.9599628 0.5508043 -0.0684932
0.9723072 0.5175473 -0.0684932
0.9803834 0.4930382 -0.0684932
0.9860770 0.4742120 -0.0684932
0.9903057 0.4592796 -0.0684932
0.9935699 0.4471325 -0.0684932
0.9961654 0.4370483 -0.0684932
0.9982785 0.4285360 -0.0684932
-0.0684932 0.8126184 -0.0684932
-0.0684932 0.8125684 -0.0684932
-0.0684932 0.8125516 -0.0684932
-0.0684932 0.8125349 -0.0684932
-0.0684932 0.8124842 -0.0684932
-0.0684932 0.8123988 -0.0684932
-0.0684932 0.8122771 -0.0684932
-0.0684932 0.8121171 -0.0684932
-0.0684932 0.8119160 -0.0684932
-0.0684932 0.8116708 -0.0684932
-0.0684932 0.8113777 -0.0684932
-0.0684932 0.8110325 -0.0684932
-0.0684932 0.8106305 -0.0684932
-0.0684932 0.8101664 -0.0684932
-0.0684932 0.8096346 -0.0684932
0.2461701 0.8090289 -0.0684932
0.3790706 0.8083385 -0.0684932
0.4739504 0.8074740 -0.0684932
0.5602803 0.8063499 -0.0684932
0.6446983 0.8048757 -0.0684932
0.7304843 0.8029244 -0.0684932
0.8152355 0.7958768 -0.0684932
0.8698794 0.7584780 -0.0684932
0.9085790 0.7100597 -0.0684932
0.9375857 0.6577716 -0.0684932
0.9588313 0.6081739 -0.0684932
0.9715604 0.5726954 -0.0684932
0.9798372 0.5468199 -0.0684932
0.9856498 0.5271151 -0.0684932
0.9899556 0.5115999 -0.0684932
