3D_Type_III_Cube_LUTS_for_Software/HLG-to-from-SDR - Type III For Most Hardware/For DaVinci Resolve 17 - Video Level Tag Added - Type III/3-NBCU_HLG2SDR_DL_VRT.cube
TITLE "HLG-BT.2100 to SDR-BT.709 Display-Light Conversion 3D Look-Up-Table"
#
# PLEASE DO NOT ALTER THE LINES BELOW
# 
# © 2020 NBCUniversal, LLC - Please do not remove this line
#
# Built using tools from and in collaboration with Cromorama and Nick Shaw - the creators of ORION-CONVERT
#
# MaxRGB 2-stage highlight compression knee
#
# Parameters designed by Chris Seeger, NBCU Advanced Technology (chris.seeger@nbcuni.com)
# In collaboration with Michael Drazin, NBCU Sports Group (michael.drazin@nbcuni.com)
#
# 75% HLG maps to 95% SDR (before highlight compression)
# Highlight compression from 95% to 109% SDR
# Stage 1 Pre-rolled-off HDR highlights
# Stage 2 Post-Rolled off converted SDR highlights
#
# Sophisticated Highlight Knee REQUIRES the use of devices using Tetrehedral Interpolation
#
# Display-Light Conversion (absolute chromaticity is preserved from input to output)
# Display-Light Conversion preserves original artistic intent
#
# No Matrix Compensation (so make sure your device is using the correct matrix)
#
# Type III LUT - Full Range Processing for Narrow Range Signals
# RESOLVE 17 VIDEO RANGE TAGS
LUT_IN_VIDEO_RANGE
LUT_OUT_VIDEO_RANGE
LUT_3D_SIZE 9
-0.0076089 -0.0076089 -0.0076089
0.1561263 -0.0097884 -0.0043807
0.2918434 -0.0397153 -0.0157362
0.4485206 -0.0684932 -0.0328687
0.6041378 -0.0684932 -0.0504654
0.8073511 -0.0684932 -0.0684932
0.9419178 -0.0684932 -0.0684932
0.9858809 -0.0684932 -0.0684932
0.9978887 -0.0684932 -0.0684932
-0.0263473 0.1334407 -0.0068789
0.1359080 0.1323404 -0.0132824
0.2959942 0.0772305 -0.0253663
0.4507098 -0.0471111 -0.0398648
0.6056637 -0.0684932 -0.0563252
0.8081829 -0.0684932 -0.0684932
0.9420780 -0.0684932 -0.0684932
0.9859442 -0.0684932 -0.0684932
0.9979344 -0.0684932 -0.0684932
-0.0684932 0.2771487 -0.0459029
-0.0684932 0.2765225 -0.0475116
0.2784984 0.2724120 -0.0534522
0.4492082 0.2583329 -0.0638328
0.6074076 0.2236563 -0.0684932
0.8101129 -0.0473381 -0.0684932
0.9425803 -0.0684932 -0.0684932
0.9861623 -0.0684932 -0.0684932
0.9980955 -0.0684932 -0.0684932
-0.0684932 0.4200653 -0.0684932
-0.0684932 0.4196824 -0.0684932
0.1185260 0.4177759 -0.0684932
0.4219170 0.4124039 -0.0684932
0.5981720 0.4011119 -0.0684932
0.8091989 0.3683050 -0.0684932
0.9430342 0.2050187 -0.0684932
0.9864507 -0.0684932 -0.0684932
0.9983262 -0.0684932 -0.0684932
-0.0684932 0.5632198 -0.0684932
-0.0684932 0.5629451 -0.0684932
-0.0684932 0.5617065 -0.0684932
0.3378274 0.5586088 -0.0684932
0.5656703 0.5525903 -0.0684932
0.7997276 0.5351579 -0.0684932
0.9426746 0.4067814 -0.0684932
0.9865799 0.2855554 -0.0684932
0.9984792 0.2239350 -0.0684932
-0.0684932 0.7559015 -0.0684932
-0.0684932 0.7557027 -0.0684932
-0.0684932 0.7548543 -0.0684932
-0.0684932 0.7529114 -0.0684932
0.4550511 0.7494225 -0.0684932
0.7591991 0.7412524 -0.0684932
0.9395832 0.5967206 -0.0684932
0.9860770 0.4742120 -0.0684932
0.9982785 0.4285360 -0.0684932
-0.0684932 0.9217918 -0.0684932
-0.0684932 0.9217540 -0.0684932
-0.0684932 0.9215977 -0.0684932
-0.0684932 0.9212608 -0.0684932
-0.0684932 0.9206957 -0.0684932
0.4968009 0.9194547 -0.0684932
0.9230658 0.9010129 -0.0684932
0.9823540 0.7205193 -0.0684932
0.9961337 0.6611568 -0.0684932
-0.0684932 0.9732243 -0.0684932
-0.0684932 0.9732098 -0.0684932
-0.0684932 0.9731503 -0.0684932
-0.0684932 0.9730255 -0.0684932
-0.0684932 0.9728238 -0.0684932
-0.0684932 0.9724014 -0.0684932
0.6965013 0.9712409 -0.0684932
0.9740095 0.9506937 -0.0684932
0.9912244 0.8662700 -0.0684932
-0.0684932 0.9870384 -0.0684932
-0.0684932 0.9870280 -0.0684932
-0.0684932 0.9869855 -0.0684932
-0.0684932 0.9868971 -0.0684932
-0.0684932 0.9867557 -0.0684932
-0.0684932 0.9864639 -0.0684932
0.5896309 0.9856793 -0.0684932
0.8951451 0.9845521 -0.0684932
0.9877078 0.9640531 -0.0684932
-0.0109174 -0.0073559 0.1383328
0.1514843 -0.0084748 0.1319705
0.2922940 -0.0406357 0.1376120
0.4486120 -0.0684932 0.1352491
0.6041756 -0.0684932 0.1168115
0.8073649 -0.0684932 -0.0047731
0.9419197 -0.0684932 -0.0498480
0.9858816 -0.0684932 -0.0646830
0.9978892 -0.0684932 -0.0684932
-0.0310055 0.1347667 0.1293518
0.1325940 0.1325940 0.1325940
0.2957658 0.0684959 0.1346499
0.4506635 -0.0476472 0.1276612
0.6056517 -0.0684932 0.0993558
0.8081824 -0.0684932 -0.0154862
0.9420786 -0.0684932 -0.0539777
0.9859445 -0.0684932 -0.0671521
0.9979346 -0.0684932 -0.0684932
-0.0684932 0.2773676 0.1066234
-0.0684932 0.2767072 0.1038744
0.2773949 0.2724962 0.0863459
0.4488619 0.2582932 0.0146118
0.6072569 0.2234658 -0.0136517
0.8100667 -0.0478788 -0.0467636
0.9425762 -0.0684932 -0.0684932
0.9861614 -0.0684932 -0.0684932
0.9980950 -0.0684932 -0.0684932
-0.0684932 0.4201897 -0.0387893
-0.0684932 0.4197995 -0.0401570
0.1061441 0.4178668 -0.0454505
0.4212550 0.4124544 -0.0553245
0.5978622 0.4011180 -0.0684932
0.8090898 0.3682633 -0.0684932
0.9430225 0.2047918 -0.0684932
0.9864477 -0.0684932 -0.0684932
0.9983244 -0.0684932 -0.0684932
-0.0684932 0.5633073 -0.0684932
-0.0684932 0.5630299 -0.0684932
-0.0684932 0.5617812 -0.0684932
0.3365813 0.5586661 -0.0684932
0.5651977 0.5526264 -0.0684932
0.7995446 0.5351908 -0.0684932
0.9426544 0.4067671 -0.0684932
0.9865745 0.2854863 -0.0684932
0.9984758 0.2238226 -0.0684932
-0.0684932 0.7559642 -0.0684932
-0.0684932 0.7557644 -0.0684932
-0.0684932 0.7549120 -0.0684932
-0.0684932 0.7529620 -0.0684932
0.4541913 0.7494635 -0.0684932
0.7588579 0.7412785 -0.0684932
0.9395504 0.5967754 -0.0684932
0.9860678 0.4742188 -0.0684932
0.9982727 0.4285302 -0.0684932
-0.0684932 0.9218037 -0.0684932
-0.0684932 0.9217658 -0.0684932
-0.0684932 0.9216091 -0.0684932
-0.0684932 0.9212715 -0.0684932
-0.0684932 0.9207055 -0.0684932
0.4961779 0.9194630 -0.0684932
0.9230019 0.9011633 -0.0684932
0.9823382 0.7205809 -0.0684932
0.9961238 0.6611981 -0.0684932
-0.0684932 0.9732289 -0.0684932
-0.0684932 0.9732143 -0.0684932
-0.0684932 0.9731548 -0.0684932
-0.0684932 0.9730298 -0.0684932
-0.0684932 0.9728279 -0.0684932
-0.0684932 0.9724050 -0.0684932
0.6962419 0.9712438 -0.0684932
0.9739848 0.9508098 -0.0684932
0.9912097 0.8663505 -0.0684932
-0.0684932 0.9870417 -0.0684932
-0.0684932 0.9870312 -0.0684932
-0.0684932 0.9869887 -0.0684932
-0.0684932 0.9869002 -0.0684932
-0.0684932 0.9867587 -0.0684932
-0.0684932 0.9864666 -0.0684932
0.5893350 0.9856815 -0.0684932
0.8949945 0.9845538 -0.0684932
0.9876902 0.9641552 -0.0684932
-0.0192083 -0.0047706 0.2336806
0.1336562 -0.0035159 0.2164110
0.2932247 -0.0440092 0.2580831
0.4488350 -0.0684932 0.2735901
0.6042781 -0.0684932 0.2817470
0.8074066 -0.0684932 0.2836035
0.9419262 -0.0684932 0.2359980
0.9858839 -0.0684932 0.1891805
0.9978908 -0.0684932 0.1684364
-0.0462705 0.1373365 0.2445522
0.1127734 0.1328428 0.2510849
0.2944883 0.0376629 0.2643010
0.4503755 -0.0497602 0.2751251
0.6055628 -0.0684932 0.2815924
0.8081681 -0.0684932 0.2823118
0.9420798 -0.0684932 0.2340666
0.9859455 -0.0684932 0.1868848
0.9979355 -0.0684932 0.1658204
-0.0684932 0.2781725 0.2685413
-0.0684932 0.2773857 0.2695644
0.2727970 0.2727970 0.2727970
0.4474269 0.2581163 0.2766743
0.6066289 0.2226900 0.2790768
0.8098731 -0.0500116 0.2763310
0.9425586 -0.0684932 0.2258227
0.9861576 -0.0684932 0.1769166
0.9980930 -0.0684932 0.1541578
-0.0684932 0.4206721 0.2690646
-0.0684932 0.4202532 0.2691682
0.0008075 0.4182192 0.2694199
0.4185685 0.4126483 0.2692747
0.5966081 0.4011372 0.2678308
0.8086467 0.3680941 0.2606705
0.9429751 0.2038771 0.2061885
0.9864356 -0.0684932 0.1511815
0.9983171 -0.0684932 0.1193088
-0.0684932 0.5636516 0.2485041
-0.0684932 0.5633637 0.2481973
-0.0684932 0.5620754 0.2469009
0.3315003 0.5588916 0.2439883
0.5632936 0.5527676 0.2388588
0.7988059 0.5353200 0.2260918
0.9425729 0.4067096 0.1619205
0.9865523 0.2852092 0.0066743
0.9984621 0.2233716 -0.0187477
-0.0684932 0.7562128 0.1438822
-0.0684932 0.7560090 0.1419224
-0.0684932 0.7551412 0.1332242
-0.0684932 0.7531625 0.1078861
0.4507210 0.7496260 0.0027421
0.7574881 0.7413814 -0.0436115
0.9394185 0.5969951 -0.0684932
0.9860311 0.4742459 -0.0684932
0.9982495 0.4285069 -0.0684932
-0.0684932 0.9218509 -0.0684932
-0.0684932 0.9218126 -0.0684932
-0.0684932 0.9216546 -0.0684932
-0.0684932 0.9213144 -0.0684932
-0.0684932 0.9207448 -0.0684932
0.4936728 0.9194960 -0.0684932
0.9227455 0.9017657 -0.0684932
0.9822750 0.7208272 -0.0684932
0.9960840 0.6613634 -0.0684932
-0.0684932 0.9732471 -0.0684932
-0.0684932 0.9732324 -0.0684932
-0.0684932 0.9731725 -0.0684932
-0.0684932 0.9730470 -0.0684932
-0.0684932 0.9728441 -0.0684932
-0.0684932 0.9724196 -0.0684932
0.6952028 0.9712551 -0.0684932
0.9738861 0.9512743 -0.0684932
0.9911508 0.8666725 -0.0684932
-0.0684932 0.9870547 -0.0684932
-0.0684932 0.9870442 -0.0684932
-0.0684932 0.9870015 -0.0684932
-0.0684932 0.9869126 -0.0684932
-0.0684932 0.9867705 -0.0684932
-0.0684932 0.9864774 -0.0684932
0.5881497 0.9856903 -0.0684932
0.8943918 0.9845605 -0.0684932
0.9876195 0.9645636 -0.0684932
-0.0411365 -0.0097519 0.3297755
0.1119210 -0.0201336 0.3452049
0.2922296 -0.0497990 0.3713990
0.4486797 -0.0684932 0.3924838
0.6042646 -0.0684932 0.4076506
0.8074271 -0.0684932 0.4186250
0.9419333 -0.0684932 0.3624428
0.9858871 -0.0684932 0.3109418
0.9978933 -0.0684932 0.2914802
-0.0684932 0.1379226 0.3583910
-0.0043677 0.1312409 0.3643208
0.2904791 0.0220614 0.3797549
0.4493503 -0.0538548 0.3961433
0.6051983 -0.0684932 0.4093035
0.8080821 -0.0684932 0.4189310
0.9420767 -0.0684932 0.3619162
0.9859462 -0.0684932 0.3102558
0.9979364 -0.0684932 0.2907644
-0.0684932 0.2794918 0.3896226
-0.0684932 0.2784918 0.3913343
0.2626514 0.2732435 0.3971500
0.4443220 0.2576787 0.4055696
0.6052553 0.2210705 0.4138545
0.8094421 -0.0541498 0.4195515
0.9425187 -0.0684932 0.3597059
0.9861488 -0.0684932 0.3074425
0.9980880 -0.0684932 0.2878358
-0.0684932 0.4215697 0.4064722
-0.0684932 0.4210973 0.4070856
-0.0464074 0.4188723 0.4093294
0.4129999 0.4129999 0.4129999
0.5940239 0.4011514 0.4170302
0.8077269 0.3677420 0.4186665
0.9428763 0.2020115 0.3547996
0.9864105 -0.0684932 0.3014613
0.9983019 -0.0684932 0.2816387
-0.0684932 0.5643155 0.4105548
-0.0684932 0.5640071 0.4107651
-0.0684932 0.5626422 0.4115398
0.3208223 0.5593249 0.4128053
0.5594147 0.5530365 0.4141132
0.7972938 0.5355662 0.4135660
0.9424067 0.4065930 0.3462230
0.9865072 0.2846514 0.2914989
0.9984341 0.2224612 0.2713741
-0.0684932 0.7567007 0.3974838
-0.0684932 0.7564890 0.3974347
-0.0684932 0.7555908 0.3972155
-0.0684932 0.7535558 0.3966719
0.4436141 0.7499443 0.3956130
0.7547216 0.7415822 0.3929426
0.9391518 0.5974356 0.3257850
0.9859570 0.4743000 0.2688944
0.9982026 0.4284601 0.2481797
-0.0684932 0.9219444 0.2808844
-0.0684932 0.9219055 0.2805770
-0.0684932 0.9217447 0.2793346
-0.0684932 0.9213994 0.2767825
-0.0684932 0.9208224 0.2727723
0.4885926 0.9195613 0.2646368
0.9222278 0.9029754 0.2396987
0.9821478 0.7213212 0.1735130
0.9960041 0.6616946 0.1436118
-0.0684932 0.9732832 -0.0684932
-0.0684932 0.9732684 -0.0684932
-0.0684932 0.9732079 -0.0684932
-0.0684932 0.9730810 -0.0684932
-0.0684932 0.9728763 -0.0684932
-0.0684932 0.9724486 -0.0684932
0.6931155 0.9712776 -0.0684932
0.9736876 0.9522067 -0.0684932
0.9910324 0.8673185 -0.0684932
-0.0684932 0.9870806 -0.0684932
-0.0684932 0.9870700 -0.0684932
-0.0684932 0.9870269 -0.0684932
-0.0684932 0.9869373 -0.0684932
-0.0684932 0.9867940 -0.0684932
-0.0684932 0.9864989 -0.0684932
0.5857657 0.9857078 -0.0684932
0.8931836 0.9845739 -0.0684932
0.9874775 0.9653828 -0.0684932
-0.0684932 -0.0232575 0.4563042
-0.0225038 -0.0310682 0.4640466
0.2863380 -0.0571782 0.4845771
0.4472198 -0.0684932 0.5070779
0.6037544 -0.0684932 0.5260312
0.8073094 -0.0684932 0.5420619
0.9419297 -0.0684932 0.4717912
0.9858885 -0.0684932 0.4082708
0.9978948 -0.0684932 0.3848360
-0.0684932 0.1348263 0.4732788
-0.0523471 0.1258233 0.4782221
0.2815643 0.0071065 0.4931171
0.4468502 -0.0597181 0.5117298
0.6042263 -0.0684932 0.5286384
0.8078164 -0.0684932 0.5431721
0.9420583 -0.0684932 0.4718054
0.9859438 -0.0684932 0.4080277
0.9979356 -0.0684932 0.3845422
-0.0684932 0.2809008 0.5050454
-0.0684932 0.2796491 0.5070780
0.2446402 0.2735847 0.5142031
0.4390996 0.2568307 0.5251538
0.6029135 0.2184688 0.5368438
0.8086889 -0.0600838 0.5469782
0.9424470 -0.0684932 0.4718000
0.9861324 -0.0684932 0.4070280
0.9980786 -0.0684932 0.3833446
-0.0684932 0.4227647 0.5298843
-0.0684932 0.4222198 0.5307809
-0.0684932 0.4197342 0.5341269
0.4041265 0.4134427 0.5398736
0.5899550 0.4011147 0.5467690
0.8062611 0.3671795 0.5524253
0.9427187 0.1991137 0.4715361
0.9863700 -0.0684932 0.4049005
0.9982774 -0.0684932 0.3808384
-0.0684932 0.5652532 0.5444785
-0.0684932 0.5649158 0.5449164
-0.0684932 0.5634418 0.5465885
0.3032664 0.5599333 0.5495948
0.5534077 0.5534077 0.5534077
0.7949335 0.5359042 0.5569977
0.9421492 0.4064140 0.4706373
0.9864373 0.2838043 0.4013942
0.9983906 0.2210726 0.3767946
-0.0684932 0.7574105 0.5501433
-0.0684932 0.7571873 0.5503011
-0.0684932 0.7562447 0.5509063
-0.0684932 0.7541276 0.5520019
0.4324923 0.7504061 0.5533876
0.7504984 0.7418712 0.5552701
0.9387439 0.5981006 0.4676894
0.9858438 0.4743813 0.3938263
0.9981310 0.4283891 0.3682836
-0.0684932 0.9220826 0.4617175
-0.0684932 0.9220426 0.4617142
-0.0684932 0.9218779 0.4616991
-0.0684932 0.9215249 0.4616595
-0.0684932 0.9209372 0.4615775
0.4807781 0.9196577 0.4613542
0.9214379 0.9048044 0.4553436
0.9819548 0.7220668 0.3710699
0.9958830 0.6621943 0.3435543
-0.0684932 0.9733370 0.3541237
-0.0684932 0.9733219 0.3540133
-0.0684932 0.9732604 0.3535697
-0.0684932 0.9731316 0.3526707
-0.0684932 0.9729242 0.3512907
-0.0684932 0.9724916 0.3486091
0.6899565 0.9713110 0.3420416
0.9733865 0.9536151 0.3285853
0.9908532 0.8682933 0.2990295
-0.0684932 0.9871192 0.3047518
-0.0684932 0.9871084 0.3045935
-0.0684932 0.9870648 0.3039569
-0.0684932 0.9869740 0.3026671
-0.0684932 0.9868290 0.3006864
-0.0684932 0.9865310 0.2968333
0.5821509 0.9857338 0.2873497
0.8913614 0.9845938 0.2746279
0.9872624 0.9666196 0.2634862
-0.0684932 -0.0390959 0.6171219
-0.0684932 -0.0457152 0.6220269
0.2659683 -0.0684932 0.6378486
0.4414978 -0.0684932 0.6594752
0.6014655 -0.0684932 0.6806333
0.8066523 -0.0684932 0.7005093
0.9418794 -0.0684932 0.6088127
0.9858799 -0.0684932 0.5274457
0.9978908 -0.0684932 0.4978283
-0.0684932 0.1219898 0.6286598
-0.0684932 0.1062665 0.6325579
0.2567444 -0.0128584 0.6456513
0.4396764 -0.0684932 0.6645811
0.6012273 -0.0684932 0.6839317
0.8069130 -0.0684932 0.7023110
0.9419819 -0.0684932 0.6092664
0.9859285 -0.0684932 0.5275195
0.9979275 -0.0684932 0.4978200
-0.0684932 0.2822340 0.6579872
-0.0684932 0.2806392 0.6601382
0.1966976 0.2733925 0.6679137
0.4276305 0.2547075 0.6805497
0.5977074 0.2130494 0.6949405
0.8069533 -0.0684932 0.7088557
0.9422763 -0.0684932 0.6110342
0.9860919 -0.0684932 0.5278009
0.9980549 -0.0684932 0.4977771
-0.0684932 0.4245779 0.6880104
-0.0684932 0.4239174 0.6891354
-0.0684932 0.4210108 0.6933855
0.3857313 0.4140245 0.7008875
0.5817475 0.4008729 0.7102697
0.8032466 0.3660178 0.7196379
0.9423940 0.1933490 0.6144051
0.9862859 -0.0684932 0.5283079
0.9982262 -0.0684932 0.4976472
-0.0684932 0.5668319 0.7108456
-0.0684932 0.5664450 0.7114794
-0.0684932 0.5647837 0.7139235
0.2634585 0.5609442 0.7184250
0.5415627 0.5540028 0.7243750
0.7902179 0.5364282 0.7318027
0.9416426 0.4060668 0.6192288
0.9862993 0.2821886 0.5289585
0.9983047 0.2184027 0.4973560
-0.0684932 0.7586678 0.7301523
-0.0684932 0.7584242 0.7304684
-0.0684932 0.7574026 0.7317023
-0.0684932 0.7551384 0.7340341
0.4100265 0.7512195 0.7372294
0.7423725 0.7423725 0.7423725
0.9379567 0.5993561 0.6280585
0.9856261 0.4745334 0.5299255
0.9979934 0.4282540 0.4965524
-0.0684932 0.9223339 0.6411880
-0.0684932 0.9222921 0.6413292
-0.0684932 0.9221201 0.6418932
-0.0684932 0.9217533 0.6430204
-0.0684932 0.9211459 0.6447130
0.4655084 0.9198329 0.6478862
0.9199190 0.9082667 0.6497365
0.9815875 0.7234743 0.5314309
0.9956528 0.6631362 0.4937173
-0.0684932 0.9734359 0.5345280
-0.0684932 0.9734203 0.5345604
-0.0684932 0.9733570 0.5346897
-0.0684932 0.9732248 0.5349480
-0.0684932 0.9730122 0.5353352
-0.0684932 0.9725708 0.5360584
0.6839672 0.9713724 0.5376940
0.9728139 0.9562769 0.5326078
0.9905134 0.8701327 0.4886741
-0.0684932 0.9871904 0.4919659
-0.0684932 0.9871794 0.4919693
-0.0684932 0.9871346 0.4919829
-0.0684932 0.9870417 0.4920089
-0.0684932 0.9868936 0.4920454
-0.0684932 0.9865901 0.4921053
0.5752732 0.9857818 0.4922040
0.8879274 0.9846304 0.4922614
0.9868546 0.9689544 0.4852697
-0.0684932 -0.0615936 0.8447100
-0.0684932 -0.0666463 0.8465342
0.1545216 -0.0684932 0.8528891
0.4012907 -0.0684932 0.8625061
0.5599245 -0.0684932 0.8725613
0.7517516 -0.0684932 0.8846196
0.9415732 -0.0684932 0.8166673
0.9858105 -0.0684932 0.7051393
0.9978511 -0.0684932 0.6651171
-0.0684932 0.0069225 0.8491185
-0.0684932 -0.0062278 0.8506969
0.0917871 -0.0403451 0.8562741
0.3963869 -0.0684932 0.8649270
0.5575053 -0.0684932 0.8742103
0.7504628 -0.0684932 0.8856018
0.9416235 -0.0684932 0.8176053
0.9858451 -0.0684932 0.7055294
0.9978791 -0.0684932 0.6653813
-0.0684932 0.2711284 0.8619786
-0.0684932 0.2688861 0.8629832
-0.0684932 0.2593106 0.8666629
0.3739439 0.2367345 0.8727635
0.5466905 0.1886097 0.8798101
0.7447703 -0.0684932 0.8890964
0.9417268 -0.0684932 0.8213259
0.9859557 -0.0684932 0.7070842
0.9979735 -0.0684932 0.6664349
-0.0684932 0.4034594 0.8768485
-0.0684932 0.4023914 0.8774050
-0.0684932 0.3979785 0.8795093
0.3131698 0.3884825 0.8832272
0.5204306 0.3725470 0.8878734
0.7312478 0.3366818 0.8945511
0.9415238 0.1782460 0.8286821
0.9860572 -0.0684932 0.7101811
0.9980859 -0.0684932 0.6685336
-0.0684932 0.5281085 0.8889959
-0.0684932 0.5274242 0.8893131
-0.0684932 0.5246308 0.8905361
-0.0449784 0.5187769 0.8927871
0.4700741 0.5093479 0.8957610
0.7067035 0.4897302 0.9003415
0.9403798 0.4052234 0.8397133
0.9859548 0.2783855 0.7148391
0.9980897 0.2119965 0.6716852
-0.0684932 0.6908666 0.9006217
-0.0684932 0.6904135 0.9007858
-0.0684932 0.6885792 0.9014272
-0.0684932 0.6848038 0.9026440
0.3175114 0.6788770 0.9043243
0.6488783 0.6670070 0.9070738
0.9360610 0.6022468 0.8610073
0.9851061 0.4748772 0.7237346
0.9976646 0.4279382 0.6776667
-0.0684932 0.9228685 0.8878034
-0.0684932 0.9228228 0.8880859
-0.0684932 0.9226355 0.8892161
-0.0684932 0.9222389 0.8914814
-0.0684932 0.9215894 0.8948986
0.4272620 0.9202042 0.9013505
0.9162801 0.9162801 0.9162801
0.9807277 0.7267121 0.7457205
0.9951159 0.6652972 0.6921548
-0.0684932 0.9736512 0.7604340
-0.0684932 0.9736346 0.7605689
-0.0684932 0.9735674 0.7611089
-0.0684932 0.9734276 0.7621926
-0.0684932 0.9732040 0.7638303
-0.0684932 0.9727432 0.7669288
0.6700481 0.9715057 0.7741092
0.9714751 0.9624177 0.7770658
0.9897239 0.8743608 0.7120269
-0.0684932 0.9873464 0.7116588
-0.0684932 0.9873348 0.7117554
-0.0684932 0.9872876 0.7121421
-0.0684932 0.9871900 0.7129181
-0.0684932 0.9870352 0.7140903
-0.0684932 0.9867196 0.7163065
0.5591595 0.9858868 0.7214309
0.8800543 0.9847101 0.7276533
0.9859065 0.9743275 0.7238834
-0.0684932 -0.0662539 0.9285131
-0.0684932 -0.0684932 0.9291317
-0.0684932 -0.0684932 0.9314082
0.3218436 -0.0684932 0.9352192
0.4795682 -0.0684932 0.9396795
0.6534911 -0.0684932 0.9456603
0.9027431 -0.0684932 0.9539033
0.9856480 -0.0684932 0.8546568
0.9977541 -0.0684932 0.8051076
-0.0684932 -0.0234686 0.9300350
-0.0684932 -0.0297119 0.9306024
-0.0684932 -0.0503470 0.9327018
0.3154435 -0.0684932 0.9362540
0.4765585 -0.0684932 0.9404651
0.6518151 -0.0684932 0.9461878
0.9018513 -0.0684932 0.9541866
0.9856679 -0.0684932 0.8552581
0.9977728 -0.0684932 0.8055477
-0.0684932 0.2399282 0.9350217
-0.0684932 0.2376015 0.9354444
-0.0684932 0.2277486 0.9370342
0.2865353 0.2046320 0.9398126
0.4638516 0.1520891 0.9432408
0.6448429 -0.0684932 0.9481088
0.8981786 -0.0684932 0.9552513
0.9857229 -0.0684932 0.8576626
0.9978320 -0.0684932 0.8073082
-0.0684932 0.3592597 0.9418432
-0.0684932 0.3581678 0.9421172
-0.0684932 0.3537094 0.9431664
0.1975239 0.3443304 0.9450698
0.4351248 0.3289880 0.9475367
0.6297064 0.2952383 0.9512515
0.8903634 0.1494245 0.9571041
0.9857253 -0.0684932 0.8624870
0.9978810 -0.0684932 0.8108406
-0.0684932 0.4672340 0.9482908
-0.0684932 0.4665380 0.9484652
-0.0684932 0.4637205 0.9491414
-0.0684932 0.4579164 0.9504034
0.3818499 0.4487746 0.9521051
0.6042165 0.4302511 0.9548034
0.8775943 0.3803111 0.9593614
0.9854960 0.2736515 0.8698125
0.9978025 0.2037415 0.8161973
-0.0684932 0.6055827 0.9553026
-0.0684932 0.6051248 0.9554019
-0.0684932 0.6032805 0.9557915
-0.0684932 0.5995252 0.9565359
0.1901964 0.5937201 0.9575757
0.5471968 0.5823348 0.9593078
0.8508063 0.5540808 0.9624593
0.9844490 0.4752801 0.8839578
0.9972496 0.4275501 0.8264872
-0.0684932 0.8193242 0.9628146
-0.0684932 0.8190392 0.9628607
-0.0684932 0.8178951 0.9630431
-0.0684932 0.8155838 0.9633983
-0.0684932 0.8120549 0.9639089
0.3313446 0.8052702 0.9647975
0.7770141 0.7890994 0.9665362
0.9796686 0.7306019 0.9193010
0.9944581 0.6678823 0.8517381
-0.0684932 0.9738893 0.9368101
-0.0684932 0.9738717 0.9370081
-0.0684932 0.9738001 0.9378008
-0.0684932 0.9736518 0.9393923
-0.0684932 0.9734159 0.9417983
-0.0684932 0.9729335 0.9463540
0.6530463 0.9716523 0.9569230
0.9698265 0.9698265 0.9698265
0.9887615 0.8794337 0.8865284
-0.0684932 0.9875205 0.8802087
-0.0684932 0.9875082 0.8803592
-0.0684932 0.9874584 0.8809616
-0.0684932 0.9873556 0.8821708
-0.0684932 0.9871932 0.8839981
-0.0684932 0.9868640 0.8874550
0.5392013 0.9860035 0.8954551
0.8706452 0.9847982 0.9051761
0.9847496 0.9807855 0.9072278
-0.0684932 -0.0668852 0.9495025
-0.0684932 -0.0684932 0.9499312
-0.0684932 -0.0684932 0.9515310
0.2832621 -0.0684932 0.9542836
0.4453547 -0.0684932 0.9576155
0.6140968 -0.0684932 0.9622503
0.8511280 -0.0684932 0.9689088
0.9855345 -0.0684932 0.9188845
0.9976854 -0.0684932 0.8650338
-0.0684932 -0.0306916 0.9505619
-0.0684932 -0.0356980 0.9509609
-0.0684932 -0.0529354 0.9524556
0.2759641 -0.0684932 0.9550475
0.4422316 -0.0684932 0.9582155
0.6123698 -0.0684932 0.9626697
0.8501966 -0.0684932 0.9691454
0.9855475 -0.0684932 0.9195694
0.9976997 -0.0684932 0.8655424
-0.0684932 0.2262602 0.9541432
-0.0684932 0.2239306 0.9544539
-0.0684932 0.2140479 0.9556316
0.2419192 0.1906361 0.9577243
0.4291206 0.1334875 0.9603633
0.6052425 -0.0684932 0.9642094
0.8463868 -0.0684932 0.9700385
0.9855762 -0.0684932 0.9223112
0.9977422 -0.0684932 0.8675786
-0.0684932 0.3413142 0.9592946
-0.0684932 0.3402429 0.9595064
-0.0684932 0.3358761 0.9603210
0.0054617 0.3267199 0.9618124
0.3996375 0.3117962 0.9637706
0.5899723 0.2790329 0.9667697
0.8383832 0.1290732 0.9716077
0.9855314 -0.0684932 0.9278224
0.9977608 -0.0684932 0.8716706
-0.0684932 0.4435812 0.9644042
-0.0684932 0.4429003 0.9645444
-0.0684932 0.4401475 0.9650893
-0.0684932 0.4344940 0.9661114
0.3444781 0.4256255 0.9674999
0.5645648 0.4077445 0.9697251
0.8254968 0.3597986 0.9735469
0.9852405 0.2711177 0.9362114
0.9976424 0.1991706 0.8778890
-0.0684932 0.5736370 0.9702080
-0.0684932 0.5731897 0.9702908
-0.0684932 0.5713892 0.9706158
-0.0684932 0.5677308 0.9712385
-0.0180941 0.5620925 0.9721116
0.5081407 0.5510810 0.9735752
0.7988631 0.5239256 0.9762672
0.9840949 0.4754855 0.9524556
0.9970263 0.4273452 0.8898645
-0.0684932 0.7732195 0.9767603
-0.0684932 0.7729403 0.9768002
-0.0684932 0.7718198 0.9769583
-0.0684932 0.7695590 0.9772663
-0.0684932 0.7661136 0.9777103
0.2872730 0.7595080 0.9784857
0.7265978 0.7438422 0.9800149
0.9676183 0.7242228 0.9814967
0.9941113 0.6692204 0.9193300
-0.0684932 0.9452756 0.9803387
-0.0684932 0.9450732 0.9803618
-0.0684932 0.9442619 0.9804531
-0.0684932 0.9426292 0.9806324
-0.0684932 0.9401519 0.9808938
-0.0684932 0.9354362 0.9813589
0.6138208 0.9244092 0.9823071
0.9064655 0.9108745 0.9832640
0.9882558 0.8820658 0.9599685
-0.0684932 0.9876057 0.9499860
-0.0684932 0.9875930 0.9501569
-0.0684932 0.9875419 0.9508408
-0.0684932 0.9874365 0.9522136
-0.0684932 0.9872704 0.9542884
-0.0684932 0.9869346 0.9582138
0.5285426 0.9860604 0.9673001
0.8657791 0.9848409 0.9783421
0.9841410 0.9841410 0.9841410
