3D_Type_III_Cube_LUTS_for_Software/HLG-to-from-SDR - Type III For Most Hardware/For DaVinci Resolve 17 - Video Level Tag Added - Type III/3-NBCU_HLG2SDR_DL_VRT.cube
TITLE "HLG-BT.2100 to SDR-BT.709 Display-Light Conversion 3D Look-Up-Table"
#
# PLEASE DO NOT ALTER THE LINES BELOW
# 
# © 2020 NBCUniversal, LLC - Please do not remove this line
#
# Built using tools from and in collaboration with Cromorama and Nick Shaw - the creators of ORION-CONVERT
#
# MaxRGB 2-stage highlight compression knee
#
# Parameters designed by Chris Seeger, NBCU Advanced Technology (chris.seeger@nbcuni.com)
# In collaboration with Michael Drazin, NBCU Sports Group (michael.drazin@nbcuni.com)
#
# 75% HLG maps to 95% SDR (before highlight compression)
# Highlight compression from 95% to 109% SDR
# Stage 1 Pre-rolled-off HDR highlights
# Stage 2 Post-Rolled off converted SDR highlights
#
# Sophisticated Highlight Knee REQUIRES the use of devices using Tetrehedral Interpolation
#
# Display-Light Conversion (absolute chromaticity is preserved from input to output)
# Display-Light Conversion preserves original artistic intent
#
# No Matrix Compensation (so make sure your device is using the correct matrix)
#
# Type III LUT - Full Range Processing for Narrow Range Signals
# RESOLVE 17 VIDEO RANGE TAGS
LUT_IN_VIDEO_RANGE
LUT_OUT_VIDEO_RANGE
LUT_3D_SIZE 5
-0.0076089 -0.0076089 -0.0076089
0.2918434 -0.0397153 -0.0157362
0.6041378 -0.0684932 -0.0504654
0.9419178 -0.0684932 -0.0684932
0.9978887 -0.0684932 -0.0684932
-0.0684932 0.2771487 -0.0459029
0.2784984 0.2724120 -0.0534522
0.6074076 0.2236563 -0.0684932
0.9425803 -0.0684932 -0.0684932
0.9980955 -0.0684932 -0.0684932
-0.0684932 0.5632198 -0.0684932
-0.0684932 0.5617065 -0.0684932
0.5656703 0.5525903 -0.0684932
0.9426746 0.4067814 -0.0684932
0.9984792 0.2239350 -0.0684932
-0.0684932 0.9217918 -0.0684932
-0.0684932 0.9215977 -0.0684932
-0.0684932 0.9206957 -0.0684932
0.9230658 0.9010129 -0.0684932
0.9961337 0.6611568 -0.0684932
-0.0684932 0.9870384 -0.0684932
-0.0684932 0.9869855 -0.0684932
-0.0684932 0.9867557 -0.0684932
0.5896309 0.9856793 -0.0684932
0.9877078 0.9640531 -0.0684932
-0.0192083 -0.0047706 0.2336806
0.2932247 -0.0440092 0.2580831
0.6042781 -0.0684932 0.2817470
0.9419262 -0.0684932 0.2359980
0.9978908 -0.0684932 0.1684364
-0.0684932 0.2781725 0.2685413
0.2727970 0.2727970 0.2727970
0.6066289 0.2226900 0.2790768
0.9425586 -0.0684932 0.2258227
0.9980930 -0.0684932 0.1541578
-0.0684932 0.5636516 0.2485041
-0.0684932 0.5620754 0.2469009
0.5632936 0.5527676 0.2388588
0.9425729 0.4067096 0.1619205
0.9984621 0.2233716 -0.0187477
-0.0684932 0.9218509 -0.0684932
-0.0684932 0.9216546 -0.0684932
-0.0684932 0.9207448 -0.0684932
0.9227455 0.9017657 -0.0684932
0.9960840 0.6613634 -0.0684932
-0.0684932 0.9870547 -0.0684932
-0.0684932 0.9870015 -0.0684932
-0.0684932 0.9867705 -0.0684932
0.5881497 0.9856903 -0.0684932
0.9876195 0.9645636 -0.0684932
-0.0684932 -0.0232575 0.4563042
0.2863380 -0.0571782 0.4845771
0.6037544 -0.0684932 0.5260312
0.9419297 -0.0684932 0.4717912
0.9978948 -0.0684932 0.3848360
-0.0684932 0.2809008 0.5050454
0.2446402 0.2735847 0.5142031
0.6029135 0.2184688 0.5368438
0.9424470 -0.0684932 0.4718000
0.9980786 -0.0684932 0.3833446
-0.0684932 0.5652532 0.5444785
-0.0684932 0.5634418 0.5465885
0.5534077 0.5534077 0.5534077
0.9421492 0.4064140 0.4706373
0.9983906 0.2210726 0.3767946
-0.0684932 0.9220826 0.4617175
-0.0684932 0.9218779 0.4616991
-0.0684932 0.9209372 0.4615775
0.9214379 0.9048044 0.4553436
0.9958830 0.6621943 0.3435543
-0.0684932 0.9871192 0.3047518
-0.0684932 0.9870648 0.3039569
-0.0684932 0.9868290 0.3006864
0.5821509 0.9857338 0.2873497
0.9872624 0.9666196 0.2634862
-0.0684932 -0.0615936 0.8447100
0.1545216 -0.0684932 0.8528891
0.5599245 -0.0684932 0.8725613
0.9415732 -0.0684932 0.8166673
0.9978511 -0.0684932 0.6651171
-0.0684932 0.2711284 0.8619786
-0.0684932 0.2593106 0.8666629
0.5466905 0.1886097 0.8798101
0.9417268 -0.0684932 0.8213259
0.9979735 -0.0684932 0.6664349
-0.0684932 0.5281085 0.8889959
-0.0684932 0.5246308 0.8905361
0.4700741 0.5093479 0.8957610
0.9403798 0.4052234 0.8397133
0.9980897 0.2119965 0.6716852
-0.0684932 0.9228685 0.8878034
-0.0684932 0.9226355 0.8892161
-0.0684932 0.9215894 0.8948986
0.9162801 0.9162801 0.9162801
0.9951159 0.6652972 0.6921548
-0.0684932 0.9873464 0.7116588
-0.0684932 0.9872876 0.7121421
-0.0684932 0.9870352 0.7140903
0.5591595 0.9858868 0.7214309
0.9859065 0.9743275 0.7238834
-0.0684932 -0.0668852 0.9495025
-0.0684932 -0.0684932 0.9515310
0.4453547 -0.0684932 0.9576155
0.8511280 -0.0684932 0.9689088
0.9976854 -0.0684932 0.8650338
-0.0684932 0.2262602 0.9541432
-0.0684932 0.2140479 0.9556316
0.4291206 0.1334875 0.9603633
0.8463868 -0.0684932 0.9700385
0.9977422 -0.0684932 0.8675786
-0.0684932 0.4435812 0.9644042
-0.0684932 0.4401475 0.9650893
0.3444781 0.4256255 0.9674999
0.8254968 0.3597986 0.9735469
0.9976424 0.1991706 0.8778890
-0.0684932 0.7732195 0.9767603
-0.0684932 0.7718198 0.9769583
-0.0684932 0.7661136 0.9777103
0.7265978 0.7438422 0.9800149
0.9941113 0.6692204 0.9193300
-0.0684932 0.9876057 0.9499860
-0.0684932 0.9875419 0.9508408
-0.0684932 0.9872704 0.9542884
0.5285426 0.9860604 0.9673001
0.9841410 0.9841410 0.9841410
