LUTS_for_Software_DaVinci_Premiere_Avid_FinalCutPro/DaVinci-Resolve-with-Video-Range-Tag/5-NBCU_PQ2SDR_DL_RESOLVE17-VRT_v1.2.cube
TITLE "PQ-BT.2100 to SDR-BT.709 Display-Light Conversion 3D Look-Up-Table"
#
# PLEASE DO NOT ALTER THE LINES BELOW
# 
# Copyright 2023 NBCUniversal, LLC - Please do not remove this line
#
# Version 1.2 (fix for unicode character which was preventing loading in some devices)
#
# Built using tools from and in collaboration with Cromorama and Nick Shaw - the creators of ORION-CONVERT
#
# MaxRGB 2-stage highlight compression knee
#
# Parameters designed by Chris Seeger, NBCU Advanced Technology (chris.seeger@nbcuni.com)
# In collaboration with Michael Drazin, NBCU Sports Group (michael.drazin@nbcuni.com)
#
# 58% PQ maps to 94% SDR (before highlight compression)
# Highlight compression from 94% to 109% SDR
# Stage 1 Pre-rolled-off HDR highlights
# Stage 2 Post-Rolled off converted SDR highlights
#
# Sophisticated Highlight Knee REQUIRES the use of devices using Tetrehedral Interpolation
#
# No Matrix Compensation (so make sure your device is using the correct matrix)
# Type III LUT - Full Range Processing for Narrow Range Signals
#
# Unscaled code values in and out
# RESOLVE 17 VIDEO RANGE TAGS
LUT_IN_VIDEO_RANGE
LUT_OUT_VIDEO_RANGE
LUT_3D_SIZE 33
0.0204129 0.0204129 0.0204129
0.0887675 0.0187222 0.0201606
0.0980198 0.0183002 0.0200958
0.1046822 0.0178871 0.0200316
0.1223367 0.0163291 0.0197834
0.1472305 0.0130019 0.0192206
0.1775688 0.0073760 0.0181696
0.2130227 0.0039101 0.0164192
0.2538238 0.0039101 0.0137374
0.3004546 0.0039101 0.0098965
0.3535550 0.0039101 0.0046975
0.4138980 0.0039101 0.0039101
0.4823901 0.0039101 0.0039101
0.5600842 0.0039101 0.0039101
0.6481993 0.0039101 0.0039101
0.7481472 0.0039101 0.0039101
0.8400845 0.0039101 0.0039101
0.8992004 0.0039101 0.0039101
0.9398412 0.0039101 0.0039101
0.9664340 0.0039101 0.0039101
0.9797622 0.0039101 0.0039101
0.9875721 0.0039101 0.0039101
0.9927194 0.0039101 0.0039101
0.9960899 0.0039101 0.0039101
0.9960899 0.0039101 0.0039101
0.9960899 0.0039101 0.0039101
0.9960899 0.0039101 0.0039101
0.9960899 0.0039101 0.0039101
0.9960899 0.0039101 0.0039101
0.9960899 0.0039101 0.0039101
0.9960899 0.0039101 0.0039101
0.9960899 0.0039101 0.0039101
0.9960899 0.0039101 0.0039101
0.0131154 0.0464383 0.0190405
0.0435825 0.0410687 0.0187992
0.0838192 0.0399566 0.0187372
0.0949489 0.0389248 0.0186758
0.1169754 0.0354066 0.0184382
0.1440590 0.0290983 0.0178989
0.1755318 0.0202543 0.0168900
0.2116327 0.0091568 0.0152050
0.2528333 0.0039101 0.0126129
0.2997258 0.0039101 0.0088825
0.3530058 0.0039101 0.0039101
0.4134764 0.0039101 0.0039101
0.4820616 0.0039101 0.0039101
0.5598253 0.0039101 0.0039101
0.6479932 0.0039101 0.0039101
0.7479819 0.0039101 0.0039101
0.8400045 0.0039101 0.0039101
0.8991623 0.0039101 0.0039101
0.9398218 0.0039101 0.0039101
0.9664284 0.0039101 0.0039101
0.9797615 0.0039101 0.0039101
0.9875729 0.0039101 0.0039101
0.9927207 0.0039101 0.0039101
0.9960899 0.0039101 0.0039101
0.9960899 0.0039101 0.0039101
0.9960899 0.0039101 0.0039101
0.9960899 0.0039101 0.0039101
0.9960899 0.0039101 0.0039101
0.9960899 0.0039101 0.0039101
0.9960899 0.0039101 0.0039101
0.9960899 0.0039101 0.0039101
0.9960899 0.0039101 0.0039101
0.9960899 0.0039101 0.0039101
0.0114605 0.0807404 0.0186957
0.0382122 0.0728512 0.0184571
0.0767120 0.0682989 0.0183958
0.0916548 0.0548431 0.0183350
0.1154648 0.0454073 0.0181000
0.1432113 0.0355997 0.0175663
0.1749973 0.0246286 0.0165676
0.2112708 0.0122098 0.0148984
0.2525763 0.0039101 0.0123282
0.2995371 0.0039101 0.0086250
0.3528638 0.0039101 0.0039101
0.4133674 0.0039101 0.0039101
0.4819767 0.0039101 0.0039101
0.5597583 0.0039101 0.0039101
0.6479400 0.0039101 0.0039101
0.7479392 0.0039101 0.0039101
0.8399839 0.0039101 0.0039101
0.8991525 0.0039101 0.0039101
0.9398169 0.0039101 0.0039101
0.9664269 0.0039101 0.0039101
0.9797613 0.0039101 0.0039101
0.9875731 0.0039101 0.0039101
0.9927210 0.0039101 0.0039101
0.9960899 0.0039101 0.0039101
0.9960899 0.0039101 0.0039101
0.9960899 0.0039101 0.0039101
0.9960899 0.0039101 0.0039101
0.9960899 0.0039101 0.0039101
0.9960899 0.0039101 0.0039101
0.9960899 0.0039101 0.0039101
0.9960899 0.0039101 0.0039101
0.9960899 0.0039101 0.0039101
0.9960899 0.0039101 0.0039101
0.0098904 0.0902080 0.0183576
0.0341650 0.0867781 0.0181215
0.0507971 0.0857738 0.0180608
0.0877687 0.0847140 0.0180007
0.1139047 0.0796755 0.0177681
0.1423583 0.0456553 0.0172399
0.1744637 0.0298076 0.0162509
0.2109106 0.0155175 0.0145971
0.2523209 0.0039101 0.0120481
0.2993498 0.0039101 0.0083712
0.3527228 0.0039101 0.0039101
0.4132592 0.0039101 0.0039101
0.4818925 0.0039101 0.0039101
0.5596920 0.0039101 0.0039101
0.6478872 0.0039101 0.0039101
0.7478969 0.0039101 0.0039101
0.8399634 0.0039101 0.0039101
0.8991428 0.0039101 0.0039101
0.9398119 0.0039101 0.0039101
0.9664255 0.0039101 0.0039101
0.9797611 0.0039101 0.0039101
0.9875734 0.0039101 0.0039101
0.9927213 0.0039101 0.0039101
0.9960899 0.0039101 0.0039101
0.9960899 0.0039101 0.0039101
0.9960899 0.0039101 0.0039101
0.9960899 0.0039101 0.0039101
0.9960899 0.0039101 0.0039101
0.9960899 0.0039101 0.0039101
0.9960899 0.0039101 0.0039101
0.9960899 0.0039101 0.0039101
0.9960899 0.0039101 0.0039101
0.9960899 0.0039101 0.0039101
0.0043270 0.1089760 0.0170755
0.0231183 0.1074209 0.0168486
0.0306722 0.1070068 0.0167903
0.0422203 0.1065907 0.0167325
0.1070839 0.1049174 0.0165088
0.1389116 0.1006711 0.0160004
0.1723536 0.0898076 0.0150472
0.2094980 0.0336444 0.0134494
0.2513231 0.0107244 0.0109787
0.2986190 0.0039101 0.0073998
0.3521735 0.0039101 0.0039101
0.4128381 0.0039101 0.0039101
0.4815647 0.0039101 0.0039101
0.5594337 0.0039101 0.0039101
0.6476817 0.0039101 0.0039101
0.7477321 0.0039101 0.0039101
0.8398836 0.0039101 0.0039101
0.8991048 0.0039101 0.0039101
0.9397926 0.0039101 0.0039101
0.9664198 0.0039101 0.0039101
0.9797605 0.0039101 0.0039101
0.9875742 0.0039101 0.0039101
0.9927226 0.0039101 0.0039101
0.9960899 0.0039101 0.0039101
0.9960899 0.0039101 0.0039101
0.9960899 0.0039101 0.0039101
0.9960899 0.0039101 0.0039101
0.9960899 0.0039101 0.0039101
0.9960899 0.0039101 0.0039101
0.9960899 0.0039101 0.0039101
0.9960899 0.0039101 0.0039101
0.9960899 0.0039101 0.0039101
0.9960899 0.0039101 0.0039101
0.0039101 0.1320652 0.0143059
0.0072249 0.1311945 0.0140969
0.0115473 0.1309672 0.0140432
0.0164110 0.1307406 0.0139899
0.0765943 0.1298493 0.0137836
0.1300263 0.1277356 0.0133141
0.1672754 0.1233914 0.0124314
0.2061773 0.1145726 0.0109450
0.2490015 0.0918709 0.0086317
0.2969275 0.0122669 0.0052535
0.3509055 0.0039101 0.0039101
0.4118677 0.0039101 0.0039101
0.4808101 0.0039101 0.0039101
0.5588395 0.0039101 0.0039101
0.6472092 0.0039101 0.0039101
0.7473534 0.0039101 0.0039101
0.8397000 0.0039101 0.0039101
0.8990176 0.0039101 0.0039101
0.9397483 0.0039101 0.0039101
0.9664068 0.0039101 0.0039101
0.9797589 0.0039101 0.0039101
0.9875761 0.0039101 0.0039101
0.9927256 0.0039101 0.0039101
0.9960899 0.0039101 0.0039101
0.9960899 0.0039101 0.0039101
0.9960899 0.0039101 0.0039101
0.9960899 0.0039101 0.0039101
0.9960899 0.0039101 0.0039101
0.9960899 0.0039101 0.0039101
0.9960899 0.0039101 0.0039101
0.9960899 0.0039101 0.0039101
0.9960899 0.0039101 0.0039101
0.9960899 0.0039101 0.0039101
0.0039101 0.1589003 0.0095430
0.0039101 0.1583517 0.0093597
0.0039101 0.1582093 0.0093125
0.0039101 0.1580678 0.0092658
0.0065623 0.1575146 0.0090845
0.1054636 0.1562259 0.0086712
0.1564360 0.1536840 0.0078911
0.1994934 0.1490069 0.0065696
0.2444354 0.1404700 0.0044944
0.2936371 0.1234963 0.0039101
0.3484535 0.0297846 0.0039101
0.4099971 0.0039101 0.0039101
0.4793584 0.0039101 0.0039101
0.5576980 0.0039101 0.0039101
0.6463022 0.0039101 0.0039101
0.7466267 0.0039101 0.0039101
0.8393472 0.0039101 0.0039101
0.8988501 0.0039101 0.0039101
0.9396633 0.0039101 0.0039101
0.9663817 0.0039101 0.0039101
0.9797557 0.0039101 0.0039101
0.9875796 0.0039101 0.0039101
0.9927312 0.0039101 0.0039101
0.9960899 0.0039101 0.0039101
0.9960899 0.0039101 0.0039101
0.9960899 0.0039101 0.0039101
0.9960899 0.0039101 0.0039101
0.9960899 0.0039101 0.0039101
0.9960899 0.0039101 0.0039101
0.9960899 0.0039101 0.0039101
0.9960899 0.0039101 0.0039101
0.9960899 0.0039101 0.0039101
0.9960899 0.0039101 0.0039101
0.0039101 0.1896832 0.0039101
0.0039101 0.1893118 0.0039101
0.0039101 0.1892157 0.0039101
0.0039101 0.1891202 0.0039101
0.0039101 0.1887480 0.0039101
0.0039101 0.1878866 0.0039101
0.1315914 0.1862121 0.0039101
0.1866259 0.1832199 0.0039101
0.2360820 0.1780800 0.0039101
0.2877491 0.1692837 0.0039101
0.3441145 0.1534769 0.0039101
0.4067079 0.1176263 0.0039101
0.4768151 0.0039101 0.0039101
0.5557025 0.0039101 0.0039101
0.6447189 0.0039101 0.0039101
0.7453594 0.0039101 0.0039101
0.8387299 0.0039101 0.0039101
0.8985576 0.0039101 0.0039101
0.9395151 0.0039101 0.0039101
0.9663374 0.0039101 0.0039101
0.9797498 0.0039101 0.0039101
0.9875853 0.0039101 0.0039101
0.9927408 0.0039101 0.0039101
0.9960899 0.0039101 0.0039101
0.9960899 0.0039101 0.0039101
0.9960899 0.0039101 0.0039101
0.9960899 0.0039101 0.0039101
0.9960899 0.0039101 0.0039101
0.9960899 0.0039101 0.0039101
0.9960899 0.0039101 0.0039101
0.9960899 0.0039101 0.0039101
0.9960899 0.0039101 0.0039101
0.9960899 0.0039101 0.0039101
0.0039101 0.2248154 0.0039101
0.0039101 0.2245518 0.0039101
0.0039101 0.2244836 0.0039101
0.0039101 0.2244159 0.0039101
0.0039101 0.2241523 0.0039101
0.0039101 0.2235443 0.0039101
0.0039101 0.2223700 0.0039101
0.1601574 0.2202971 0.0039101
0.2210292 0.2168161 0.0039101
0.2776078 0.2111108 0.0039101
0.3367965 0.2017642 0.0039101
0.4012219 0.1859195 0.0039101
0.4726005 0.1554955 0.0039101
0.5524086 0.0039101 0.0039101
0.6421119 0.0039101 0.0039101
0.7432761 0.0039101 0.0039101
0.8377097 0.0039101 0.0039101
0.8980757 0.0039101 0.0039101
0.9392713 0.0039101 0.0039101
0.9662635 0.0039101 0.0039101
0.9797390 0.0039101 0.0039101
0.9875940 0.0039101 0.0039101
0.9927558 0.0039101 0.0039101
0.9960899 0.0039101 0.0039101
0.9960899 0.0039101 0.0039101
0.9960899 0.0039101 0.0039101
0.9960899 0.0039101 0.0039101
0.9960899 0.0039101 0.0039101
0.9960899 0.0039101 0.0039101
0.9960899 0.0039101 0.0039101
0.9960899 0.0039101 0.0039101
0.9960899 0.0039101 0.0039101
0.9960899 0.0039101 0.0039101
0.0039101 0.2648018 0.0039101
0.0039101 0.2646082 0.0039101
0.0039101 0.2645581 0.0039101
0.0039101 0.2645085 0.0039101
0.0039101 0.2643152 0.0039101
0.0039101 0.2638701 0.0039101
0.0039101 0.2630132 0.0039101
0.0102269 0.2615096 0.0039101
0.1921943 0.2590112 0.0039101
0.2601571 0.2549917 0.0039101
0.3247071 0.2486233 0.0039101
0.3923382 0.2385143 0.0039101
0.4658503 0.2220268 0.0039101
0.5471675 0.1927682 0.0039101
0.6379806 0.1131266 0.0039101
0.7399833 0.0039101 0.0039101
0.8360832 0.0039101 0.0039101
0.8973113 0.0039101 0.0039101
0.9388858 0.0039101 0.0039101
0.9661439 0.0039101 0.0039101
0.9797196 0.0039101 0.0039101
0.9876058 0.0039101 0.0039101
0.9927780 0.0039101 0.0039101
0.9960899 0.0039101 0.0039101
0.9960899 0.0039101 0.0039101
0.9960899 0.0039101 0.0039101
0.9960899 0.0039101 0.0039101
0.9960899 0.0039101 0.0039101
0.9960899 0.0039101 0.0039101
0.9960899 0.0039101 0.0039101
0.9960899 0.0039101 0.0039101
0.9960899 0.0039101 0.0039101
0.9960899 0.0039101 0.0039101
0.0039101 0.3102351 0.0039101
0.0039101 0.3100894 0.0039101
0.0039101 0.3100517 0.0039101
0.0039101 0.3100144 0.0039101
0.0039101 0.3098690 0.0039101
0.0039101 0.3095345 0.0039101
0.0039101 0.3088916 0.0039101
0.0039101 0.3077671 0.0039101
0.1013329 0.3059092 0.0039101
0.2283715 0.3029480 0.0039101
0.3045975 0.2983298 0.0039101
0.3781022 0.2911965 0.0039101
0.4552375 0.2801381 0.0039101
0.5390160 0.2625916 0.0039101
0.6315972 0.2328989 0.0039101
0.7349166 0.1701771 0.0039101
0.8335465 0.0039101 0.0039101
0.8961288 0.0039101 0.0039101
0.9382923 0.0039101 0.0039101
0.9659537 0.0039101 0.0039101
0.9796843 0.0039101 0.0039101
0.9876194 0.0039101 0.0039101
0.9928085 0.0039101 0.0039101
0.9960899 0.0039101 0.0039101
0.9960899 0.0039101 0.0039101
0.9960899 0.0039101 0.0039101
0.9960899 0.0039101 0.0039101
0.9960899 0.0039101 0.0039101
0.9960899 0.0039101 0.0039101
0.9960899 0.0039101 0.0039101
0.9960899 0.0039101 0.0039101
0.9960899 0.0039101 0.0039101
0.9960899 0.0039101 0.0039101
0.0039101 0.3618002 0.0039101
0.0039101 0.3616884 0.0039101
0.0039101 0.3616595 0.0039101
0.0039101 0.3616308 0.0039101
0.0039101 0.3615194 0.0039101
0.0039101 0.3612629 0.0039101
0.0039101 0.3607707 0.0039101
0.0039101 0.3599112 0.0039101
0.0039101 0.3584956 0.0039101
0.1506932 0.3562511 0.0039101
0.2693103 0.3527803 0.0039101
0.3550244 0.3474927 0.0039101
0.4386180 0.3394834 0.0039101
0.5264819 0.3272904 0.0039101
0.6218856 0.3083345 0.0039101
0.7272587 0.2772623 0.0039101
0.8296325 0.2148544 0.0039101
0.8943268 0.0039101 0.0039101
0.9373945 0.0039101 0.0039101
0.9656537 0.0039101 0.0039101
0.9796195 0.0039101 0.0039101
0.9876303 0.0039101 0.0039101
0.9928466 0.0039101 0.0039101
0.9960899 0.0039101 0.0039101
0.9960899 0.0039101 0.0039101
0.9960899 0.0039101 0.0039101
0.9960899 0.0039101 0.0039101
0.9960899 0.0039101 0.0039101
0.9960899 0.0039101 0.0039101
0.9960899 0.0039101 0.0039101
0.9960899 0.0039101 0.0039101
0.9960899 0.0039101 0.0039101
0.9960899 0.0039101 0.0039101
0.0039101 0.4202851 0.0039101
0.0039101 0.4201980 0.0039101
0.0039101 0.4201755 0.0039101
0.0039101 0.4201532 0.0039101
0.0039101 0.4200664 0.0039101
0.0039101 0.4198668 0.0039101
0.0039101 0.4194839 0.0039101
0.0039101 0.4188161 0.0039101
0.0039101 0.4177183 0.0039101
0.0039101 0.4159830 0.0039101
0.1921939 0.4133126 0.0039101
0.3156654 0.4092759 0.0039101
0.4122107 0.4032366 0.0039101
0.5072010 0.3942270 0.0039101
0.6072066 0.3807038 0.0039101
0.7158039 0.3600026 0.0039101
0.8235926 0.3226763 0.0039101
0.8915988 0.2493466 0.0039101
0.9360506 0.0039101 0.0039101
0.9651816 0.0039101 0.0039101
0.9795003 0.0039101 0.0039101
0.9876275 0.0039101 0.0039101
0.9928877 0.0039101 0.0039101
0.9960899 0.0039101 0.0039101
0.9960899 0.0039101 0.0039101
0.9960899 0.0039101 0.0039101
0.9960899 0.0039101 0.0039101
0.9960899 0.0039101 0.0039101
0.9960899 0.0039101 0.0039101
0.9960899 0.0039101 0.0039101
0.9960899 0.0039101 0.0039101
0.9960899 0.0039101 0.0039101
0.9960899 0.0039101 0.0039101
0.0039101 0.4865968 0.0039101
0.0039101 0.4865281 0.0039101
0.0039101 0.4865104 0.0039101
0.0039101 0.4864928 0.0039101
0.0039101 0.4864244 0.0039101
0.0039101 0.4862672 0.0039101
0.0039101 0.4859656 0.0039101
0.0039101 0.4854401 0.0039101
0.0039101 0.4845772 0.0039101
0.0039101 0.4832157 0.0039101
0.0039101 0.4811269 0.0039101
0.2353889 0.4779840 0.0039101
0.3681600 0.4733156 0.0039101
0.4770447 0.4664291 0.0039101
0.5849406 0.4562782 0.0039101
0.6987213 0.4412095 0.0039101
0.8141521 0.4145848 0.0039101
0.8874596 0.3569906 0.0039101
0.9340458 0.2764052 0.0039101
0.9644371 0.1385314 0.0039101
0.9792825 0.0039101 0.0039101
0.9875879 0.0039101 0.0039101
0.9929187 0.0039101 0.0039101
0.9960899 0.0039101 0.0039101
0.9960899 0.0039101 0.0039101
0.9960899 0.0039101 0.0039101
0.9960899 0.0039101 0.0039101
0.9960899 0.0039101 0.0039101
0.9960899 0.0039101 0.0039101
0.9960899 0.0039101 0.0039101
0.9960899 0.0039101 0.0039101
0.9960899 0.0039101 0.0039101
0.9960899 0.0039101 0.0039101
0.0039101 0.5617806 0.0039101
0.0039101 0.5617260 0.0039101
0.0039101 0.5617119 0.0039101
0.0039101 0.5616979 0.0039101
0.0039101 0.5616435 0.0039101
0.0039101 0.5615184 0.0039101
0.0039101 0.5612786 0.0039101
0.0039101 0.5608608 0.0039101
0.0039101 0.5601754 0.0039101
0.0039101 0.5590952 0.0039101
0.0039101 0.5574411 0.0039101
0.0039101 0.5549594 0.0039101
0.2824837 0.5512895 0.0039101
0.4276098 0.5459123 0.0039101
0.5505495 0.5380683 0.0039101
0.6730952 0.5266147 0.0039101
0.7989452 0.5075837 0.0039101
0.8810972 0.4547040 0.0039101
0.9310430 0.3831961 0.0039101
0.9632601 0.3023328 0.0039101
0.9788900 0.2317372 0.0039101
0.9874668 0.1475666 0.0039101
0.9929108 0.0039101 0.0039101
0.9960899 0.0039101 0.0039101
0.9960899 0.0039101 0.0039101
0.9960899 0.0039101 0.0039101
0.9960899 0.0039101 0.0039101
0.9960899 0.0039101 0.0039101
0.9960899 0.0039101 0.0039101
0.9960899 0.0039101 0.0039101
0.9960899 0.0039101 0.0039101
0.9960899 0.0039101 0.0039101
0.9960899 0.0039101 0.0039101
0.0039101 0.6470445 0.0039101
0.0039101 0.6470007 0.0039101
0.0039101 0.6469894 0.0039101
0.0039101 0.6469781 0.0039101
0.0039101 0.6469345 0.0039101
0.0039101 0.6468342 0.0039101
0.0039101 0.6466420 0.0039101
0.0039101 0.6463072 0.0039101
0.0039101 0.6457581 0.0039101
0.0039101 0.6448935 0.0039101
0.0039101 0.6435712 0.0039101
0.0039101 0.6415911 0.0039101
0.0039101 0.6386711 0.0039101
0.3347232 0.6344108 0.0039101
0.4949444 0.6282356 0.0039101
0.6339062 0.6193061 0.0039101
0.7729885 0.6062610 0.0039101
0.8710415 0.5572214 0.0039101
0.9264850 0.4840225 0.0039101
0.9613910 0.4064398 0.0039101
0.9781958 0.3494055 0.0039101
0.9871854 0.3054667 0.0039101
0.9928095 0.2664463 0.0039101
0.9960899 0.2272736 0.0039101
0.9960899 0.1812944 0.0039101
0.9960899 0.0452613 0.0039101
0.9960899 0.0039101 0.0039101
0.9960899 0.0039101 0.0039101
0.9960899 0.0039101 0.0039101
0.9960899 0.0039101 0.0039101
0.9960899 0.0039101 0.0039101
0.9960899 0.0039101 0.0039101
0.9960899 0.0039101 0.0039101
0.0039101 0.7437871 0.0039101
0.0039101 0.7437517 0.0039101
0.0039101 0.7437426 0.0039101
0.0039101 0.7437336 0.0039101
0.0039101 0.7436984 0.0039101
0.0039101 0.7436174 0.0039101
0.0039101 0.7434623 0.0039101
0.0039101 0.7431923 0.0039101
0.0039101 0.7427495 0.0039101
0.0039101 0.7420527 0.0039101
0.0039101 0.7409878 0.0039101
0.0039101 0.7393951 0.0039101
0.0039101 0.7370508 0.0039101
0.0039101 0.7336399 0.0039101
0.3931255 0.7287161 0.0039101
0.5712296 0.7216393 0.0039101
0.7284829 0.7114762 0.0039101
0.8543099 0.6718888 0.0039101
0.9193800 0.5920517 0.0039101
0.9583995 0.5079637 0.0039101
0.9769917 0.4491719 0.0039101
0.9866101 0.4081308 0.0039101
0.9925179 0.3753505 0.0039101
0.9960899 0.3466948 0.0039101
0.9960899 0.3199999 0.0039101
0.9960899 0.2938825 0.0039101
0.9960899 0.2671827 0.0039101
0.9960899 0.2385238 0.0039101
0.9960899 0.2055140 0.0039101
0.9960899 0.1614068 0.0039101
0.9960899 0.0039101 0.0039101
0.9960899 0.0039101 0.0039101
0.9960899 0.0039101 0.0039101
0.0039101 0.8352393 0.0039101
0.0039101 0.8352215 0.0039101
0.0039101 0.8352169 0.0039101
0.0039101 0.8352123 0.0039101
0.0039101 0.8351945 0.0039101
0.0039101 0.8351536 0.0039101
0.0039101 0.8350752 0.0039101
0.0039101 0.8349386 0.0039101
0.0039101 0.8347144 0.0039101
0.0039101 0.8343609 0.0039101
0.0039101 0.8338191 0.0039101
0.0039101 0.8330052 0.0039101
0.0039101 0.8317992 0.0039101
0.0039101 0.8300278 0.0039101
0.0039101 0.8274347 0.0039101
0.4524529 0.8236322 0.0039101
0.6501593 0.8180101 0.0039101
0.8236824 0.8042524 0.0039101
0.9077664 0.7159652 0.0039101
0.9535308 0.6185071 0.0039101
0.9749350 0.5512570 0.0039101
0.9855211 0.5073674 0.0039101
0.9918736 0.4741233 0.0039101
0.9960899 0.4463619 0.0039101
0.9960899 0.4216326 0.0039101
0.9960899 0.3986281 0.0039101
0.9960899 0.3765699 0.0039101
0.9960899 0.3549291 0.0039101
0.9960899 0.3332808 0.0039101
0.9960899 0.3112114 0.0039101
0.9960899 0.2882333 0.0039101
0.9960899 0.2636634 0.0039101
0.9960899 0.2363657 0.0039101
0.0039101 0.8949320 0.0039101
0.0039101 0.8949234 0.0039101
0.0039101 0.8949212 0.0039101
0.0039101 0.8949190 0.0039101
0.0039101 0.8949105 0.0039101
0.0039101 0.8948908 0.0039101
0.0039101 0.8948532 0.0039101
0.0039101 0.8947876 0.0039101
0.0039101 0.8946801 0.0039101
0.0039101 0.8945107 0.0039101
0.0039101 0.8942515 0.0039101
0.0039101 0.8938631 0.0039101
0.0039101 0.8932899 0.0039101
0.0039101 0.8924525 0.0039101
0.0039101 0.8912367 0.0039101
0.0039101 0.8894749 0.0039101
0.4953890 0.8869155 0.0039101
0.7048254 0.8831669 0.0039101
0.8870808 0.8660382 0.0039101
0.9453225 0.7475672 0.0039101
0.9714351 0.6646190 0.0039101
0.9835544 0.6138917 0.0039101
0.9906087 0.5771958 0.0039101
0.9952539 0.5475499 0.0039101
0.9960899 0.5217869 0.0039101
0.9960899 0.4983062 0.0039101
0.9960899 0.4762321 0.0039101
0.9960899 0.4550476 0.0039101
0.9960899 0.4344167 0.0039101
0.9960899 0.4140925 0.0039101
0.9960899 0.3938656 0.0039101
0.9960899 0.3735321 0.0039101
0.9960899 0.3528682 0.0039101
0.0039101 0.9360777 0.0039101
0.0039101 0.9360735 0.0039101
0.0039101 0.9360725 0.0039101
0.0039101 0.9360714 0.0039101
0.0039101 0.9360672 0.0039101
0.0039101 0.9360576 0.0039101
0.0039101 0.9360392 0.0039101
0.0039101 0.9360071 0.0039101
0.0039101 0.9359545 0.0039101
0.0039101 0.9358716 0.0039101
0.0039101 0.9357449 0.0039101
0.0039101 0.9355549 0.0039101
0.0039101 0.9352745 0.0039101
0.0039101 0.9348650 0.0039101
0.0039101 0.9342707 0.0039101
0.0039101 0.9334108 0.0039101
0.0039101 0.9321648 0.0039101
0.5269395 0.9303497 0.0039101
0.7430113 0.9276896 0.0039101
0.9305457 0.9083982 0.0039101
0.9653766 0.7984825 0.0039101
0.9800721 0.7357887 0.0039101
0.9882689 0.6926509 0.0039101
0.9935442 0.6589835 0.0039101
0.9960899 0.6303921 0.0039101
0.9960899 0.6047261 0.0039101
0.9960899 0.5808567 0.0039101
0.9960899 0.5581608 0.0039101
0.9960899 0.5362738 0.0039101
0.9960899 0.5149634 0.0039101
0.9960899 0.4940625 0.0039101
0.9960899 0.4734327 0.0039101
0.9960899 0.4529440 0.0039101
0.0039101 0.9586469 0.0039101
0.0039101 0.9586451 0.0039101
0.0039101 0.9586447 0.0039101
0.0039101 0.9586442 0.0039101
0.0039101 0.9586424 0.0039101
0.0039101 0.9586383 0.0039101
0.0039101 0.9586303 0.0039101
0.0039101 0.9586165 0.0039101
0.0039101 0.9585939 0.0039101
0.0039101 0.9585582 0.0039101
0.0039101 0.9585035 0.0039101
0.0039101 0.9584216 0.0039101
0.0039101 0.9583006 0.0039101
0.0039101 0.9581236 0.0039101
0.0039101 0.9578665 0.0039101
0.0039101 0.9574937 0.0039101
0.0039101 0.9569528 0.0039101
0.2945671 0.9561642 0.0039101
0.5925895 0.9550051 0.0039101
0.8040269 0.9532802 0.0039101
0.9563839 0.9335797 0.0039101
0.9749095 0.8577052 0.0039101
0.9846686 0.8094040 0.0039101
0.9907642 0.7739902 0.0039101
0.9949783 0.7451617 0.0039101
0.9960899 0.7197306 0.0039101
0.9960899 0.6958750 0.0039101
0.9960899 0.6724373 0.0039101
0.9960899 0.6485935 0.0039101
0.9960899 0.6247363 0.0039101
0.9960899 0.6014892 0.0039101
0.9960899 0.5787333 0.0039101
0.9960899 0.5563668 0.0039101
0.0039101 0.9705879 0.0039101
0.0039101 0.9705869 0.0039101
0.0039101 0.9705866 0.0039101
0.0039101 0.9705864 0.0039101
0.0039101 0.9705854 0.0039101
0.0039101 0.9705830 0.0039101
0.0039101 0.9705786 0.0039101
0.0039101 0.9705708 0.0039101
0.0039101 0.9705581 0.0039101
0.0039101 0.9705380 0.0039101
0.0039101 0.9705073 0.0039101
0.0039101 0.9704611 0.0039101
0.0039101 0.9703929 0.0039101
0.0039101 0.9702929 0.0039101
0.0039101 0.9701473 0.0039101
0.0039101 0.9699356 0.0039101
0.0039101 0.9696270 0.0039101
0.0039101 0.9691750 0.0039101
0.4653025 0.9685070 0.0039101
0.7002505 0.9675079 0.0039101
0.8811405 0.9661638 0.0039101
0.9695454 0.9464069 0.0039101
0.9810564 0.8917945 0.0039101
0.9879954 0.8542447 0.0039101
0.9926798 0.8256452 0.0039101
0.9960876 0.8020605 0.0039101
0.9960899 0.7813355 0.0039101
0.9960899 0.7621802 0.0039101
0.9960899 0.7437631 0.0039101
0.9960899 0.7255047 0.0039101
0.9960899 0.7069611 0.0039101
0.9960899 0.6877504 0.0039101
0.9960899 0.6675013 0.0039101
0.0039101 0.9779962 0.0039101
0.0039101 0.9779955 0.0039101
0.0039101 0.9779954 0.0039101
0.0039101 0.9779952 0.0039101
0.0039101 0.9779945 0.0039101
0.0039101 0.9779930 0.0039101
0.0039101 0.9779900 0.0039101
0.0039101 0.9779849 0.0039101
0.0039101 0.9779764 0.0039101
0.0039101 0.9779631 0.0039101
0.0039101 0.9779427 0.0039101
0.0039101 0.9779120 0.0039101
0.0039101 0.9778666 0.0039101
0.0039101 0.9778001 0.0039101
0.0039101 0.9777029 0.0039101
0.0039101 0.9775613 0.0039101
0.0039101 0.9773544 0.0039101
0.0039101 0.9770501 0.0039101
0.3275407 0.9765983 0.0039101
0.6141484 0.9759191 0.0039101
0.8099263 0.9749679 0.0039101
0.9237078 0.9740761 0.0039101
0.9775265 0.9541853 0.0039101
0.9853943 0.9130756 0.0039101
0.9905811 0.8831429 0.0039101
0.9942876 0.8595928 0.0039101
0.9960899 0.8398658 0.0039101
0.9960899 0.8224650 0.0039101
0.9960899 0.8064544 0.0039101
0.9960899 0.7912153 0.0039101
0.9960899 0.7763144 0.0039101
0.9960899 0.7614255 0.0039101
0.9960899 0.7462788 0.0039101
0.0039101 0.9830574 0.0039101
0.0039101 0.9830569 0.0039101
