LUTS_for_Software_DaVinci_Premiere_Avid_FinalCutPro/DaVinci-Resolve-with-Video-Range-Tag/5-NBCU_PQ2SDR_DL_RESOLVE17-VRT_v1.2.cube
TITLE "PQ-BT.2100 to SDR-BT.709 Display-Light Conversion 3D Look-Up-Table"
#
# PLEASE DO NOT ALTER THE LINES BELOW
# 
# Copyright 2023 NBCUniversal, LLC - Please do not remove this line
#
# Version 1.2 (fix for unicode character which was preventing loading in some devices)
#
# Built using tools from and in collaboration with Cromorama and Nick Shaw - the creators of ORION-CONVERT
#
# MaxRGB 2-stage highlight compression knee
#
# Parameters designed by Chris Seeger, NBCU Advanced Technology (chris.seeger@nbcuni.com)
# In collaboration with Michael Drazin, NBCU Sports Group (michael.drazin@nbcuni.com)
#
# 58% PQ maps to 94% SDR (before highlight compression)
# Highlight compression from 94% to 109% SDR
# Stage 1 Pre-rolled-off HDR highlights
# Stage 2 Post-Rolled off converted SDR highlights
#
# Sophisticated Highlight Knee REQUIRES the use of devices using Tetrehedral Interpolation
#
# No Matrix Compensation (so make sure your device is using the correct matrix)
# Type III LUT - Full Range Processing for Narrow Range Signals
#
# Unscaled code values in and out
# RESOLVE 17 VIDEO RANGE TAGS
LUT_IN_VIDEO_RANGE
LUT_OUT_VIDEO_RANGE
LUT_3D_SIZE 9
0.0204129 0.0204129 0.0204129
0.1223367 0.0163291 0.0197834
0.2538238 0.0039101 0.0137374
0.4823901 0.0039101 0.0039101
0.8400845 0.0039101 0.0039101
0.9797622 0.0039101 0.0039101
0.9960899 0.0039101 0.0039101
0.9960899 0.0039101 0.0039101
0.9960899 0.0039101 0.0039101
0.0043270 0.1089760 0.0170755
0.1070839 0.1049174 0.0165088
0.2513231 0.0107244 0.0109787
0.4815647 0.0039101 0.0039101
0.8398836 0.0039101 0.0039101
0.9797605 0.0039101 0.0039101
0.9960899 0.0039101 0.0039101
0.9960899 0.0039101 0.0039101
0.9960899 0.0039101 0.0039101
0.0039101 0.2248154 0.0039101
0.0039101 0.2241523 0.0039101
0.2210292 0.2168161 0.0039101
0.4726005 0.1554955 0.0039101
0.8377097 0.0039101 0.0039101
0.9797390 0.0039101 0.0039101
0.9960899 0.0039101 0.0039101
0.9960899 0.0039101 0.0039101
0.9960899 0.0039101 0.0039101
0.0039101 0.4202851 0.0039101
0.0039101 0.4200664 0.0039101
0.0039101 0.4177183 0.0039101
0.4122107 0.4032366 0.0039101
0.8235926 0.3226763 0.0039101
0.9795003 0.0039101 0.0039101
0.9960899 0.0039101 0.0039101
0.9960899 0.0039101 0.0039101
0.9960899 0.0039101 0.0039101
0.0039101 0.7437871 0.0039101
0.0039101 0.7436984 0.0039101
0.0039101 0.7427495 0.0039101
0.0039101 0.7370508 0.0039101
0.7284829 0.7114762 0.0039101
0.9769917 0.4491719 0.0039101
0.9960899 0.3199999 0.0039101
0.9960899 0.2055140 0.0039101
0.9960899 0.0039101 0.0039101
0.0039101 0.9586469 0.0039101
0.0039101 0.9586424 0.0039101
0.0039101 0.9585939 0.0039101
0.0039101 0.9583006 0.0039101
0.0039101 0.9569528 0.0039101
0.9563839 0.9335797 0.0039101
0.9949783 0.7451617 0.0039101
0.9960899 0.6485935 0.0039101
0.9960899 0.5563668 0.0039101
0.0039101 0.9867463 0.0039101
0.0039101 0.9867453 0.0039101
0.0039101 0.9867346 0.0039101
0.0039101 0.9866699 0.0039101
0.0039101 0.9863673 0.0039101
0.6937714 0.9849040 0.0039101
0.9867763 0.9632004 0.0039101
0.9960899 0.8858775 0.0039101
0.9960899 0.8386984 0.0039101
0.0039101 0.9951057 0.0039101
0.0039101 0.9951052 0.0039101
0.0039101 0.9950991 0.0039101
0.0039101 0.9950627 0.0039101
0.0039101 0.9948941 0.0039101
0.4604944 0.9940937 0.0039101
0.9114617 0.9927409 0.0039101
0.9954407 0.9716452 0.0039101
0.9960899 0.9284948 0.0039101
0.0039101 0.9960899 0.0039101
0.0039101 0.9960899 0.0039101
0.0039101 0.9960899 0.0039101
0.0039101 0.9960899 0.0039101
0.0039101 0.9960899 0.0039101
0.0039101 0.9960899 0.0039101
0.8423090 0.9960899 0.0039101
0.9656047 0.9960899 0.0039101
0.9960899 0.9757862 0.0039101
0.0179608 0.0201217 0.1085393
0.1207419 0.0160731 0.1079713
0.2535163 0.0039101 0.1011467
0.4822879 0.0039101 0.0126725
0.8400596 0.0039101 0.0039101
0.9797613 0.0039101 0.0039101
0.9960899 0.0039101 0.0039101
0.9960899 0.0039101 0.0039101
0.9960899 0.0039101 0.0039101
0.0039101 0.1087194 0.1052566
0.1046255 0.1046255 0.1046255
0.2510098 0.0105061 0.0968249
0.4814623 0.0039101 0.0099908
0.8398587 0.0039101 0.0039101
0.9797596 0.0039101 0.0039101
0.9960899 0.0039101 0.0039101
0.9960899 0.0039101 0.0039101
0.9960899 0.0039101 0.0039101
0.0039101 0.2247711 0.0184978
0.0039101 0.2241078 0.0179058
0.2206288 0.2167685 0.0121644
0.4724948 0.1553988 0.0039101
0.8376842 0.0039101 0.0039101
0.9797381 0.0039101 0.0039101
0.9960899 0.0039101 0.0039101
0.9960899 0.0039101 0.0039101
0.9960899 0.0039101 0.0039101
0.0039101 0.4202704 0.0039101
0.0039101 0.4200518 0.0039101
0.0039101 0.4177035 0.0039101
0.4120787 0.4032209 0.0039101
0.8235630 0.3226588 0.0039101
0.9794991 0.0039101 0.0039101
0.9960899 0.0039101 0.0039101
0.9960899 0.0039101 0.0039101
0.9960899 0.0039101 0.0039101
0.0039101 0.7437811 0.0039101
0.0039101 0.7436924 0.0039101
0.0039101 0.7427435 0.0039101
0.0039101 0.7370448 0.0039101
0.7284293 0.7114698 0.0039101
0.9769899 0.4491694 0.0039101
0.9960899 0.3199944 0.0039101
0.9960899 0.2055039 0.0039101
0.9960899 0.0039101 0.0039101
0.0039101 0.9586470 0.0039101
0.0039101 0.9586425 0.0039101
0.0039101 0.9585939 0.0039101
0.0039101 0.9583006 0.0039101
0.0039101 0.9569527 0.0039101
0.9563800 0.9335920 0.0039101
0.9949773 0.7451656 0.0039101
0.9960899 0.6485956 0.0039101
0.9960899 0.5563677 0.0039101
0.0039101 0.9867465 0.0039101
0.0039101 0.9867455 0.0039101
0.0039101 0.9867349 0.0039101
0.0039101 0.9866702 0.0039101
0.0039101 0.9863675 0.0039101
0.6937518 0.9849041 0.0039101
0.9867749 0.9632084 0.0039101
0.9960899 0.8858827 0.0039101
0.9960899 0.8387021 0.0039101
0.0039101 0.9951059 0.0039101
0.0039101 0.9951053 0.0039101
0.0039101 0.9950993 0.0039101
0.0039101 0.9950628 0.0039101
0.0039101 0.9948943 0.0039101
0.4604677 0.9940938 0.0039101
0.9114531 0.9927410 0.0039101
0.9954398 0.9716510 0.0039101
0.9960899 0.9284992 0.0039101
0.0039101 0.9960899 0.0039101
0.0039101 0.9960899 0.0039101
0.0039101 0.9960899 0.0039101
0.0039101 0.9960899 0.0039101
0.0039101 0.9960899 0.0039101
0.0039101 0.9960899 0.0039101
0.8423016 0.9960899 0.0039101
0.9655989 0.9960899 0.0039101
0.9960899 0.9757905 0.0039101
0.0039101 0.0171710 0.2239332
0.0969768 0.0134524 0.2238360
0.2501865 0.0039101 0.2227931
0.4811939 0.0039101 0.2163647
0.8397934 0.0039101 0.1793852
0.9797522 0.0039101 0.0039101
0.9960899 0.0039101 0.0039101
0.9960899 0.0039101 0.0039101
0.9960899 0.0039101 0.0039101
0.0039101 0.1058428 0.2233939
0.0295164 0.1013101 0.2232963
0.2476165 0.0082491 0.2222485
0.4803652 0.0039101 0.2157877
0.8395919 0.0039101 0.1786074
0.9797505 0.0039101 0.0039101
0.9960899 0.0039101 0.0039101
0.9960899 0.0039101 0.0039101
0.9960899 0.0039101 0.0039101
0.0039101 0.2242964 0.2174667
0.0039101 0.2236303 0.2173638
0.2162589 0.2162589 0.2162589
0.4713639 0.1543559 0.2094234
0.8374111 0.0039101 0.1697514
0.9797285 0.0039101 0.0039101
0.9960899 0.0039101 0.0039101
0.9960899 0.0039101 0.0039101
0.9960899 0.0039101 0.0039101
0.0039101 0.4201138 0.1723302
0.0039101 0.4198950 0.1721635
0.0039101 0.4175453 0.1703599
0.4106636 0.4030532 0.1585895
0.8232466 0.3224713 0.0039101
0.9794868 0.0039101 0.0039101
0.9960899 0.0039101 0.0039101
0.9960899 0.0039101 0.0039101
0.9960899 0.0039101 0.0039101
0.0039101 0.7437176 0.0039101
0.0039101 0.7436289 0.0039101
0.0039101 0.7426798 0.0039101
0.0039101 0.7369804 0.0039101
0.7278566 0.7114018 0.0039101
0.9769702 0.4491427 0.0039101
0.9960899 0.3199362 0.0039101
0.9960899 0.2053951 0.0039101
0.9960899 0.0039101 0.0039101
0.0039101 0.9586478 0.0039101
0.0039101 0.9586432 0.0039101
0.0039101 0.9585947 0.0039101
0.0039101 0.9583012 0.0039101
0.0039101 0.9569526 0.0039101
0.9563381 0.9337232 0.0039101
0.9949663 0.7452076 0.0039101
0.9960899 0.6486175 0.0039101
0.9960899 0.5563779 0.0039101
0.0039101 0.9867491 0.0039101
0.0039101 0.9867481 0.0039101
0.0039101 0.9867374 0.0039101
0.0039101 0.9866726 0.0039101
0.0039101 0.9863698 0.0039101
0.6935434 0.9849056 0.0039101
0.9867597 0.9632933 0.0039101
0.9960899 0.8859386 0.0039101
0.9960899 0.8387412 0.0039101
0.0039101 0.9951077 0.0039101
0.0039101 0.9951071 0.0039101
0.0039101 0.9951011 0.0039101
0.0039101 0.9950646 0.0039101
0.0039101 0.9948959 0.0039101
0.4601829 0.9940951 0.0039101
0.9113611 0.9927419 0.0039101
0.9954304 0.9717126 0.0039101
0.9960899 0.9285461 0.0039101
0.0039101 0.9960899 0.0039101
0.0039101 0.9960899 0.0039101
0.0039101 0.9960899 0.0039101
0.0039101 0.9960899 0.0039101
0.0039101 0.9960899 0.0039101
0.0039101 0.9960899 0.0039101
0.8422225 0.9960899 0.0039101
0.9655365 0.9960899 0.0039101
0.9960899 0.9758367 0.0039101
0.0039101 0.0039101 0.4184028
0.0039101 0.0039101 0.4183707
0.2283230 0.0039101 0.4180276
0.4745834 0.0039101 0.4159713
0.8381893 0.0039101 0.3980841
0.9796970 0.0039101 0.2774243
0.9960899 0.0039101 0.2222021
0.9960899 0.0039101 0.1829130
0.9960899 0.0039101 0.1408269
0.0039101 0.0668623 0.4182250
0.0039101 0.0391313 0.4181928
0.2252559 0.0039101 0.4178495
0.4737360 0.0039101 0.4157917
0.8379843 0.0039101 0.3979558
0.9796950 0.0039101 0.2772839
0.9960899 0.0039101 0.2220656
0.9960899 0.0039101 0.1827649
0.9960899 0.0039101 0.1406202
0.0039101 0.2214236 0.4163166
0.0039101 0.2207405 0.4162842
0.1854765 0.2131684 0.4159383
0.4645253 0.1477570 0.4138648
0.8357651 0.0039101 0.3965684
0.9796699 0.0039101 0.2757752
0.9960899 0.0039101 0.2205950
0.9960899 0.0039101 0.1811643
0.9960899 0.0039101 0.1383597
0.0039101 0.4191777 0.4046216
0.0039101 0.4189581 0.4045877
0.0039101 0.4165996 0.4042250
0.4020506 0.4020506 0.4020506
0.8213379 0.3213415 0.3876109
0.9794123 0.0039101 0.2664220
0.9960899 0.0039101 0.2113103
0.9960899 0.0039101 0.1708178
0.9960899 0.0039101 0.1221379
0.0039101 0.7433384 0.3456540
0.0039101 0.7432496 0.3456097
0.0039101 0.7422999 0.3451368
0.0039101 0.7365959 0.3422929
0.7244263 0.7109959 0.3294409
0.9768528 0.4489836 0.2141961
0.9960899 0.3195880 0.1517928
0.9960899 0.2047430 0.0200055
0.9960899 0.0039101 0.0039101
0.0039101 0.9586520 0.0039101
0.0039101 0.9586475 0.0039101
0.0039101 0.9585988 0.0039101
0.0039101 0.9583043 0.0039101
0.0039101 0.9569519 0.0039101
0.9560875 0.9345073 0.0039101
0.9949003 0.7454579 0.0039101
0.9960899 0.6487479 0.0039101
0.9960899 0.5564384 0.0039101
0.0039101 0.9867642 0.0039101
0.0039101 0.9867632 0.0039101
0.0039101 0.9867524 0.0039101
0.0039101 0.9866873 0.0039101
0.0039101 0.9863831 0.0039101
0.6922977 0.9849146 0.0039101
0.9866689 0.9638006 0.0039101
0.9960899 0.8862720 0.0039101
0.9960899 0.8389745 0.0039101
0.0039101 0.9951183 0.0039101
0.0039101 0.9951178 0.0039101
0.0039101 0.9951117 0.0039101
0.0039101 0.9950751 0.0039101
0.0039101 0.9949057 0.0039101
0.4584776 0.9941028 0.0039101
0.9108119 0.9927472 0.0039101
0.9953738 0.9720808 0.0039101
0.9960899 0.9288259 0.0039101
0.0039101 0.9960899 0.0039101
0.0039101 0.9960899 0.0039101
0.0039101 0.9960899 0.0039101
0.0039101 0.9960899 0.0039101
0.0039101 0.9960899 0.0039101
0.0039101 0.9960899 0.0039101
0.8417504 0.9960899 0.0039101
0.9651639 0.9960899 0.0039101
0.9960899 0.9761126 0.0039101
0.0039101 0.0039101 0.7402192
0.0039101 0.0039101 0.7402062
0.0039101 0.0039101 0.7400671
0.4439705 0.0039101 0.7392362
0.8308845 0.0039101 0.7219894
0.9794376 0.0039101 0.5171785
0.9960899 0.0039101 0.4331799
0.9960899 0.0039101 0.3816938
0.9960899 0.0039101 0.3395616
0.0039101 0.0039101 0.7401471
0.0039101 0.0039101 0.7401340
0.0039101 0.0039101 0.7399949
0.4430261 0.0039101 0.7391638
0.8306630 0.0039101 0.7220170
0.9794344 0.0039101 0.5171490
0.9960899 0.0039101 0.4331535
0.9960899 0.0039101 0.3816696
0.9960899 0.0039101 0.3395367
0.0039101 0.2080022 0.7393753
0.0039101 0.2072288 0.7393623
0.0039101 0.1985746 0.7392229
0.4327240 0.1010295 0.7383905
0.8282639 0.0039101 0.7222987
0.9793965 0.0039101 0.5168358
0.9960899 0.0039101 0.4328716
0.9960899 0.0039101 0.3814104
0.9960899 0.0039101 0.3392700
0.0039101 0.4150710 0.7347463
0.0039101 0.4148478 0.7347331
0.0039101 0.4124504 0.7345924
0.3604659 0.3976464 0.7337520
0.8126011 0.3161963 0.7233792
0.9790740 0.0039101 0.5150285
0.9960899 0.0039101 0.4311633
0.9960899 0.0039101 0.3798389
0.9960899 0.0039101 0.3376576
0.0039101 0.7416880 0.7141006
0.0039101 0.7415989 0.7140869
0.0039101 0.7406459 0.7139398
0.0039101 0.7349222 0.7130619
0.7092288 0.7092288 0.7092288
0.9763328 0.4482956 0.5080198
0.9960899 0.3180610 0.4232497
0.9960899 0.2018468 0.3724991
0.9960899 0.0039101 0.3301988
0.0039101 0.9586681 0.4964426
0.0039101 0.9586635 0.4964376
0.0039101 0.9586141 0.4963843
0.0039101 0.9583155 0.4960680
0.0039101 0.9569466 0.4947229
0.9549814 0.9379424 0.4835245
0.9946111 0.7465510 0.3851403
0.9960899 0.6493171 0.3347001
0.9960899 0.5567020 0.2924947
0.0039101 0.9868288 0.3544009
0.0039101 0.9868277 0.3543900
0.0039101 0.9868168 0.3542731
0.0039101 0.9867503 0.3535729
0.0039101 0.9864402 0.3504688
0.6868434 0.9849531 0.3374716
0.9862708 0.9660165 0.3107725
0.9960899 0.8877265 0.2540780
0.9960899 0.8399916 0.1654724
0.0039101 0.9951642 0.2395845
0.0039101 0.9951636 0.2395660
0.0039101 0.9951575 0.2393678
0.0039101 0.9951202 0.2381764
0.0039101 0.9949481 0.2328091
0.4509426 0.9941357 0.2082403
0.9084186 0.9927699 0.1524525
0.9951263 0.9736869 0.0039101
0.9960899 0.9300457 0.0039101
0.0039101 0.9960899 0.0039101
0.0039101 0.9960899 0.0039101
0.0039101 0.9960899 0.0039101
0.0039101 0.9960899 0.0039101
0.0039101 0.9960899 0.0039101
0.0039101 0.9960899 0.0039101
0.8396936 0.9960899 0.0039101
0.9635419 0.9960899 0.0039101
0.9960899 0.9773151 0.0039101
0.0039101 0.0039101 0.9310302
0.0039101 0.0039101 0.9310984
0.0039101 0.0039101 0.9317998
0.2900889 0.0039101 0.9352008
0.6639035 0.0039101 0.9429550
0.9782696 0.0039101 0.8485784
0.9960899 0.0039101 0.7370598
0.9960899 0.0039101 0.6633625
0.9960899 0.0039101 0.5924493
0.0039101 0.0039101 0.9312003
0.0039101 0.0039101 0.9312673
0.0039101 0.0039101 0.9319575
0.2887589 0.0039101 0.9353118
0.6635416 0.0039101 0.9429972
0.9782632 0.0039101 0.8486468
0.9960899 0.0039101 0.7370817
0.9960899 0.0039101 0.6633748
0.9960899 0.0039101 0.5924555
0.0039101 0.1439165 0.9328545
0.0039101 0.1428139 0.9329114
0.0039101 0.1294154 0.9334994
0.2739208 0.0039101 0.9364173
0.6596825 0.0039101 0.9434307
0.9781927 0.0039101 0.8493761
0.9960899 0.0039101 0.7373156
0.9960899 0.0039101 0.6635067
0.9960899 0.0039101 0.5925222
0.0039101 0.3382045 0.9390975
0.0039101 0.3379990 0.9391257
0.0039101 0.3357952 0.9394213
0.0266853 0.3222786 0.9409931
0.6368163 0.2509449 0.9455053
0.9776956 0.0039101 0.8536958
0.9960899 0.0039101 0.7387025
0.9960899 0.0039101 0.6642883
0.9960899 0.0039101 0.5929166
0.0039101 0.5971121 0.9477568
0.0039101 0.5970298 0.9477639
0.0039101 0.5961500 0.9478382
0.0039101 0.5909030 0.9482612
0.5317174 0.5679791 0.9497674
0.9743900 0.4456827 0.8723947
0.9960899 0.3121547 0.7446625
0.9960899 0.1894919 0.6676258
0.9960899 0.0039101 0.5945847
0.0039101 0.9586396 0.9222741
0.0039101 0.9586348 0.9222947
0.0039101 0.9585833 0.9225143
0.0039101 0.9582727 0.9238261
0.0039101 0.9568553 0.9295576
0.9507063 0.9507063 0.9507063
0.9934839 0.7507090 0.7685874
0.9960899 0.6515584 0.6809036
0.9960899 0.5577348 0.6008630
0.0039101 0.9870629 0.7671709
0.0039101 0.9870618 0.7671775
0.0039101 0.9870499 0.7672483
0.0039101 0.9869783 0.7676711
0.0039101 0.9866471 0.7695174
0.6651571 0.9850924 0.7767834
0.9846737 0.9747792 0.7691254
0.9960899 0.8934597 0.6843570
0.9960899 0.8439864 0.6076948
0.0039101 0.9953358 0.6622702
0.0039101 0.9953352 0.6622739
0.0039101 0.9953286 0.6623128
0.0039101 0.9952888 0.6625453
0.0039101 0.9951063 0.6635596
0.4195191 0.9942587 0.6675657
0.8990280 0.9928545 0.6704550
0.9941420 0.9800146 0.6530109
0.9960899 0.9348374 0.5954845
0.0039101 0.9960899 0.5736703
0.0039101 0.9960899 0.5736719
0.0039101 0.9960899 0.5736888
0.0039101 0.9960899 0.5737898
0.0039101 0.9960899 0.5742291
0.0039101 0.9960899 0.5759480
0.8316325 0.9960899 0.5786114
0.9572032 0.9960899 0.5765884
0.9960899 0.9820335 0.5573221
0.0039101 0.0039101 0.9554725
0.0039101 0.0039101 0.9555169
0.0039101 0.0039101 0.9559819
0.1471222 0.0039101 0.9584387
0.5677196 0.0039101 0.9654155
0.9751853 0.0039101 0.9745602
0.9960899 0.0039101 0.8660551
0.9960899 0.0039101 0.8220473
0.9960899 0.0039101 0.7908872
0.0039101 0.0039101 0.9555843
0.0039101 0.0039101 0.9556283
0.0039101 0.0039101 0.9560891
0.1435350 0.0039101 0.9585259
0.5674252 0.0039101 0.9654611
0.9751792 0.0039101 0.9746723
0.9960899 0.0039101 0.8661011
0.9960899 0.0039101 0.8220769
0.9960899 0.0039101 0.7909077
0.0039101 0.0273935 0.9567175
0.0039101 0.0250883 0.9567576
0.0039101 0.0075773 0.9571778
0.0238013 0.0039101 0.9594175
0.5642651 0.0039101 0.9659350
0.9744916 0.0039101 0.9752489
0.9960899 0.0039101 0.8665914
0.9960899 0.0039101 0.8223929
0.9960899 0.0039101 0.7911264
0.0039101 0.2948122 0.9618143
0.0039101 0.2946384 0.9618399
0.0039101 0.2927702 0.9621098
0.0039101 0.2811666 0.9635948
0.5448850 0.2165430 0.9683437
0.9678555 0.0039101 0.9761387
0.9960899 0.0039101 0.8695108
0.9960899 0.0039101 0.8242784
0.9960899 0.0039101 0.7924321
0.0039101 0.5275732 0.9717577
0.0039101 0.5275028 0.9717667
0.0039101 0.5267498 0.9718617
0.0039101 0.5222383 0.9724078
0.4476543 0.5022107 0.9744421
0.9380556 0.4240136 0.9789236
0.9960899 0.3028576 0.8821896
0.9960899 0.1721231 0.8325109
0.9960899 0.0039101 0.7981352
0.0039101 0.8660496 0.9806100
0.0039101 0.8660210 0.9806123
0.0039101 0.8657163 0.9806367
0.0039101 0.8638970 0.9807799
0.0039101 0.8559607 0.9813632
0.8157670 0.8261694 0.9830489
0.9925525 0.7507015 0.9334979
0.9960899 0.6523053 0.8665680
0.9960899 0.5589096 0.8214053
0.0039101 0.9871530 0.9496359
0.0039101 0.9871518 0.9496496
0.0039101 0.9871395 0.9497962
0.0039101 0.9870648 0.9506715
0.0039101 0.9867213 0.9544916
0.6418267 0.9851280 0.9695298
0.9830494 0.9830494 0.9830494
0.9960899 0.8997708 0.9059786
0.9960899 0.8499209 0.8601737
0.0039101 0.9955279 0.8933698
0.0039101 0.9955272 0.8933786
0.0039101 0.9955202 0.8934726
0.0039101 0.9954776 0.8940340
0.0039101 0.9952836 0.8964845
0.3712040 0.9943969 0.9061773
0.8865721 0.9929473 0.9185780
0.9927255 0.9889123 0.9183651
0.9960899 0.9426688 0.8732133
0.0039101 0.9960899 0.8528710
0.0039101 0.9960899 0.8528771
0.0039101 0.9960899 0.8529419
0.0039101 0.9960899 0.8533289
0.0039101 0.9960899 0.8550171
0.0039101 0.9960899 0.8616710
0.8168835 0.9960899 0.8738430
0.9455390 0.9960899 0.8777406
0.9960899 0.9912545 0.8722067
0.0039101 0.0039101 0.9645611
0.0039101 0.0039101 0.9645915
0.0039101 0.0039101 0.9649112
0.0039101 0.0039101 0.9666630
0.4957162 0.0039101 0.9722089
0.9080666 0.0039101 0.9818449
0.9960899 0.0039101 0.9137611
0.9960899 0.0039101 0.8717761
0.9960899 0.0039101 0.8473737
0.0039101 0.0039101 0.9646376
0.0039101 0.0039101 0.9646678
0.0039101 0.0039101 0.9649855
0.0039101 0.0039101 0.9667273
0.4954704 0.0039101 0.9722482
0.9079791 0.0039101 0.9818593
0.9960899 0.0039101 0.9138104
0.9960899 0.0039101 0.8718093
0.9960899 0.0039101 0.8473976
0.0039101 0.0039101 0.9654257
0.0039101 0.0039101 0.9654540
0.0039101 0.0039101 0.9657520
0.0039101 0.0039101 0.9673925
0.4928259 0.0039101 0.9726593
0.9070425 0.0039101 0.9820117
0.9960899 0.0039101 0.9143369
0.9960899 0.0039101 0.8721647
0.9960899 0.0039101 0.8476521
0.0039101 0.2628752 0.9692612
0.0039101 0.2627201 0.9692816
0.0039101 0.2610511 0.9694970
0.0039101 0.2506212 0.9707045
0.4763597 0.1899804 0.9748137
0.9013731 0.0039101 0.9828611
0.9960899 0.0039101 0.9174770
0.9960899 0.0039101 0.8742861
0.9960899 0.0039101 0.8491723
0.0039101 0.4791985 0.9781283
0.0039101 0.4791415 0.9781369
0.0039101 0.4785325 0.9782282
0.0039101 0.4748675 0.9787560
0.3880891 0.4582937 0.9807588
0.8753544 0.3859790 0.9856748
0.9960899 0.2821183 0.9311952
0.9960899 0.1461983 0.8835710
0.9960899 0.0039101 0.8558253
0.0039101 0.8116545 0.9880464
0.0039101 0.8116292 0.9880487
0.0039101 0.8113589 0.9880732
0.0039101 0.8097439 0.9882176
0.0039101 0.8026706 0.9888107
0.7598160 0.7750933 0.9906430
0.9920094 0.7387254 0.9881314
0.9960899 0.6459639 0.9221108
0.9960899 0.5575116 0.8830790
0.0039101 0.9688298 0.9901394
0.0039101 0.9688156 0.9901407
0.0039101 0.9686636 0.9901546
0.0039101 0.9677555 0.9902365
0.0039101 0.9637816 0.9905794
0.5943464 0.9479799 0.9917314
0.9279127 0.9315823 0.9924979
0.9960646 0.9012197 0.9706146
0.9960899 0.8516483 0.9296904
0.0039101 0.9955491 0.9576935
0.0039101 0.9955484 0.9577035
0.0039101 0.9955413 0.9578096
0.0039101 0.9954982 0.9584432
0.0039101 0.9953019 0.9612094
0.3391783 0.9944108 0.9721510
0.8812789 0.9929394 0.9868055
0.9921604 0.9921604 0.9921604
0.9960899 0.9454914 0.9488074
0.0039101 0.9960899 0.9274839
0.0039101 0.9960899 0.9274909
0.0039101 0.9960899 0.9275663
0.0039101 0.9960899 0.9280165
0.0039101 0.9960899 0.9299803
0.0039101 0.9960899 0.9377210
0.8109562 0.9960899 0.9520459
0.9410423 0.9960899 0.9573903
0.9960899 0.9948370 0.9577059
0.0039101 0.0039101 0.9694689
0.0039101 0.0039101 0.9694906
0.0039101 0.0039101 0.9697201
0.0039101 0.0039101 0.9710050
0.4281686 0.0039101 0.9753725
0.8309984 0.0039101 0.9843256
0.9960899 0.0039101 0.9447623
0.9960899 0.0039101 0.8980074
0.9960899 0.0039101 0.8747185
0.0039101 0.0039101 0.9695237
0.0039101 0.0039101 0.9695453
0.0039101 0.0039101 0.9697737
0.0039101 0.0039101 0.9710531
0.4279380 0.0039101 0.9754052
0.8309248 0.0039101 0.9843389
0.9960899 0.0039101 0.9448082
0.9960899 0.0039101 0.8980404
0.9960899 0.0039101 0.8747433
0.0039101 0.0039101 0.9700929
0.0039101 0.0039101 0.9701135
0.0039101 0.0039101 0.9703313
0.0039101 0.0039101 0.9715546
0.4254570 0.0039101 0.9757483
0.8301360 0.0039101 0.9844793
0.9960899 0.0039101 0.9452991
0.9960899 0.0039101 0.8983925
0.9960899 0.0039101 0.8750087
0.0039101 0.2341285 0.9730032
0.0039101 0.2339831 0.9730192
0.0039101 0.2324178 0.9731891
0.0039101 0.2225904 0.9741535
0.4099457 0.1624749 0.9775880
0.8253526 0.0039101 0.9852702
0.9960899 0.0039101 0.9482310
0.9960899 0.0039101 0.9004957
0.9960899 0.0039101 0.8765932
0.0039101 0.4331307 0.9805879
0.0039101 0.4330820 0.9805957
0.0039101 0.4325600 0.9806789
0.0039101 0.4294151 0.9811612
0.3232606 0.4151183 0.9830227
0.8031666 0.3477115 0.9879959
0.9960195 0.2327498 0.9611039
0.9960899 0.0039101 0.9097149
0.9960899 0.0039101 0.8835331
0.0039101 0.7505516 0.9907589
0.0039101 0.7505304 0.9907611
0.0039101 0.7503029 0.9907852
0.0039101 0.7489422 0.9909274
0.0039101 0.7429592 0.9915155
0.6976460 0.7186903 0.9934252
0.9710390 0.6869124 0.9947880
0.9960899 0.6234668 0.9479965
0.9960899 0.5501556 0.9119742
0.0039101 0.9396209 0.9941123
0.0039101 0.9396081 0.9941135
0.0039101 0.9394703 0.9941261
0.0039101 0.9386474 0.9942008
0.0039101 0.9350462 0.9945146
0.5188767 0.9206976 0.9955899
0.8975997 0.9033779 0.9960899
0.9895411 0.8935272 0.9960899
0.9960899 0.8508270 0.9626111
0.0039101 0.9954051 0.9895029
0.0039101 0.9954044 0.9895131
0.0039101 0.9953974 0.9896214
0.0039101 0.9953553 0.9902681
0.0039101 0.9951640 0.9930913
0.2664458 0.9858307 0.9956964
0.8558068 0.9698869 0.9960899
0.9614488 0.9634151 0.9960899
0.9960899 0.9465723 0.9843799
0.0039101 0.9960899 0.9616870
0.0039101 0.9960899 0.9616944
0.0039101 0.9960899 0.9617737
0.0039101 0.9960899 0.9622472
0.0039101 0.9960899 0.9643124
0.0039101 0.9960899 0.9724525
0.8067150 0.9960899 0.9877539
0.9385131 0.9960899 0.9936753
0.9960899 0.9960899 0.9960899
