LUTS_for_Software_DaVinci_Premiere_Avid_FinalCutPro/DaVinci-Resolve-with-Video-Range-Tag/5-NBCU_PQ2SDR_DL_RESOLVE17-VRT_v1.2.cube
TITLE "PQ-BT.2100 to SDR-BT.709 Display-Light Conversion 3D Look-Up-Table"
#
# PLEASE DO NOT ALTER THE LINES BELOW
# 
# Copyright 2023 NBCUniversal, LLC - Please do not remove this line
#
# Version 1.2 (fix for unicode character which was preventing loading in some devices)
#
# Built using tools from and in collaboration with Cromorama and Nick Shaw - the creators of ORION-CONVERT
#
# MaxRGB 2-stage highlight compression knee
#
# Parameters designed by Chris Seeger, NBCU Advanced Technology (chris.seeger@nbcuni.com)
# In collaboration with Michael Drazin, NBCU Sports Group (michael.drazin@nbcuni.com)
#
# 58% PQ maps to 94% SDR (before highlight compression)
# Highlight compression from 94% to 109% SDR
# Stage 1 Pre-rolled-off HDR highlights
# Stage 2 Post-Rolled off converted SDR highlights
#
# Sophisticated Highlight Knee REQUIRES the use of devices using Tetrehedral Interpolation
#
# No Matrix Compensation (so make sure your device is using the correct matrix)
# Type III LUT - Full Range Processing for Narrow Range Signals
#
# Unscaled code values in and out
# RESOLVE 17 VIDEO RANGE TAGS
LUT_IN_VIDEO_RANGE
LUT_OUT_VIDEO_RANGE
LUT_3D_SIZE 5
0.0204129 0.0204129 0.0204129
0.2538238 0.0039101 0.0137374
0.8400845 0.0039101 0.0039101
0.9960899 0.0039101 0.0039101
0.9960899 0.0039101 0.0039101
0.0039101 0.2248154 0.0039101
0.2210292 0.2168161 0.0039101
0.8377097 0.0039101 0.0039101
0.9960899 0.0039101 0.0039101
0.9960899 0.0039101 0.0039101
0.0039101 0.7437871 0.0039101
0.0039101 0.7427495 0.0039101
0.7284829 0.7114762 0.0039101
0.9960899 0.3199999 0.0039101
0.9960899 0.0039101 0.0039101
0.0039101 0.9867463 0.0039101
0.0039101 0.9867346 0.0039101
0.0039101 0.9863673 0.0039101
0.9867763 0.9632004 0.0039101
0.9960899 0.8386984 0.0039101
0.0039101 0.9960899 0.0039101
0.0039101 0.9960899 0.0039101
0.0039101 0.9960899 0.0039101
0.8423090 0.9960899 0.0039101
0.9960899 0.9757862 0.0039101
0.0039101 0.0171710 0.2239332
0.2501865 0.0039101 0.2227931
0.8397934 0.0039101 0.1793852
0.9960899 0.0039101 0.0039101
0.9960899 0.0039101 0.0039101
0.0039101 0.2242964 0.2174667
0.2162589 0.2162589 0.2162589
0.8374111 0.0039101 0.1697514
0.9960899 0.0039101 0.0039101
0.9960899 0.0039101 0.0039101
0.0039101 0.7437176 0.0039101
0.0039101 0.7426798 0.0039101
0.7278566 0.7114018 0.0039101
0.9960899 0.3199362 0.0039101
0.9960899 0.0039101 0.0039101
0.0039101 0.9867491 0.0039101
0.0039101 0.9867374 0.0039101
0.0039101 0.9863698 0.0039101
0.9867597 0.9632933 0.0039101
0.9960899 0.8387412 0.0039101
0.0039101 0.9960899 0.0039101
0.0039101 0.9960899 0.0039101
0.0039101 0.9960899 0.0039101
0.8422225 0.9960899 0.0039101
0.9960899 0.9758367 0.0039101
0.0039101 0.0039101 0.7402192
0.0039101 0.0039101 0.7400671
0.8308845 0.0039101 0.7219894
0.9960899 0.0039101 0.4331799
0.9960899 0.0039101 0.3395616
0.0039101 0.2080022 0.7393753
0.0039101 0.1985746 0.7392229
0.8282639 0.0039101 0.7222987
0.9960899 0.0039101 0.4328716
0.9960899 0.0039101 0.3392700
0.0039101 0.7416880 0.7141006
0.0039101 0.7406459 0.7139398
0.7092288 0.7092288 0.7092288
0.9960899 0.3180610 0.4232497
0.9960899 0.0039101 0.3301988
0.0039101 0.9868288 0.3544009
0.0039101 0.9868168 0.3542731
0.0039101 0.9864402 0.3504688
0.9862708 0.9660165 0.3107725
0.9960899 0.8399916 0.1654724
0.0039101 0.9960899 0.0039101
0.0039101 0.9960899 0.0039101
0.0039101 0.9960899 0.0039101
0.8396936 0.9960899 0.0039101
0.9960899 0.9773151 0.0039101
0.0039101 0.0039101 0.9554725
0.0039101 0.0039101 0.9559819
0.5677196 0.0039101 0.9654155
0.9960899 0.0039101 0.8660551
0.9960899 0.0039101 0.7908872
0.0039101 0.0273935 0.9567175
0.0039101 0.0075773 0.9571778
0.5642651 0.0039101 0.9659350
0.9960899 0.0039101 0.8665914
0.9960899 0.0039101 0.7911264
0.0039101 0.5275732 0.9717577
0.0039101 0.5267498 0.9718617
0.4476543 0.5022107 0.9744421
0.9960899 0.3028576 0.8821896
0.9960899 0.0039101 0.7981352
0.0039101 0.9871530 0.9496359
0.0039101 0.9871395 0.9497962
0.0039101 0.9867213 0.9544916
0.9830494 0.9830494 0.9830494
0.9960899 0.8499209 0.8601737
0.0039101 0.9960899 0.8528710
0.0039101 0.9960899 0.8529419
0.0039101 0.9960899 0.8550171
0.8168835 0.9960899 0.8738430
0.9960899 0.9912545 0.8722067
0.0039101 0.0039101 0.9694689
0.0039101 0.0039101 0.9697201
0.4281686 0.0039101 0.9753725
0.9960899 0.0039101 0.9447623
0.9960899 0.0039101 0.8747185
0.0039101 0.0039101 0.9700929
0.0039101 0.0039101 0.9703313
0.4254570 0.0039101 0.9757483
0.9960899 0.0039101 0.9452991
0.9960899 0.0039101 0.8750087
0.0039101 0.4331307 0.9805879
0.0039101 0.4325600 0.9806789
0.3232606 0.4151183 0.9830227
0.9960195 0.2327498 0.9611039
0.9960899 0.0039101 0.8835331
0.0039101 0.9396209 0.9941123
0.0039101 0.9394703 0.9941261
0.0039101 0.9350462 0.9945146
0.8975997 0.9033779 0.9960899
0.9960899 0.8508270 0.9626111
0.0039101 0.9960899 0.9616870
0.0039101 0.9960899 0.9617737
0.0039101 0.9960899 0.9643124
0.8067150 0.9960899 0.9877539
0.9960899 0.9960899 0.9960899
