3D_Type_III_Cube_LUTS_for_Software/HLG-to-from-SDR - Type III For Most Hardware/____OLD/1-NBCU_SDR2HLG_DL_v1.cube
TITLE "SDR-BT.709 to HLG-BT.2100 Display-Light Conversion 3D Look-Up-Table"
# PLEASE DO NOT ALTER THE LINES BELOW
# 
# © 2020 NBCUniversal, LLC - Please do not remove this line
#
# Built using tools from and in collaboration with Cromorama and Nick Shaw - the creators of ORION-CONVERT
#
# Parameters designed by Chris Seeger, NBCU Advanced Technology (chris.seeger@nbcuni.com)
# In collaboration with Michael Drazin, NBCU Sports Group (michael.drazin@nbcuni.com)
#
# 100% SDR maps to 75% HLG 
# SDR 100-109% preserved into HLG above 75% (preserves additional color volume from SDR)
#
# Display-Light Conversion (absolute chromaticity is preserved from input to output)
# Display-Light Conversion preserves original artistic intent
#
# No Matrix Compensation (so make sure your device is using the correct matrix)
#
# Type III LUT - Full Range Processing for Narrow Range Signals
LUT_3D_SIZE 5
0.0067838 0.0067838 0.0067838
0.2137570 0.0717872 0.0171198
0.4140731 0.1718870 0.1001905
0.5912920 0.2420683 0.1429604
0.7002339 0.3100758 0.1787159
0.1538953 0.2272301 0.0884072
0.2268487 0.2297727 0.0962425
0.4149684 0.2498612 0.1226637
0.5912352 0.2908904 0.1535923
0.7001540 0.3436695 0.1854389
0.2905570 0.4471045 0.1756371
0.3188618 0.4478083 0.1768699
0.4463576 0.4527758 0.1841577
0.5980200 0.4659666 0.1987548
0.7017270 0.4895641 0.2192266
0.4230908 0.6239713 0.2464582
0.4386760 0.6241893 0.2470798
0.5206004 0.6256131 0.2508783
0.6232890 0.6291652 0.2591103
0.7108924 0.6356847 0.2719438
0.5477651 0.7303427 0.3155514
0.5557220 0.7304385 0.3159485
0.5972589 0.7310487 0.3183943
0.6619081 0.7325128 0.3238072
0.7297124 0.7351646 0.3325490
0.0215041 -0.0003550 0.3053360
0.2143135 0.0852110 0.2420943
0.4143656 0.1728772 0.2240387
0.5913993 0.2425550 0.2270761
0.7002808 0.3103848 0.2405900
0.1602852 0.2268715 0.2318096
0.2296750 0.2296750 0.2296750
0.4156016 0.2501376 0.2260858
0.5913963 0.2911846 0.2310427
0.7002130 0.3439090 0.2444424
0.2924202 0.4469855 0.2439972
0.3204574 0.4477037 0.2443976
0.4472262 0.4527369 0.2471325
0.5982994 0.4660001 0.2540951
0.7018293 0.4896398 0.2662061
0.4240759 0.6239336 0.2875904
0.4396079 0.6241533 0.2880124
0.5212225 0.6255859 0.2906324
0.6235624 0.6291529 0.2965265
0.7110186 0.6356874 0.3061952
0.5482696 0.7303260 0.3433914
0.5561980 0.7304222 0.3437200
0.5976082 0.7310344 0.3457512
0.6621195 0.7325023 0.3502902
0.7298330 0.7351592 0.3577323
0.1534802 0.0849068 0.5242780
0.2287571 0.1141020 0.5117003
0.4170897 0.1788419 0.4767351
0.5921876 0.2455552 0.4530177
0.7005981 0.3122960 0.4414140
0.1912190 0.2266947 0.4943978
0.2461110 0.2303011 0.4889875
0.4198573 0.2520443 0.4689678
0.5924787 0.2930347 0.4511725
0.7006008 0.3453980 0.4415456
0.3035353 0.4463700 0.4571924
0.3300553 0.4471674 0.4564284
0.4525662 0.4525662 0.4525662
0.6000360 0.4662393 0.4474455
0.7024704 0.4901214 0.4443921
0.4301023 0.6237136 0.4554007
0.4453148 0.6239429 0.4553475
0.5250159 0.6254286 0.4551269
0.6252467 0.6290845 0.4551969
0.7118008 0.6357093 0.4565299
0.5513557 0.7302257 0.4757751
0.5591115 0.7303240 0.4758776
0.5997533 0.7309483 0.4765344
0.6634223 0.7324397 0.4781340
0.7305786 0.7351269 0.4810963
0.2162142 0.1319903 0.6870468
0.2628541 0.1437323 0.6833398
0.4262690 0.1911650 0.6676699
0.5945616 0.2521839 0.6498075
0.7014601 0.3165731 0.6355376
0.2376362 0.2311170 0.6765106
0.2775835 0.2350180 0.6739958
0.4306283 0.2570577 0.6622999
0.5953258 0.2973189 0.6473044
0.7015969 0.3487735 0.6344596
0.3263020 0.4456127 0.6493926
0.3500902 0.4465414 0.6486167
0.4643229 0.4525601 0.6443680
0.6039617 0.4669576 0.6372813
0.7039560 0.4912802 0.6297619
0.4432106 0.6232970 0.6331308
0.4577639 0.6235456 0.6328948
0.5331900 0.6251387 0.6315296
0.6289757 0.6289757 0.6289757
0.7135590 0.6357862 0.6259079
0.5580605 0.7300171 0.6292954
0.5654533 0.7301197 0.6292344
0.6044634 0.7307700 0.6288803
0.6663128 0.7323119 0.6282204
0.7322458 0.7350642 0.6274762
0.2758082 0.1661030 0.7891042
0.3078193 0.1733556 0.7874061
0.4445488 0.2089075 0.7788697
0.5996265 0.2627703 0.7664548
0.7032492 0.3235955 0.7543741
0.2899962 0.2416821 0.7839315
0.3193812 0.2453636 0.7825490
0.4496685 0.2661841 0.7753727
0.6008359 0.3046116 0.7643797
0.7035524 0.3544284 0.7532213
0.3591901 0.4456987 0.7654078
0.3797543 0.4467581 0.7647851
0.4831078 0.4534134 0.7612711
0.6104816 0.4685946 0.7549822
0.7065326 0.4933925 0.7475475
0.4638054 0.6228147 0.7487281
0.4774132 0.6230898 0.7484759
0.5458084 0.6248307 0.7469894
0.6350001 0.6289198 0.7440559
0.7164757 0.6359923 0.7401374
0.5685525 0.7297190 0.7388512
0.5754090 0.7298284 0.7387462
0.6119679 0.7305179 0.7381169
0.6710018 0.7321366 0.7368226
0.7349887 0.7349887 0.7349887
