3D_Type_III_Cube_LUTS_for_Software/HLG-to-from-SDR - Type III For Most Hardware/____OLD/1-NBCU_SDR2HLG_DL_v1.cube
TITLE "SDR-BT.709 to HLG-BT.2100 Display-Light Conversion 3D Look-Up-Table"
# PLEASE DO NOT ALTER THE LINES BELOW
# 
# © 2020 NBCUniversal, LLC - Please do not remove this line
#
# Built using tools from and in collaboration with Cromorama and Nick Shaw - the creators of ORION-CONVERT
#
# Parameters designed by Chris Seeger, NBCU Advanced Technology (chris.seeger@nbcuni.com)
# In collaboration with Michael Drazin, NBCU Sports Group (michael.drazin@nbcuni.com)
#
# 100% SDR maps to 75% HLG 
# SDR 100-109% preserved into HLG above 75% (preserves additional color volume from SDR)
#
# Display-Light Conversion (absolute chromaticity is preserved from input to output)
# Display-Light Conversion preserves original artistic intent
#
# No Matrix Compensation (so make sure your device is using the correct matrix)
#
# Type III LUT - Full Range Processing for Narrow Range Signals
LUT_3D_SIZE 9
0.0067838 0.0067838 0.0067838
0.0918720 0.0083328 0.0051205
0.2137570 0.0717872 0.0171198
0.3137075 0.1335370 0.0415542
0.4140731 0.1718870 0.1001905
0.5133793 0.2074721 0.1233999
0.5912920 0.2420683 0.1429604
0.6511769 0.2761991 0.1611724
0.7002339 0.3100758 0.1787159
0.0274950 0.1172678 0.0081959
0.1164553 0.1183134 0.0122621
0.2131159 0.1310378 0.0243907
0.3134963 0.1561702 0.0546211
0.4139499 0.1858698 0.1040878
0.5133021 0.2172871 0.1255939
0.5912496 0.2494744 0.1444867
0.6511502 0.2820591 0.1623328
0.7002157 0.3148713 0.1796443
0.1538953 0.2272301 0.0884072
0.1671156 0.2275288 0.0896252
0.2268487 0.2297727 0.0962425
0.3171453 0.2367805 0.1083009
0.4149684 0.2498612 0.1226637
0.5135177 0.2683482 0.1379283
0.5912352 0.2908904 0.1535923
0.6510913 0.3162879 0.1694586
0.7001540 0.3436695 0.1854389
0.2234827 0.3371862 0.1377474
0.2299073 0.3373335 0.1380442
0.2662253 0.3383392 0.1399299
0.3366345 0.3412728 0.1445503
0.4242290 0.3471132 0.1519038
0.5175448 0.3565263 0.1615423
0.5926975 0.3696350 0.1729065
0.6516655 0.3861499 0.1855125
0.7003786 0.4055948 0.1989991
0.2905570 0.4471045 0.1756371
0.2945636 0.4471966 0.1758030
0.3188618 0.4478083 0.1768699
0.3722356 0.4495024 0.1795800
0.4463576 0.4527758 0.1841577
0.5292412 0.4581359 0.1906013
0.5980200 0.4659666 0.1987548
0.6542776 0.4764481 0.2083816
0.7017270 0.4895641 0.2192266
0.3569587 0.5493412 0.2114371
0.3597757 0.5493922 0.2115493
0.3773570 0.5497273 0.2122739
0.4185305 0.5506290 0.2141337
0.4801000 0.5523117 0.2173374
0.5485932 0.5550012 0.2219739
0.6083631 0.5588988 0.2280385
0.6600549 0.5641331 0.2354553
0.7050712 0.5707331 0.2441018
0.4230908 0.6239713 0.2464582
0.4252174 0.6240002 0.2465415
0.4386760 0.6241893 0.2470798
0.4713197 0.6246917 0.2484676
0.5206004 0.6256131 0.2508783
0.5731494 0.6270658 0.2544116
0.6232890 0.6291652 0.2591103
0.6692864 0.6320137 0.2649691
0.7108924 0.6356847 0.2719438
0.4890905 0.6822272 0.2811072
0.4907735 0.6822457 0.2811725
0.5012694 0.6823663 0.2815949
0.5254522 0.6826844 0.2826862
0.5601957 0.6832608 0.2845900
0.6002993 0.6841586 0.2873989
0.6415714 0.6854448 0.2911679
0.6815778 0.6871860 0.2959199
0.7192071 0.6894419 0.3016498
0.5477651 0.7303427 0.3155514
0.5488542 0.7303555 0.3156046
0.5557220 0.7304385 0.3159485
0.5721719 0.7306566 0.3168383
0.5972589 0.7310487 0.3183943
0.6281681 0.7316537 0.3206987
0.6619081 0.7325128 0.3238072
0.6962198 0.7336691 0.3277529
0.7297124 0.7351646 0.3325490
0.0085530 0.0067004 0.1126883
0.0973554 0.0077510 0.1167224
0.2137256 0.0746247 0.1153813
0.3137545 0.1337875 0.1207291
0.4141092 0.1720198 0.1313795
0.5134038 0.2075605 0.1443928
0.5913060 0.2421334 0.1586079
0.6511859 0.2762500 0.1734895
0.7002401 0.3101172 0.1887689
0.0329590 0.1166788 0.1199015
0.1182294 0.1182294 0.1182294
0.2133417 0.1312277 0.1174609
0.3135777 0.1563193 0.1231596
0.4139955 0.1859755 0.1333397
0.5133300 0.2173651 0.1459336
0.5912647 0.2495347 0.1598386
0.6511597 0.2821074 0.1744949
0.7002221 0.3149111 0.1896077
0.1547845 0.2271739 0.1293874
0.1678622 0.2274793 0.1296686
0.2272295 0.2297550 0.1315424
0.3173131 0.2367990 0.1364575
0.4150520 0.2498975 0.1445320
0.5135619 0.2683889 0.1550856
0.5912565 0.2909297 0.1673443
0.6511035 0.3163237 0.1807318
0.7001618 0.3437015 0.1948703
0.2238895 0.3371599 0.1560534
0.2302939 0.3373081 0.1562581
0.2665205 0.3383196 0.1575769
0.3368206 0.3412641 0.1609293
0.4243420 0.3471160 0.1665594
0.5176079 0.3565378 0.1743605
0.5927284 0.3696517 0.1840088
0.6516828 0.3861691 0.1951204
0.7003892 0.4056147 0.2073488
0.2908074 0.4470882 0.1869941
0.2948082 0.4471806 0.1871348
0.3190759 0.4477940 0.1880426
0.3723990 0.4494919 0.1903671
0.4464739 0.4527704 0.1943479
0.5293106 0.4581357 0.2000486
0.5980573 0.4659710 0.2073932
0.6542994 0.4764559 0.2162125
0.7017406 0.4895742 0.2262956
0.3571338 0.5493322 0.2194143
0.3599487 0.5493834 0.2195169
0.3775173 0.5497190 0.2201798
0.4186659 0.5506219 0.2218857
0.4802069 0.5523065 0.2248377
0.5486578 0.5549983 0.2291369
0.6084019 0.5588982 0.2348019
0.6600792 0.5641344 0.2417838
0.7050871 0.5707360 0.2499845
0.4232227 0.6239662 0.2524786
0.4253484 0.6239952 0.2525574
0.4388008 0.6241845 0.2530669
0.4714312 0.6246873 0.2543815
0.5206837 0.6256094 0.2566694
0.5732046 0.6270631 0.2600317
0.6233256 0.6291636 0.2645178
0.6693110 0.6320131 0.2701326
0.7109092 0.6356850 0.2768429
0.4891948 0.6822239 0.2858710
0.4908772 0.6822424 0.2859339
0.5013655 0.6823631 0.2863410
0.5255327 0.6826814 0.2873932
0.5602577 0.6832582 0.2892303
0.6003447 0.6841565 0.2919441
0.6416040 0.6854431 0.2955916
0.6816012 0.6871850 0.3001994
0.7192240 0.6894414 0.3057671
0.5478326 0.7303405 0.3194499
0.5489212 0.7303532 0.3195017
0.5557857 0.7304363 0.3198367
0.5722283 0.7306545 0.3207036
0.5973057 0.7310468 0.3222203
0.6282050 0.7316520 0.3244679
0.6619364 0.7325114 0.3275026
0.6962412 0.7336680 0.3313586
0.7297286 0.7351639 0.3360514
0.0215041 -0.0003550 0.3053360
0.1185527 0.0133957 0.2705780
0.2143135 0.0852110 0.2420943
0.3141454 0.1353868 0.2290500
0.4143656 0.1728772 0.2240387
0.5135707 0.2081325 0.2238597
0.5913993 0.2425550 0.2270761
0.6512451 0.2765794 0.2328460
0.7002808 0.3103848 0.2405900
0.0922557 0.1165891 0.2534754
0.1284161 0.1189976 0.2498068
0.2150538 0.1325381 0.2379396
0.3141660 0.1572903 0.2283681
0.4143103 0.1866604 0.2242236
0.5135178 0.2178706 0.2243122
0.5913653 0.2499252 0.2276085
0.6512220 0.2824204 0.2333874
0.7002643 0.3151692 0.2411115
0.1602852 0.2268715 0.2318096
0.1725310 0.2272158 0.2314661
0.2296750 0.2296750 0.2296750
0.3184094 0.2369323 0.2271704
0.4156016 0.2501376 0.2260858
0.5138519 0.2686546 0.2273629
0.5913963 0.2911846 0.2310427
0.6511836 0.3165559 0.2368493
0.7002130 0.3439090 0.2444424
0.2264921 0.3369986 0.2318026
0.2327694 0.3371530 0.2317976
0.2684189 0.3382000 0.2318052
0.3380240 0.3412133 0.2320870
0.4250744 0.3471377 0.2331971
0.5180176 0.3566141 0.2356594
0.5929292 0.3697607 0.2397427
0.6517950 0.3862938 0.2454712
0.7004584 0.4057441 0.2527234
0.2924202 0.4469855 0.2439972
0.2963851 0.4470797 0.2440499
0.3204574 0.4477037 0.2443976
0.3734546 0.4494257 0.2453447
0.4472262 0.4527369 0.2471325
0.5297593 0.4581359 0.2499933
0.5982994 0.4660001 0.2540951
0.6544411 0.4765067 0.2595069
0.7018293 0.4896398 0.2662061
0.3582652 0.5492749 0.2635190
0.3610661 0.5493266 0.2635794
0.3785531 0.5496656 0.2639716
0.4195408 0.5505767 0.2649974
0.4808989 0.5522735 0.2668246
0.5490755 0.5549798 0.2695910
0.6086530 0.5588941 0.2734001
0.6602367 0.5641431 0.2783102
0.7051899 0.5707548 0.2843297
0.4240759 0.6239336 0.2875904
0.4261950 0.6239628 0.2876468
0.4396079 0.6241533 0.2880124
0.4721525 0.6246591 0.2889616
0.5212225 0.6255859 0.2906324
0.5735620 0.6270457 0.2931284
0.6235624 0.6291529 0.2965265
0.6694703 0.6320093 0.3008757
0.7110186 0.6356874 0.3061952
0.4898696 0.6822030 0.3145490
0.4915471 0.6822216 0.3145991
0.5019864 0.6823429 0.3149236
0.5260526 0.6826624 0.3157647
0.5606586 0.6832414 0.3172411
0.6006389 0.6841425 0.3194393
0.6418155 0.6854326 0.3224237
0.6817526 0.6871781 0.3262387
0.7193333 0.6894382 0.3309083
0.5482696 0.7303260 0.3433914
0.5493548 0.7303389 0.3434353
0.5561980 0.7304222 0.3437200
0.5725935 0.7306410 0.3444575
0.5976082 0.7310344 0.3457512
0.6284438 0.7316411 0.3476766
0.6621195 0.7325023 0.3502902
0.6963797 0.7336610 0.3536333
0.7298330 0.7351592 0.3577323
0.1167350 0.0279159 0.3990699
0.1407680 0.0340903 0.3948278
0.2186776 0.0993749 0.3777519
0.3156937 0.1393500 0.3589683
0.4151929 0.1750749 0.3456881
0.5140616 0.2096094 0.3373105
0.5916616 0.2436462 0.3326857
0.6514076 0.2774329 0.3309983
0.7003907 0.3110785 0.3316920
0.1285112 0.1211414 0.3873051
0.1481415 0.1234640 0.3846630
0.2205231 0.1362023 0.3725482
0.3160774 0.1598263 0.3569661
0.4152662 0.1884366 0.3449585
0.5140583 0.2191806 0.3371091
0.5916454 0.2509374 0.3327270
0.6513922 0.2832317 0.3311591
0.7003780 0.3158382 0.3319132
0.1728909 0.2264839 0.3600399
0.1835137 0.2268983 0.3593659
0.2358452 0.2296985 0.3555529
0.3213122 0.2373732 0.3486167
0.4170849 0.2507938 0.3415752
0.5146350 0.2693555 0.3362491
0.5917728 0.2918503 0.3331562
0.6513980 0.3171598 0.3322616
0.7003493 0.3444479 0.3333672
0.2329931 0.3366484 0.3444718
0.2389703 0.3368168 0.3443039
0.2732330 0.3379463 0.3432859
0.3411206 0.3411206 0.3411206
0.4269795 0.3472170 0.3384987
0.5190869 0.3568244 0.3363128
0.5934559 0.3700500 0.3352050
0.6520901 0.3866206 0.3354924
0.7006400 0.4060815 0.3372649
0.2965333 0.4467390 0.3415334
0.3004089 0.4468374 0.3414974
0.3239936 0.4474878 0.3412782
0.3761703 0.4492692 0.3408158
0.4491707 0.4526614 0.3403113
0.5309196 0.4581441 0.3401059
0.5989282 0.4660805 0.3405512
0.6548100 0.4766417 0.3419158
0.7020603 0.4898118 0.3443569
0.3611727 0.5491323 0.3474460
0.3639383 0.5491854 0.3474535
0.3812184 0.5495330 0.3475059
0.4217966 0.5504646 0.3476725
0.4826867 0.5521924 0.3480604
0.5501537 0.5549352 0.3488261
0.6093032 0.5588862 0.3501480
0.6606452 0.5641675 0.3521901
0.7054570 0.5708047 0.3550764
0.4262763 0.6238512 0.3597803
0.4283788 0.6238808 0.3598036
0.4416904 0.6240744 0.3599556
0.4740155 0.6245879 0.3603601
0.5226101 0.6255267 0.3611043
0.5744847 0.6270021 0.3622838
0.6241751 0.6291266 0.3640016
0.6698830 0.6320003 0.3663570
0.7113023 0.6356945 0.3694338
0.4916115 0.6821498 0.3768820
0.4932696 0.6821686 0.3769106
0.5035836 0.6822912 0.3770961
0.5273920 0.6826141 0.3775810
0.5616927 0.6831985 0.3784457
0.6013989 0.6841071 0.3797632
0.6423623 0.6854059 0.3816039
0.6821449 0.6871609 0.3840342
0.7196164 0.6894305 0.3871119
0.5493966 0.7302891 0.3975558
0.5504728 0.7303020 0.3975853
0.5572615 0.7303860 0.3977767
0.5735360 0.7306065 0.3982746
0.5983899 0.7310027 0.3991544
0.6290613 0.7316132 0.4004784
0.6625932 0.7324792 0.4023018
0.6967384 0.7336433 0.4046745
0.7301037 0.7351472 0.4076395
0.1534802 0.0849068 0.5242780
0.1673793 0.0909002 0.5222927
0.2287571 0.1141020 0.5117003
0.3195344 0.1457498 0.4940084
0.4170897 0.1788419 0.4767351
0.5151000 0.2121797 0.4630982
0.5921876 0.2455552 0.4530177
0.6517217 0.2789295 0.4459549
0.7005981 0.3122960 0.4414140
0.1597537 0.1296787 0.5181662
0.1725054 0.1316017 0.5165145
0.2310045 0.1425928 0.5074475
0.3202705 0.1642405 0.4915428
0.4173302 0.1915404 0.4754866
0.5151693 0.2214754 0.4624846
0.5921993 0.2527129 0.4527370
0.6517189 0.2846559 0.4458583
0.7005918 0.3170133 0.4414242
0.1912190 0.2266947 0.4943978
0.2000229 0.2271739 0.4936169
0.2461110 0.2303011 0.4889875
0.3265415 0.2384029 0.4797346
0.4198573 0.2520443 0.4689678
0.5161053 0.2706238 0.4591143
0.5924787 0.2930347 0.4511725
0.6517971 0.3182275 0.4453474
0.7006008 0.3453980 0.4415456
0.2436661 0.3362371 0.4704728
0.2491990 0.3364253 0.4701934
0.2813455 0.3376722 0.4684688
0.3464790 0.3410792 0.4645845
0.4303421 0.3474296 0.4592746
0.5209865 0.3572344 0.4536646
0.5944008 0.3705801 0.4486573
0.6526214 0.3872068 0.4447726
0.7009672 0.4066809 0.4422361
0.3035353 0.4463700 0.4571924
0.3072663 0.4464751 0.4570876
0.3300553 0.4471674 0.4564284
0.3808701 0.4490438 0.4548681
0.4525662 0.4525662 0.4525662
0.5329472 0.4581848 0.4499332
0.6000360 0.4662393 0.4474455
0.6554632 0.4768903 0.4455063
0.7024704 0.4901214 0.4443921
0.3661936 0.5489020 0.4528430
0.3689001 0.5489573 0.4528058
0.3858320 0.5493192 0.4525708
0.4257162 0.5502850 0.4520087
0.4858066 0.5520644 0.4511699
0.5520315 0.5548684 0.4502171
0.6104419 0.5588809 0.4493779
0.6613635 0.5642165 0.4488899
0.7059277 0.5708968 0.4489578
0.4301023 0.6237136 0.4554007
0.4321764 0.6237441 0.4553933
0.4453148 0.6239429 0.4553475
0.4772633 0.6244692 0.4552465
0.5250159 0.6254286 0.4551269
0.5760925 0.6269304 0.4550711
0.6252467 0.6290845 0.4551969
0.6706067 0.6319879 0.4556392
0.7118008 0.6357093 0.4565299
0.4946241 0.6820594 0.4634041
0.4962466 0.6820785 0.4634108
0.5063473 0.6822034 0.4634555
0.5297152 0.6825320 0.4635789
0.5634919 0.6831259 0.4638208
0.6027251 0.6840472 0.4642366
0.6433189 0.6853612 0.4648976
0.6828322 0.6871325 0.4658854
0.7201133 0.6894185 0.4672844
0.5513557 0.7302257 0.4757751
0.5524167 0.7302388 0.4757888
0.5591115 0.7303240 0.4758776
0.5751773 0.7305473 0.4761116
0.5997533 0.7309483 0.4765344
0.6301401 0.7315655 0.4771917
0.6634223 0.7324397 0.4781340
0.6973669 0.7336132 0.4794166
0.7305786 0.7351269 0.4810963
0.1855795 0.1123163 0.6177522
0.1951361 0.1149090 0.6168321
0.2439216 0.1289134 0.6114961
0.3264894 0.1542453 0.6010681
0.4206308 0.1842336 0.5889333
0.5169751 0.2159497 0.5774240
0.5931051 0.2483813 0.5674294
0.6522522 0.2811538 0.5591506
0.7009395 0.3141094 0.5525466
0.1897760 0.1405795 0.6148361
0.1988958 0.1421287 0.6140059
0.2461381 0.1513123 0.6091447
0.3274601 0.1705661 0.5994484
0.4210340 0.1960904 0.5879162
0.5171269 0.2248710 0.5768038
0.5931518 0.2553513 0.5670574
0.6522661 0.2867767 0.5589354
0.7009418 0.3187650 0.5524331
0.2132879 0.2281364 0.6011341
0.2204899 0.2286535 0.6006296
0.2602238 0.2319764 0.5975680
0.3344479 0.2403365 0.5909422
0.4242751 0.2540783 0.5822631
0.5184762 0.2725844 0.5732219
0.5936231 0.2948304 0.5648593
0.6524405 0.3198335 0.5576500
0.7010027 0.3468221 0.5517569
0.2581657 0.3360040 0.5827622
0.2631762 0.3362138 0.5825214
0.2927391 0.3375885 0.5810165
0.3542803 0.3412540 0.5775023
0.4353776 0.3478950 0.5723798
0.5238564 0.3579310 0.5664570
0.5958507 0.3714178 0.5605012
0.6534421 0.3881073 0.5550498
0.7014736 0.4075899 0.5504158
0.3135056 0.4459552 0.5683136
0.3170454 0.4460689 0.5681985
0.3387713 0.4468148 0.5674689
0.3877213 0.4488136 0.5656972
0.4575824 0.4525054 0.5629467
0.5359443 0.4583028 0.5595263
0.6016946 0.4665147 0.5558441
0.6564486 0.4772862 0.5522845
0.7030919 0.4905996 0.5491461
0.3734909 0.5486032 0.5593150
0.3761150 0.5486616 0.5592592
0.3925603 0.5490430 0.5589031
0.4314655 0.5500558 0.5580228
0.4904127 0.5519062 0.5566142
0.5547948 0.5547948 0.5547948
0.6121323 0.5588926 0.5527610
0.6624361 0.5643038 0.5507378
0.7066337 0.5710441 0.5489362
0.4357197 0.6235247 0.5553631
0.4377532 0.6235563 0.5553373
0.4506439 0.6237625 0.5551725
0.4820514 0.6243070 0.5547628
0.5285320 0.6252955 0.5541015
0.5784603 0.6268349 0.5532401
0.6268341 0.6290311 0.5522760
0.6716833 0.6319768 0.5513343
0.7125447 0.6357373 0.5505473
0.4990042 0.6819316 0.5557299
0.5005761 0.6819512 0.5557202
0.5103740 0.6820794 0.5556585
0.5331130 0.6824163 0.5555066
0.5661357 0.6830238 0.5552667
0.6046823 0.6839634 0.5549680
0.6447359 0.6852992 0.5546642
0.6838535 0.6870942 0.5544266
0.7208534 0.6894039 0.5543359
0.5542307 0.7301346 0.5596588
0.5552696 0.7301480 0.5596580
0.5618288 0.7302348 0.5596533
0.5775927 0.7304623 0.5596448
0.6017647 0.7308703 0.5596431
0.6317359 0.7314973 0.5596702
0.6646517 0.7323835 0.5597598
0.6983008 0.7335706 0.5599556
0.7312855 0.7350988 0.5603077
0.2162142 0.1319903 0.6870468
0.2233597 0.1337001 0.6865204
0.2628541 0.1437323 0.6833398
0.3367654 0.1643561 0.6765222
0.4262690 0.1911650 0.6676699
0.5199739 0.2209531 0.6584492
0.5945616 0.2521839 0.6498075
0.6530783 0.2841660 0.6421342
0.7014601 0.3165731 0.6355376
0.2193133 0.1528324 0.6853555
0.2262556 0.1540899 0.6848617
0.2648780 0.1617370 0.6818670
0.3378489 0.1786043 0.6753871
0.4268018 0.2020860 0.6668728
0.5202040 0.2294239 0.6579122
0.5946461 0.2589178 0.6494511
0.6531115 0.2896553 0.6419001
0.7014730 0.3211480 0.6353868
0.2376362 0.2311170 0.6765106
0.2435604 0.2316449 0.6761599
0.2775835 0.2350180 0.6739958
0.3451408 0.2434089 0.6691068
0.4306283 0.2570577 0.6622999
0.5219487 0.2753479 0.6547414
0.5953258 0.2973189 0.6473044
0.6533979 0.3220420 0.6404716
0.7015969 0.3487735 0.6344596
0.2758501 0.3362207 0.6624336
0.2803257 0.3364497 0.6622375
0.3071345 0.3379394 0.6610041
0.3645528 0.3418427 0.6580729
0.4422393 0.3487581 0.6536700
0.5278061 0.3590167 0.6483734
0.5978897 0.3726374 0.6427870
0.6546080 0.3893790 0.6373692
0.7021958 0.4088548 0.6324094
0.3263020 0.4456127 0.6493926
0.3296194 0.4457360 0.6492872
0.3500902 0.4465414 0.6486167
0.3967723 0.4486768 0.6469720
0.4643229 0.4525601 0.6443680
0.5399713 0.4585629 0.6410303
0.6039617 0.4669576 0.6372813
0.6578098 0.4778707 0.6334391
0.7039560 0.4912802 0.6297619
0.3830939 0.5482752 0.6395535
0.3856159 0.5483374 0.6394958
0.4014543 0.5487425 0.6391266
0.4391223 0.5498122 0.6382055
0.4965286 0.5517491 0.6367028
0.5584888 0.5547412 0.6346994
0.6144192 0.5589439 0.6323498
0.6638991 0.5644485 0.6298399
0.7076021 0.5712630 0.6273508
0.4432106 0.6232970 0.6331308
0.4451919 0.6233301 0.6330990
0.4577639 0.6235456 0.6328948
0.4884711 0.6241132 0.6323810
0.5331900 0.6251387 0.6315296
0.5816300 0.6267259 0.6303698
0.6289757 0.6289757 0.6289757
0.6731445 0.6319756 0.6274504
0.7135590 0.6357862 0.6259079
0.5047666 0.6817706 0.6298388
0.5062743 0.6817909 0.6298218
0.5156863 0.6819233 0.6297124
0.5376186 0.6822710 0.6294362
0.5696636 0.6828961 0.6289756
0.6073101 0.6838596 0.6283431
0.6466483 0.6852239 0.6275768
0.6852376 0.6870497 0.6267348
0.7218598 0.6893905 0.6258867
0.5580605 0.7300171 0.6292954
0.5590707 0.7300307 0.6292872
0.5654533 0.7301197 0.6292344
0.5808224 0.7303527 0.6291014
0.6044634 0.7307700 0.6288803
0.6338848 0.7314098 0.6285792
0.6663128 0.7323119 0.6282204
0.6995664 0.7335169 0.6278383
0.7322458 0.7350642 0.6274762
0.2461881 0.1495335 0.7425804
0.2518149 0.1508056 0.7422423
0.2844230 0.1585467 0.7401532
0.3501309 0.1756442 0.7354153
0.4342343 0.1994602 0.7287729
0.5243046 0.2271592 0.7213217
0.5966985 0.2569847 0.7138867
0.6542853 0.2880034 0.7069239
0.7022120 0.3197269 0.7006367
0.2486126 0.1658835 0.7414862
0.2541318 0.1669214 0.7411624
0.2862197 0.1733419 0.7391579
0.3512405 0.1880535 0.7345904
0.4348548 0.2094283 0.7281439
0.5245985 0.2351312 0.7208644
0.5968192 0.2634440 0.7135612
0.6543389 0.2933323 0.7066944
0.7022366 0.3242029 0.7004760
0.2633771 0.2356705 0.7353852
0.2683136 0.2361895 0.7351316
0.2975059 0.2395024 0.7335469
0.3585000 0.2477255 0.7298495
0.4390826 0.2610830 0.7244460
0.5266666 0.2789961 0.7181205
0.5977004 0.3005649 0.7115775
0.6547434 0.3249060 0.7052795
0.7024306 0.3512971 0.6994774
0.2960323 0.3371196 0.7244417
0.3000044 0.3373632 0.7242812
0.3241210 0.3389412 0.7232664
0.3771989 0.3430294 0.7208189
0.4510088 0.3501624 0.7170499
0.5329011 0.3605970 0.7123700
0.6005924 0.3743159 0.7072569
0.6561754 0.3910795 0.7021068
0.7031727 0.4105206 0.6971916
0.3416444 0.4454815 0.7129927
0.3447241 0.4456142 0.7128978
0.3638347 0.4464786 0.7122931
0.4079761 0.4487510 0.7107984
0.4728336 0.4528287 0.7083988
0.5450483 0.4590430 0.7052607
0.6068815 0.4676290 0.7016433
0.6595865 0.4786914 0.6978160
0.7050931 0.4921987 0.6940078
0.3949290 0.5479733 0.7033035
0.3973338 0.5480395 0.7032473
0.4124725 0.5484708 0.7028871
0.4486921 0.5496036 0.7019835
0.5040362 0.5516367 0.7004941
0.5631231 0.5547445 0.6984759
0.6173311 0.5590652 0.6960542
0.6657815 0.5646752 0.6933871
0.7088572 0.5715735 0.6906333
0.4525872 0.6230513 0.6959698
0.4545064 0.6230861 0.6959360
0.4666971 0.6233125 0.6957187
0.4964901 0.6239071 0.6951690
0.5389699 0.6249760 0.6942487
0.5856142 0.6266194 0.6929737
0.6316948 0.6289326 0.6914030
0.6750138 0.6319967 0.6896238
0.7148638 0.6358668 0.6877361
0.5118557 0.6815849 0.6909754
0.5132879 0.6816061 0.6909550
0.5222444 0.6817436 0.6908237
0.5432157 0.6821041 0.6904900
0.5740809 0.6827506 0.6899263
0.6106258 0.6837430 0.6891353
0.6490774 0.6851418 0.6881455
0.6870051 0.6870051 0.6870051
0.7231505 0.6893837 0.6857751
0.5628454 0.7298766 0.6881314
0.5638209 0.7298907 0.6881194
0.5699890 0.7299823 0.6880417
0.5848767 0.7302221 0.6878439
0.6078658 0.7306507 0.6875082
0.6366066 0.7313063 0.6870345
0.6684260 0.7322279 0.6864377
0.7011826 0.7334552 0.6857454
0.7334762 0.7350262 0.6849952
0.2758082 0.1661030 0.7891042
0.2803999 0.1671095 0.7888704
0.3078193 0.1733556 0.7874061
0.3661651 0.1877743 0.7839634
0.4445488 0.2089075 0.7788697
0.5300545 0.2344872 0.7728172
0.5996265 0.2627703 0.7664548
0.6559543 0.2926806 0.7602243
0.7032492 0.3235955 0.7543741
0.2777791 0.1794288 0.7883443
0.2823084 0.1803005 0.7881175
0.3094019 0.1857565 0.7866961
0.3672492 0.1986122 0.7833459
0.4452191 0.2179603 0.7783695
0.5303932 0.2419395 0.7724312
0.5997788 0.2689279 0.7661646
0.6560274 0.2978273 0.7600089
0.7032859 0.3279567 0.7542152
0.2899962 0.2416821 0.7839315
0.2941704 0.2421805 0.7837421
0.3193812 0.2453636 0.7825490
0.3742574 0.2532797 0.7796985
0.4496685 0.2661841 0.7753727
0.5326859 0.2835713 0.7700850
0.6008359 0.3046116 0.7643797
0.6565466 0.3284654 0.7586713
0.7035524 0.3544284 0.7532213
0.3181137 0.3388599 0.7753159
0.3216349 0.3391128 0.7751842
0.3432585 0.3407476 0.7743480
0.3920316 0.3449553 0.7723064
0.4616933 0.3522269 0.7690957
0.5391508 0.3627658 0.7650003
0.6040149 0.3765249 0.7603922
0.6581960 0.3932637 0.7556088
0.7044438 0.4126306 0.7509024
0.3591901 0.4456987 0.7654078
0.3620310 0.4458400 0.7653236
0.3797543 0.4467581 0.7647851
0.4212149 0.4491557 0.7634458
0.4831078 0.4534134 0.7612711
0.5511553 0.4598266 0.7583808
0.6104816 0.4685946 0.7549822
0.6618125 0.4797997 0.7513033
0.7065326 0.4933925 0.7475475
0.4088487 0.5477623 0.7562766
0.4111269 0.5478328 0.7562234
0.4255044 0.5482909 0.7558820
0.4601223 0.5494885 0.7550225
0.5128087 0.5516210 0.7535952
0.5686750 0.5548489 0.7516394
0.6208813 0.5592926 0.7492571
0.6681051 0.5650129 0.7465833
0.7104204 0.5719987 0.7437582
0.4638054 0.6228147 0.7487281
0.4656544 0.6228514 0.7486942
0.4774132 0.6230898 0.7484759
0.5058260 0.6237141 0.7479222
0.5458084 0.6248307 0.7469894
0.5904000 0.6265363 0.7456849
0.6350001 0.6289198 0.7440559
0.6773069 0.6320555 0.7421772
0.7164757 0.6359923 0.7401374
0.5201610 0.6813868 0.7429382
0.5215093 0.6814089 0.7429163
0.5299579 0.6815523 0.7427755
0.5498471 0.6819276 0.7424165
0.5793632 0.6825985 0.7418063
0.6146272 0.6836240 0.7409418
0.6520321 0.6850623 0.7398442
0.6891693 0.6869688 0.7385546
0.7247392 0.6893910 0.7371268
0.5685525 0.7297190 0.7388512
0.5694880 0.7297336 0.7388371
0.5754090 0.7298284 0.7387462
0.5897396 0.7300761 0.7385139
0.6119679 0.7305179 0.7381169
0.6399066 0.7311920 0.7375498
0.6710018 0.7321366 0.7368226
0.7031617 0.7333900 0.7359580
0.7349887 0.7349887 0.7349887
