LUTS_for_Hardware_Devices_TypeIII_CUBE_LUT_Format/7-NBCU-HLG2PQ_1000nit_v1.cube
TITLE "Generated by ORION-CONVERT 1.0b41"
# HLG 1000 nits to PQ
# Unscaled code values in and out
# HLG to PQ
# Display light mode
# HLG Peak =  1000 nits
# PLEASE DO NOT ALTER THE LINES BELOW
# 
# © 2020 NBCUniversal, LLC - Please do not remove this line
#
# Built using tools from and in collaboration with Cromorama and Nick Shaw - the creators of ORION-CONVERT
#
# Parameters designed by Chris Seeger, NBCU Advanced Technology (chris.seeger@nbcuni.com)
# In collaboration with Michael Drazin, NBCU Sports Group (michael.drazin@nbcuni.com)
#
# HLG 1000 nits to PQ
# Unscaled code values in and out
# HLG to PQ
# Display light mode
# HLG Peak =  1000 nits
#
# No Matrix Compensation (so make sure your device is using the correct matrix)
#
# Type III LUT - Full Range Processing for Narrow Range Signals
LUT_3D_SIZE 9
0.00391007 0.00391007 0.00391007
0.15776588 0.00391007 0.00391007
0.27428785 0.00391007 0.00391007
0.35965768 0.00391007 0.00391007
0.42241943 0.00391007 0.00391007
0.48748130 0.00391007 0.00391007
0.56491464 0.00391007 0.00391007
0.65026271 0.00391007 0.00391007
0.73961490 0.00391007 0.00391007
0.00391007 0.15568979 0.00391007
0.16215511 0.16215511 0.00391007
0.28170118 0.17133518 0.00391007
0.36271837 0.17832096 0.00391007
0.42410922 0.18352191 0.00391007
0.48841918 0.18887250 0.00391007
0.56539017 0.19520263 0.00391007
0.65048480 0.20221062 0.00391007
0.73971701 0.20970267 0.00391007
0.00391007 0.28995675 0.00391007
0.17726113 0.29105592 0.00391007
0.29471081 0.29471081 0.00391007
0.37102050 0.29991987 0.00391007
0.42952901 0.30520141 0.00391007
0.49173108 0.31160390 0.00391007
0.56716800 0.31999454 0.00391007
0.65135431 0.32982042 0.00391007
0.74011928 0.34056449 0.00391007
0.00391007 0.37514603 0.00391007
0.18553710 0.37561208 0.00391007
0.30542746 0.37734529 0.00391007
0.38031802 0.38031802 0.00391007
0.43685719 0.38391885 0.00391007
0.49691334 0.38901350 0.00391007
0.57027614 0.39664009 0.00391007
0.65298295 0.40649509 0.00391007
0.74089897 0.41790628 0.00391007
0.00391007 0.43849069 0.00391007
0.19128884 0.43875143 0.00391007
0.31353480 0.43974060 0.00391007
0.38832003 0.44156289 0.00391007
0.44396928 0.44396928 0.00391007
0.50260353 0.44771782 0.00391007
0.57412875 0.45397508 0.00391007
0.65518939 0.46293268 0.00391007
0.74200928 0.47406724 0.00391007
0.00391007 0.50418711 0.00391007
0.19704701 0.50432938 0.00391007
0.32187706 0.50488669 0.00391007
0.39706779 0.50595486 0.00391007
0.45232326 0.50744289 0.00391007
0.50993311 0.50993311 0.00391007
0.57968771 0.51452869 0.00391007
0.65872818 0.52189994 0.00391007
0.74392706 0.53201467 0.00391007
0.00391007 0.58222032 0.00391007
0.20375891 0.58229405 0.00391007
0.33169168 0.58257681 0.00391007
0.40771866 0.58313048 0.00391007
0.46298778 0.58393604 0.00391007
0.51998049 0.58534580 0.00391007
0.58819664 0.58819664 0.00391007
0.66488093 0.59335411 0.00391007
0.74765909 0.60144508 0.00391007
0.00391007 0.66794795 0.00391007
0.21112363 0.66798222 0.00391007
0.34244996 0.66811651 0.00391007
0.41959214 0.66838241 0.00391007
0.47521067 0.66877717 0.00391007
0.53207242 0.66949010 0.00391007
0.59936279 0.67101026 0.00391007
0.67405325 0.67405325 0.00391007
0.75406837 0.67952013 0.00391007
0.00391007 0.75737709 0.00391007
0.21895745 0.75739014 0.00391007
0.35380185 0.75745237 0.00391007
0.43219689 0.75757349 0.00391007
0.48835656 0.75775361 0.00391007
0.54541606 0.75808454 0.00391007
0.61236918 0.75882238 0.00391007
0.68581712 0.76038235 0.00391007
0.76349628 0.76349628 0.00391007
0.00391007 0.00391007 0.16218878
0.15576544 0.00391007 0.15576544
0.27514133 0.00391007 0.16722739
0.35995215 0.00391007 0.17679262
0.42257336 0.00391007 0.18271862
0.48756593 0.00391007 0.18844022
0.56495970 0.00391007 0.19498773
0.65027934 0.00391007 0.20210858
0.73962444 0.00391007 0.20965530
0.00391007 0.15770793 0.15770793
0.16307995 0.16307995 0.16307995
0.28218263 0.17163889 0.17163889
0.36295858 0.17845328 0.17845328
0.42425185 0.18359536 0.18359536
0.48850197 0.18891205 0.18891205
0.56542826 0.19522306 0.19522306
0.65050417 0.20222004 0.20222004
0.73972660 0.20970692 0.20970692
0.00391007 0.29021120 0.17672379
0.17741218 0.29129082 0.17741218
0.29488948 0.29488948 0.17971355
0.37116003 0.30004010 0.18302757
0.42962840 0.30528486 0.18642578
0.49180022 0.31165501 0.19058742
0.56720626 0.32002282 0.19610626
0.65137094 0.32983443 0.20265590
0.74012887 0.34057114 0.20991284
0.00391007 0.37525168 0.18533409
0.18559635 0.37571490 0.18559635
0.30550864 0.37743667 0.18657082
0.38039064 0.38039064 0.18825245
0.43691942 0.38398001 0.19030668
0.49696484 0.38905546 0.19323033
0.57030743 0.39666554 0.19766048
0.65299964 0.40651309 0.20347270
0.74090219 0.41791135 0.21031487
0.00391007 0.43854785 0.19118230
0.19131984 0.43880683 0.19131984
0.31358030 0.43979436 0.19185148
0.38836345 0.44161150 0.19283158
0.44401455 0.44401455 0.19413273
0.50264102 0.44775069 0.19616796
0.57415539 0.45399737 0.19960053
0.65520334 0.46294221 0.20458204
0.74201572 0.47407112 0.21088609
0.00391007 0.50421852 0.19699009
0.19706447 0.50436503 0.19706447
0.32190305 0.50492227 0.19735469
0.39709800 0.50598437 0.19791223
0.45234731 0.50747240 0.19869058
0.50995648 0.50995648 0.19999923
0.57970726 0.51454365 0.20242971
0.65874225 0.52190864 0.20637387
0.74393666 0.53201687 0.21187864
0.00391007 0.58223999 0.20372972
0.20376705 0.58231127 0.20376705
0.33170450 0.58259159 0.20391242
0.40773341 0.58314764 0.20419814
0.46300110 0.58395082 0.20461209
0.51999354 0.58536315 0.20534401
0.58820403 0.58820403 0.20682184
0.66488945 0.59336412 0.20952387
0.74766546 0.60145020 0.21381798
0.00391007 0.66795367 0.21111006
0.21112791 0.66799074 0.21112791
0.34245396 0.66812229 0.21119647
0.41959891 0.66839099 0.21133508
0.47521263 0.66878289 0.21153894
0.53207910 0.66949862 0.21191092
0.59937036 0.67101890 0.21270378
0.67405903 0.67405903 0.21429902
0.75407165 0.67952603 0.21719052
0.00391007 0.75737709 0.21895070
0.21895972 0.75739342 0.21895972
0.35380602 0.75745237 0.21899201
0.43220040 0.75757349 0.21905662
0.48835859 0.75776023 0.21915358
0.54542065 0.75808787 0.21933191
0.61237437 0.75882566 0.21972609
0.68582004 0.76038563 0.22056444
0.76349956 0.76349956 0.22224674
0.00391007 0.00391007 0.25801766
0.14820272 0.00391007 0.24385691
0.27806813 0.00391007 0.27806813
0.36107183 0.00391007 0.29129082
0.42318112 0.00391007 0.30005258
0.48789650 0.00391007 0.30863160
0.56512141 0.00391007 0.31845748
0.65035701 0.00391007 0.32907832
0.73965961 0.00391007 0.34021747
0.00391007 0.16269429 0.26782441
0.16596049 0.16596049 0.27310315
0.28394634 0.17275101 0.28394634
0.36388275 0.17896554 0.29372242
0.42480046 0.18388256 0.30136293
0.48881307 0.18907215 0.30934104
0.56559247 0.19530225 0.31880942
0.65058196 0.20225966 0.32924363
0.73976171 0.20972602 0.34029293
0.00391007 0.29119027 0.29119027
0.17798775 0.29219544 0.29219544
0.29558206 0.29558206 0.29558206
0.37170407 0.30051470 0.30051470
0.43002442 0.30560729 0.30560729
0.49206284 0.31185603 0.31185603
0.56735188 0.32013339 0.32013339
0.65144885 0.32989055 0.32989055
0.74016404 0.34059498 0.34059498
0.00391007 0.37567019 0.30396706
0.18582471 0.37612209 0.30436051
0.30582440 0.37779957 0.30582440
0.38069022 0.38069022 0.30834979
0.43717372 0.38422024 0.31143513
0.49715635 0.38923100 0.31582353
0.57043236 0.39677200 0.32245424
0.65306938 0.40657032 0.33109808
0.74094057 0.41794005 0.34118405
0.00391007 0.43878359 0.31274897
0.19144261 0.43903556 0.31295803
0.31375530 0.44000936 0.31375530
0.38854483 0.44180411 0.31522590
0.44417939 0.44417939 0.31717601
0.50278288 0.44788238 0.32022560
0.57425702 0.45409214 0.32534802
0.65526772 0.46299729 0.33274359
0.74204773 0.47410235 0.34202334
0.00391007 0.50434828 0.32145301
0.19713049 0.50449067 0.32156423
0.32199955 0.50504601 0.32199955
0.39719984 0.50609779 0.32282898
0.45245275 0.50757784 0.32399258
0.51004976 0.51004976 0.32594162
0.57978064 0.51461649 0.32955417
0.65879005 0.52195871 0.33538985
0.74396557 0.53204358 0.34347373
0.00391007 0.58230138 0.33148128
0.20379964 0.58237273 0.33153644
0.33175331 0.58265799 0.33175331
0.40778428 0.58320922 0.33217600
0.46305430 0.58401006 0.33278871
0.52004552 0.58541751 0.33387068
0.58825380 0.58825380 0.33605021
0.66492641 0.59339923 0.34002563
0.74768806 0.60147315 0.34630620
0.00391007 0.66798502 0.34234858
0.21114290 0.66801649 0.34237659
0.34247795 0.66815370 0.34247795
0.41962436 0.66841960 0.34267953
0.47524396 0.66881150 0.34297878
0.53210801 0.66952443 0.34352195
0.59939069 0.67104185 0.34468269
0.67408204 0.67408204 0.34700617
0.75408792 0.67953771 0.35120893
0.00391007 0.75739014 0.35375744
0.21896572 0.75740647 0.35376853
0.35381570 0.75746542 0.35381570
0.43221095 0.75759315 0.35390869
0.48837072 0.75777000 0.35404891
0.54543209 0.75810099 0.35430732
0.61238736 0.75883549 0.35487634
0.68583184 0.76039881 0.35608757
0.76350945 0.76350945 0.35850659
0.00391007 0.00391007 0.32599065
0.16355529 0.00391007 0.33539635
0.28244740 0.00391007 0.35082546
0.36309171 0.00391007 0.36309171
0.42433089 0.00391007 0.37224174
0.48854434 0.00391007 0.38158470
0.56545681 0.00391007 0.39250752
0.65051526 0.00391007 0.40441492
0.73972976 0.00391007 0.41691470
0.00391007 0.16786225 0.34350589
0.16973078 0.16973078 0.34698719
0.28688234 0.17460732 0.35597011
0.36557490 0.17990682 0.36557490
0.42584312 0.18442966 0.37365130
0.48942789 0.18938257 0.38237053
0.56591147 0.19546203 0.39290169
0.65073192 0.20233560 0.40460190
0.73983508 0.20976208 0.41700062
0.00391007 0.29295051 0.36299154
0.17903513 0.29383290 0.36400759
0.29686472 0.29686472 0.36750576
0.37273744 0.30141312 0.37273744
0.43078971 0.30622780 0.37826201
0.49257013 0.31225264 0.38515520
0.56764334 0.32035226 0.39438200
0.65159345 0.32999891 0.40532631
0.74023432 0.34064931 0.41733766
0.00391007 0.37647450 0.37647450
0.18626899 0.37690210 0.37690210
0.30643848 0.37850249 0.37850249
0.38127667 0.38127667 0.38127667
0.43767399 0.38468736 0.38468736
0.49753967 0.38956997 0.38956997
0.57067746 0.39698505 0.39698505
0.65320319 0.40668479 0.40668479
0.74100453 0.41799918 0.41799918
0.00391007 0.43923590 0.38614666
0.19168293 0.43948102 0.38637462
0.31410083 0.44043440 0.38726324
0.38889858 0.44218245 0.38889858
0.44450933 0.44450933 0.39107770
0.50306046 0.44814953 0.39448619
0.57445067 0.45427245 0.40022916
0.65538526 0.46310943 0.40852690
0.74211180 0.47415704 0.41893783
0.00391007 0.50460166 0.39586407
0.19726264 0.50474000 0.39598456
0.32219151 0.50528723 0.39647335
0.39740521 0.50633329 0.39740521
0.45265269 0.50779086 0.39870873
0.51023424 0.51023424 0.40089291
0.57992500 0.51476002 0.40495005
0.65889138 0.52205223 0.41149813
0.74402016 0.53209913 0.42056218
0.00391007 0.58243418 0.40711370
0.20386620 0.58250058 0.40717432
0.33184960 0.58278096 0.40741521
0.40789101 0.58332741 0.40789101
0.46316263 0.58412349 0.40858114
0.52015173 0.58552635 0.40979224
0.58834571 0.58834571 0.41224030
0.66499746 0.59346950 0.41669753
0.74773651 0.60151899 0.42373326
0.00391007 0.66804510 0.41930214
0.21117434 0.66807938 0.41933435
0.34252334 0.66821086 0.41944456
0.41967359 0.66847962 0.41967359
0.47529289 0.66886878 0.42000973
0.53215694 0.66957885 0.42062002
0.59944654 0.67109638 0.42191708
0.67412543 0.67412543 0.42451832
0.75412053 0.67957258 0.42921713
0.00391007 0.75741637 0.43206525
0.21898149 0.75743604 0.43207753
0.35383654 0.75749820 0.43213195
0.43223730 0.75761610 0.43223730
0.48839292 0.75779629 0.43239185
0.54545498 0.75813043 0.43267652
0.61241072 0.75886172 0.43331519
0.68585533 0.76042509 0.43466297
0.76352930 0.76352930 0.43736234
0.00391007 0.00391007 0.39386943
0.16994819 0.00391007 0.39752623
0.28707221 0.00391007 0.40704328
0.36569324 0.00391007 0.41728541
0.42591909 0.00391007 0.42591909
0.48947239 0.00391007 0.43523246
0.56593525 0.00391007 0.44647825
0.65074581 0.00391007 0.45894021
0.73983836 0.00391007 0.47210824
0.00391007 0.17217796 0.40198869
0.17332968 0.17332968 0.40427515
0.29032546 0.17679538 0.41110361
0.36780936 0.18115182 0.41956329
0.42729402 0.18519402 0.42729402
0.49031320 0.18983093 0.43603331
0.56638563 0.19569756 0.44688857
0.65096241 0.20245124 0.45913398
0.73994046 0.20981658 0.47219956
0.00391007 0.29521829 0.41719270
0.18040268 0.29596311 0.41811913
0.29858801 0.29858801 0.42137283
0.37417001 0.30266094 0.42640102
0.43187752 0.30711368 0.43187752
0.49331075 0.31282899 0.43888009
0.56807125 0.32067472 0.44843152
0.65181321 0.33016354 0.45989501
0.74033648 0.34072754 0.47255531
0.00391007 0.37760755 0.43008727
0.18689492 0.37800518 0.43051347
0.30730873 0.37950251 0.43211967
0.38211343 0.38211343 0.43492106
0.43839967 0.38536552 0.43839967
0.49809676 0.39006504 0.44342822
0.57103819 0.39729694 0.45114836
0.65340680 0.40685174 0.46132490
0.74110681 0.41808197 0.47325018
0.00391007 0.43989828 0.43989828
0.19203395 0.44012949 0.44012949
0.31460562 0.44104674 0.44104674
0.38941908 0.44273984 0.44273984
0.44499195 0.44499195 0.44499195
0.50346768 0.44853964 0.44853964
0.57475102 0.45454770 0.45454770
0.65556723 0.46326718 0.46326718
0.74220467 0.47424296 0.47424296
0.00391007 0.50497681 0.44997332
0.19745719 0.50511312 0.45010388
0.32247534 0.50564826 0.45061380
0.39770952 0.50667197 0.45158577
0.45295274 0.50810111 0.45295274
0.51050586 0.51050586 0.45524040
0.58014774 0.51496994 0.45950115
0.65903783 0.52218938 0.46639931
0.74410367 0.53217918 0.47595900
0.00391007 0.58262354 0.46177742
0.20396407 0.58268994 0.46183991
0.33199218 0.58297044 0.46209767
0.40804699 0.58351463 0.46259657
0.46332043 0.58430111 0.46332043
0.52030784 0.58568716 0.46459845
0.58848506 0.58848506 0.46717989
0.66510272 0.59357250 0.47187907
0.74780434 0.60158777 0.47930169
0.00391007 0.66813660 0.47462586
0.21122147 0.66817367 0.47466105
0.34259275 0.66830528 0.47478226
0.41975161 0.66856551 0.47501889
0.47537315 0.66895747 0.47537315
0.53223699 0.66966486 0.47601393
0.59951758 0.67117399 0.47738299
0.67419177 0.67419177 0.48012865
0.75416940 0.67962211 0.48508844
0.00391007 0.75746220 0.48808816
0.21900328 0.75747526 0.48810026
0.35386986 0.75753421 0.48815474
0.43227240 0.75765538 0.48826978
0.48843127 0.75783551 0.48843127
0.54549611 0.75816983 0.48873425
0.61244971 0.75890106 0.48940158
0.68588775 0.76045471 0.49082860
0.76355904 0.76355904 0.49366823
0.00391007 0.00391007 0.45981020
0.17565766 0.00391007 0.46159559
0.29285255 0.00391007 0.46730086
0.36961100 0.00391007 0.47497585
0.42852625 0.00391007 0.48239818
0.49108660 0.00391007 0.49108660
0.56680769 0.00391007 0.50214076
0.65117639 0.00391007 0.51478350
0.74003947 0.00391007 0.52834523
0.00391007 0.17685322 0.46408561
0.17753239 0.17753239 0.46549213
0.29503271 0.17980506 0.47017005
0.37127170 0.18309143 0.47686195
0.42971036 0.18646932 0.48365033
0.49185315 0.19061454 0.49185315
0.56723493 0.19612232 0.50255549
0.65138489 0.20266263 0.51498282
0.74013203 0.20991778 0.52843571
0.00391007 0.29863763 0.47489959
0.18249595 0.29921797 0.47565913
0.30131504 0.30131504 0.47839546
0.37653875 0.30472451 0.48283643
0.43373632 0.30862808 0.48789248
0.49461758 0.31384525 0.49461758
0.56885147 0.32126161 0.50410551
0.65221953 0.33046362 0.51576585
0.74052817 0.34087211 0.52881098
0.00391007 0.37952963 0.48621991
0.18796226 0.37988129 0.48661584
0.30880317 0.38120991 0.48812044
0.38357192 0.38357192 0.49078396
0.43967256 0.38655493 0.49415079
0.49909911 0.39095584 0.49909911
0.57170254 0.39786574 0.50684249
0.65377516 0.40716448 0.51723039
0.74128914 0.41824082 0.52952468
0.00391007 0.44106472 0.49561203
0.19265550 0.44128585 0.49584198
0.31550220 0.44214100 0.49674657
0.39034870 0.44373032 0.49841478
0.44586265 0.44586265 0.50065780
0.50421011 0.44924206 0.50421011
0.57529157 0.45504102 0.51029789
0.65589488 0.46356770 0.51922709
0.74238092 0.47439724 0.53055191
0.00391007 0.50565666 0.50565666
0.19781069 0.50579101 0.50579101
0.32299045 0.50630802 0.50630802
0.39826462 0.50728899 0.50728899
0.45349419 0.50867575 0.50867575
0.51100701 0.51100701 0.51100701
0.58055180 0.51535809 0.51535809
0.65931380 0.52245069 0.52245069
0.74426109 0.53232819 0.53232819
0.00391007 0.58297789 0.51769584
0.20414640 0.58304435 0.51776057
0.33225957 0.58332002 0.51802373
0.40834275 0.58384985 0.51853538
0.46361908 0.58462197 0.51928335
0.52059847 0.58598655 0.52059847
0.58874118 0.58874118 0.52325302
0.66530472 0.59376580 0.52810711
0.74793351 0.60171264 0.53578871
0.00391007 0.66830814 0.53095317
0.21131077 0.66833955 0.53098428
0.34271958 0.66847390 0.53111070
0.41989085 0.66873139 0.53135705
0.47552004 0.66911781 0.53172129
0.53238600 0.66982245 0.53238600
0.59965980 0.67131478 0.53380531
0.67431593 0.67431593 0.53664768
0.75426388 0.67971528 0.54178393
0.00391007 0.75753742 0.54489523
0.21904460 0.75755388 0.54490894
0.35392952 0.75761610 0.54496831
0.43233562 0.75773400 0.54508024
0.48849788 0.75791425 0.54525155
0.54556471 0.75824189 0.54556471
0.61251730 0.75897330 0.54626024
0.68595833 0.76052374 0.54773241
0.76361519 0.76361519 0.55068076
0.00391007 0.00391007 0.53715301
0.18196605 0.00391007 0.53800315
0.30061361 0.00391007 0.54104716
0.37591770 0.00391007 0.54591459
0.43324476 0.00391007 0.55139518
0.49426743 0.00391007 0.55859387
0.56863838 0.00391007 0.56863838
0.65210825 0.00391007 0.58086795
0.74047387 0.00391007 0.59444433
0.00391007 0.18256067 0.53926986
0.18291619 0.18291619 0.54002661
0.30187216 0.18421264 0.54276502
0.37703681 0.18634526 0.54724348
0.43413845 0.18881960 0.55238175
0.49490437 0.19217363 0.55926323
0.56902158 0.19701661 0.56902158
0.65231144 0.20312554 0.58106405
0.74057299 0.21014243 0.59453738
0.00391007 0.30414584 0.54586428
0.18593815 0.30453494 0.54639077
0.30598009 0.30598009 0.54835743
0.38083860 0.30847892 0.55174232
0.43730003 0.31153849 0.55586672
0.49725321 0.31589845 0.56171370
0.57049245 0.32250014 0.57049245
0.65310282 0.33112371 0.58183461
0.74095333 0.34119600 0.59490979
0.00391007 0.38315368 0.55447024
0.18999156 0.38343447 0.55480325
0.31167999 0.38449889 0.55605578
0.38643625 0.38643625 0.55833334
0.44224373 0.38895604 0.56129104
0.50117099 0.39280269 0.56579483
0.57311827 0.39907819 0.57311827
0.65459085 0.40785652 0.58329046
0.74170196 0.41858575 0.59563512
0.00391007 0.44344270 0.56260723
0.19392583 0.44363442 0.56281787
0.31733891 0.44437513 0.56363279
0.39226279 0.44577351 0.56516188
0.44767573 0.44767573 0.56724685
0.50578260 0.45073909 0.57059819
0.57646185 0.45611542 0.57646185
0.65662372 0.46422282 0.58527660
0.74276876 0.47474706 0.59667194
0.00391007 0.50710988 0.57197952
0.19856492 0.50722998 0.57210243
0.32409239 0.50770438 0.57259679
0.39944646 0.50861657 0.57354343
0.45466676 0.50990134 0.57488430
0.51208556 0.51208556 0.57715505
0.58143687 0.51620835 0.58143687
0.65992266 0.52302182 0.58849746
0.74461466 0.53265756 0.59847277
0.00391007 0.58375120 0.58375120
0.20454518 0.58381528 0.58381528
0.33284155 0.58407915 0.58407915
0.40898278 0.58458745 0.58458745
0.46427235 0.58533347 0.58533347
0.52123028 0.58664542 0.58664542
0.58930880 0.58930880 0.58930880
0.66574591 0.59420043 0.59420043
0.74822432 0.60199308 0.60199308
0.00391007 0.66868567 0.59707868
0.21150531 0.66871709 0.59711146
0.34300551 0.66884583 0.59723532
0.42021018 0.66910350 0.59748811
0.47584727 0.66948152 0.59785998
0.53271544 0.67016941 0.59853357
0.59997219 0.67163658 0.59997219
0.67458737 0.67458737 0.60286582
0.75446928 0.67991918 0.60810095
0.00391007 0.75771105 0.61127633
0.21913704 0.75772744 0.61129707
0.35406142 0.75778645 0.61135155
0.43248495 0.75790441 0.61146826
0.48865545 0.75808454 0.61164469
0.54572475 0.75841236 0.61196399
0.61267585 0.75913084 0.61267585
0.68610245 0.76066846 0.61418319
0.76373738 0.76373738 0.61719435
0.00391007 0.00391007 0.62222522
0.18871205 0.00391007 0.62261671
0.30986235 0.00391007 0.62410843
0.38461533 0.00391007 0.62677312
0.44060311 0.00391007 0.63016838
0.49983838 0.00391007 0.63522351
0.57219887 0.00391007 0.64322537
0.65406001 0.00391007 0.65406001
0.74142998 0.00391007 0.66694289
0.00391007 0.18899542 0.62322032
0.18917026 0.18917026 0.62359399
0.31051132 0.18983828 0.62500858
0.38526109 0.19104306 0.62755466
0.44118157 0.19259979 0.63082570
0.50030494 0.19495523 0.63572413
0.57251722 0.19877508 0.64355451
0.65424436 0.20409739 0.65424436
0.74152589 0.21063258 0.66703421
0.00391007 0.31175968 0.62674117
0.19080269 0.31198344 0.62705040
0.31283975 0.31283975 0.62823302
0.38760945 0.31440479 0.63039362
0.44331431 0.31646615 0.63323063
0.50205743 0.31965697 0.63760054
0.57373929 0.32495967 0.64480710
0.65495992 0.33251178 0.65495992
0.74189407 0.34190083 0.66739672
0.00391007 0.38914555 0.63225025
0.19339268 0.38933671 0.63247633
0.31656554 0.39007282 0.63336813
0.39145452 0.39145452 0.63503146
0.44690681 0.39332145 0.63727742
0.50511104 0.39631775 0.64086354
0.57595646 0.40152580 0.64707989
0.65630966 0.40931061 0.65630966
0.74260205 0.41935298 0.66810513
0.00391007 0.44782019 0.63830179
0.19628631 0.44796839 0.63846767
0.32076958 0.44854513 0.63911539
0.39588466 0.44964242 0.64035022
0.45116866 0.45116866 0.64206111
0.50888294 0.45369649 0.64489228
0.57885188 0.45831239 0.65004903
0.65817392 0.46561641 0.65817392
0.74361879 0.47551808 0.66911495
0.00391007 0.51000732 0.64608699
0.20007858 0.51010704 0.64619452
0.32630622 0.51051223 0.64662182
0.40184024 0.51129186 0.64745814
0.45705232 0.51240301 0.64864147
0.51431030 0.51431030 0.65067631
0.58328557 0.51799566 0.65458524
0.66122705 0.52425790 0.66122705
0.74538326 0.53338599 0.67087245
0.00391007 0.58538789 0.65673870
0.20539001 0.58545214 0.65680039
0.33407906 0.58569211 0.65704453
0.41034067 0.58615738 0.65752751
0.46566424 0.58684373 0.65822452
0.52259016 0.58805501 0.65946317
0.59053564 0.59053564 0.66199899
0.66670901 0.59514642 0.66670901
0.74886113 0.60261816 0.67433321
0.00391007 0.66951013 0.66951013
0.21193531 0.66954166 0.66954166
0.34363043 0.66966486 0.66966486
0.42089915 0.66991138 0.66991138
0.47656730 0.67027557 0.67027557
0.53344178 0.67093277 0.67093277
0.60066873 0.67234707 0.67234707
0.67519420 0.67519420 0.67519420
0.75492918 0.68037671 0.68037671
0.00391007 0.75809771 0.68353629
0.21934395 0.75811410 0.68355089
0.35436016 0.75816983 0.68361247
0.43281364 0.75828785 0.68372673
0.48900306 0.75846159 0.68389970
0.54607707 0.75878298 0.68421936
0.61302698 0.75949192 0.68492669
0.68643206 0.76100075 0.68643206
0.76402158 0.76402158 0.68944764
0.00391007 0.00391007 0.71154779
0.19581293 0.00391007 0.71171927
0.32007930 0.00391007 0.71241456
0.39515147 0.00391007 0.71372449
0.45045358 0.00391007 0.71553248
0.50824261 0.00391007 0.71851373
0.57835156 0.00391007 0.72388941
0.65784216 0.00391007 0.73226994
0.74343264 0.00391007 0.74343264
0.00391007 0.19594570 0.71199787
0.19602853 0.19602853 0.71217245
0.32039288 0.19635259 0.71284372
0.39548540 0.19696939 0.71412683
0.45077962 0.19782761 0.71589905
0.50853413 0.19924964 0.71882623
0.57858092 0.20185249 0.72412336
0.65799403 0.20599209 0.73241830
0.74351609 0.21165925 0.74351609
0.00391007 0.32101858 0.71370912
0.19684400 0.32113081 0.71386570
0.32158029 0.32158029 0.71448028
0.39675134 0.32243565 0.71565878
0.45201069 0.32363114 0.71729612
0.50964922 0.32562646 0.72002798
0.57946032 0.32931104 0.72503787
0.65857613 0.33522859 0.73300910
0.74384350 0.34338269 0.74384350
0.00391007 0.39762822 0.71671909
0.19828844 0.39773819 0.71684867
0.32368967 0.39817521 0.71737957
0.39901260 0.39901260 0.71839309
0.45424086 0.40019545 0.71981716
0.51168960 0.40219533 0.72222024
0.58111066 0.40596896 0.72673923
0.65969431 0.41218212 0.73413831
0.74448609 0.42095876 0.74448609
0.00391007 0.45483243 0.72049004
0.20011629 0.45493111 0.72059548
0.32636288 0.45531681 0.72103310
0.40190318 0.45605564 0.72186887
0.45711035 0.45711035 0.72305745
0.51436812 0.45892513 0.72510034
0.58333236 0.46242958 0.72903842
0.66126376 0.46840647 0.73571670
0.74540585 0.47713518 0.74540585
0.00391007 0.51519507 0.72599125
0.20281699 0.51527226 0.72607261
0.33031419 0.51557481 0.72639483
0.40621069 0.51616323 0.72702742
0.46144792 0.51701289 0.72793967
0.51850080 0.51850080 0.72953510
0.58688837 0.52146935 0.73270255
0.66388088 0.52676630 0.73835546
0.74702001 0.53493130 0.74702001
0.00391007 0.58863175 0.73450249
0.20707101 0.58868396 0.73455316
0.33653831 0.58888304 0.73476225
0.41304901 0.58927643 0.73516798
0.46844497 0.58985704 0.73576111
0.52532625 0.59089279 0.73682499
0.59303290 0.59303290 0.73902476
0.66872275 0.59711903 0.74322087
0.75022739 0.60395235 0.75022739
0.00391007 0.67125726 0.74576962
0.21284451 0.67128885 0.74579531
0.34495038 0.67139804 0.74591130
0.42236644 0.67162228 0.74613672
0.47809386 0.67195004 0.74646866
0.53498280 0.67255718 0.74707490
0.60214865 0.67385125 0.74837941
0.67649674 0.67649674 0.75103152
0.75592494 0.68137169 0.75592494
0.00391007 0.75894374 0.75894374
0.21979704 0.75895685 0.75895685
0.35501283 0.75900936 0.75900936
0.43353891 0.75912416 0.75912416
0.48976195 0.75928831 0.75928831
0.54685360 0.75960028 0.75960028
0.61379224 0.76027709 0.76027709
0.68715662 0.76172179 0.76172179
0.76463979 0.76463979 0.76463979
