LUTS_for_Hardware_Devices_TypeIII_CUBE_LUT_Format/7-NBCU-HLG2PQ_1000nit_v1.cube
TITLE "Generated by ORION-CONVERT 1.0b41"
# HLG 1000 nits to PQ
# Unscaled code values in and out
# HLG to PQ
# Display light mode
# HLG Peak =  1000 nits
# PLEASE DO NOT ALTER THE LINES BELOW
# 
# © 2020 NBCUniversal, LLC - Please do not remove this line
#
# Built using tools from and in collaboration with Cromorama and Nick Shaw - the creators of ORION-CONVERT
#
# Parameters designed by Chris Seeger, NBCU Advanced Technology (chris.seeger@nbcuni.com)
# In collaboration with Michael Drazin, NBCU Sports Group (michael.drazin@nbcuni.com)
#
# HLG 1000 nits to PQ
# Unscaled code values in and out
# HLG to PQ
# Display light mode
# HLG Peak =  1000 nits
#
# No Matrix Compensation (so make sure your device is using the correct matrix)
#
# Type III LUT - Full Range Processing for Narrow Range Signals
LUT_3D_SIZE 33
0.00391007 0.00391007 0.00391007
0.00489455 0.00391007 0.00391007
0.06249424 0.00391007 0.00391007
0.11919202 0.00391007 0.00391007
0.15776588 0.00391007 0.00391007
0.17977794 0.00391007 0.00391007
0.21210405 0.00391007 0.00391007
0.24634135 0.00391007 0.00391007
0.27428785 0.00391007 0.00391007
0.29882604 0.00391007 0.00391007
0.32091254 0.00391007 0.00391007
0.34107780 0.00391007 0.00391007
0.35965768 0.00391007 0.00391007
0.37690511 0.00391007 0.00391007
0.39300698 0.00391007 0.00391007
0.40811104 0.00391007 0.00391007
0.42241943 0.00391007 0.00391007
0.43728584 0.00391007 0.00391007
0.45312881 0.00391007 0.00391007
0.46988395 0.00391007 0.00391007
0.48748130 0.00391007 0.00391007
0.50585616 0.00391007 0.00391007
0.52493411 0.00391007 0.00391007
0.54464412 0.00391007 0.00391007
0.56491464 0.00391007 0.00391007
0.58567482 0.00391007 0.00391007
0.60686207 0.00391007 0.00391007
0.62840939 0.00391007 0.00391007
0.65026271 0.00391007 0.00391007
0.67235571 0.00391007 0.00391007
0.69464779 0.00391007 0.00391007
0.71708012 0.00391007 0.00391007
0.73961490 0.00391007 0.00391007
0.00391007 0.00720955 0.00391007
0.00954435 0.00954435 0.00391007
0.06250177 0.01066782 0.00391007
0.11282352 0.01213043 0.00391007
0.14022399 0.01871991 0.00391007
0.18721029 0.00864334 0.00391007
0.22169726 0.00480277 0.00391007
0.25134274 0.00391007 0.00391007
0.27759969 0.00391007 0.00391007
0.30124205 0.00391007 0.00391007
0.32277808 0.00391007 0.00391007
0.34256604 0.00391007 0.00391007
0.36088136 0.00391007 0.00391007
0.37793013 0.00391007 0.00391007
0.39387888 0.00391007 0.00391007
0.40886420 0.00391007 0.00391007
0.42307487 0.00391007 0.00391007
0.43785572 0.00391007 0.00391007
0.45362037 0.00391007 0.00391007
0.47030154 0.00391007 0.00391007
0.48784208 0.00391007 0.00391007
0.50615662 0.00391007 0.00391007
0.52519035 0.00391007 0.00391007
0.54485869 0.00391007 0.00391007
0.56509531 0.00391007 0.00391007
0.58582562 0.00391007 0.00391007
0.60698301 0.00391007 0.00391007
0.62851107 0.00391007 0.00391007
0.65034318 0.00391007 0.00391007
0.67242479 0.00391007 0.00391007
0.69470441 0.00391007 0.00391007
0.71712941 0.00391007 0.00391007
0.73965311 0.00391007 0.00391007
0.00391007 0.06249968 0.00391007
0.01328244 0.06250530 0.00391007
0.06250933 0.06250933 0.00391007
0.10014091 0.06251981 0.00391007
0.15188611 0.06250252 0.00391007
0.19054675 0.06249647 0.00391007
0.22360854 0.06249219 0.00391007
0.25262943 0.06248877 0.00391007
0.27853757 0.06248589 0.00391007
0.30196133 0.06248337 0.00391007
0.32334727 0.06248114 0.00391007
0.34303221 0.06247911 0.00391007
0.36126807 0.06247725 0.00391007
0.37825900 0.06247554 0.00391007
0.39415950 0.06247394 0.00391007
0.40910795 0.06247244 0.00391007
0.42329079 0.06247102 0.00391007
0.43804109 0.06246955 0.00391007
0.45378193 0.06246798 0.00391007
0.47044080 0.06246631 0.00391007
0.48795703 0.06246455 0.00391007
0.50625968 0.06246269 0.00391007
0.52527803 0.06246076 0.00391007
0.54493177 0.06245874 0.00391007
0.56515467 0.06245665 0.00391007
0.58587515 0.06245448 0.00391007
0.60702932 0.06245223 0.00391007
0.62854576 0.06244991 0.00391007
0.65037096 0.06244751 0.00391007
0.67244780 0.06244505 0.00391007
0.69472229 0.06244252 0.00391007
0.71714181 0.06243991 0.00391007
0.73966599 0.06243723 0.00391007
0.00391007 0.11254343 0.00391007
0.01760013 0.10736856 0.00391007
0.06250606 0.11110349 0.00391007
0.11309505 0.11309505 0.00391007
0.15602574 0.11643609 0.00391007
0.19296707 0.11937467 0.00391007
0.22521585 0.12180845 0.00391007
0.25377908 0.12385472 0.00391007
0.27940482 0.12561382 0.00391007
0.30263916 0.12715498 0.00391007
0.32389280 0.12852706 0.00391007
0.34348044 0.12976398 0.00391007
0.36164388 0.13089103 0.00391007
0.37857619 0.13192625 0.00391007
0.39443564 0.13288411 0.00391007
0.40934688 0.13377659 0.00391007
0.42349994 0.13461663 0.00391007
0.43822661 0.13548377 0.00391007
0.45393980 0.13640380 0.00391007
0.47057632 0.13737227 0.00391007
0.48807400 0.13838597 0.00391007
0.50636059 0.13944153 0.00391007
0.52536130 0.14053540 0.00391007
0.54500026 0.14166379 0.00391007
0.56521416 0.14282538 0.00391007
0.58592713 0.14401644 0.00391007
0.60706794 0.14523536 0.00391007
0.62858057 0.14648041 0.00391007
0.65039867 0.14774972 0.00391007
0.67246801 0.14904134 0.00391007
0.69474322 0.15035526 0.00391007
0.71716034 0.15168975 0.00391007
0.73968190 0.15304470 0.00391007
0.00391007 0.15568979 0.00391007
0.00668652 0.15879773 0.00391007
0.06249547 0.15960220 0.00391007
0.11925789 0.16032398 0.00391007
0.16215511 0.16215511 0.00391007
0.19784518 0.16448459 0.00391007
0.22896525 0.16689350 0.00391007
0.25668663 0.16919640 0.00391007
0.28170118 0.17133518 0.00391007
0.30449101 0.17330405 0.00391007
0.32541323 0.17511256 0.00391007
0.34474993 0.17677940 0.00391007
0.36271837 0.17832096 0.00391007
0.37949795 0.17975251 0.00391007
0.39523056 0.18108840 0.00391007
0.41004652 0.18233886 0.00391007
0.42410922 0.18352191 0.00391007
0.43876395 0.18474886 0.00391007
0.45440629 0.18605229 0.00391007
0.47097909 0.18742839 0.00391007
0.48841918 0.18887250 0.00391007
0.50665307 0.19037618 0.00391007
0.52560908 0.19193615 0.00391007
0.54521042 0.19354579 0.00391007
0.56539017 0.19520263 0.00391007
0.58607316 0.19690022 0.00391007
0.60719144 0.19863625 0.00391007
0.62868482 0.20040770 0.00391007
0.65048480 0.20221062 0.00391007
0.67253995 0.20404431 0.00391007
0.69479686 0.20590384 0.00391007
0.71720666 0.20779170 0.00391007
0.73971701 0.20970267 0.00391007
0.00391007 0.19779378 0.00391007
0.00391007 0.19917536 0.00391007
0.06248935 0.19959591 0.00391007
0.12317962 0.19999525 0.00391007
0.16715568 0.20110491 0.00391007
0.20271316 0.20271316 0.00391007
0.23327179 0.20459296 0.00391007
0.26035997 0.20657796 0.00391007
0.28479996 0.20856224 0.00391007
0.30710548 0.21049035 0.00391007
0.32763433 0.21233489 0.00391007
0.34664851 0.21408632 0.00391007
0.36435375 0.21574247 0.00391007
0.38091740 0.21730790 0.00391007
0.39647812 0.21878858 0.00391007
0.41114005 0.22019011 0.00391007
0.42508623 0.22152698 0.00391007
0.43962246 0.22292197 0.00391007
0.45515656 0.22441527 0.00391007
0.47163057 0.22599994 0.00391007
0.48898286 0.22766961 0.00391007
0.50713521 0.22941777 0.00391007
0.52601939 0.23123598 0.00391007
0.54555780 0.23311792 0.00391007
0.56567574 0.23505864 0.00391007
0.58631587 0.23705126 0.00391007
0.60739231 0.23909117 0.00391007
0.62885070 0.24117431 0.00391007
0.65062362 0.24329470 0.00391007
0.67265511 0.24545133 0.00391007
0.69489229 0.24763958 0.00391007
0.71728694 0.24985817 0.00391007
0.73977768 0.25210392 0.00391007
0.00391007 0.23272324 0.00391007
0.00391007 0.23356354 0.00391007
0.06248478 0.23382866 0.00391007
0.12609836 0.23408844 0.00391007
0.17115639 0.23483127 0.00391007
0.20698212 0.23596853 0.00391007
0.23738794 0.23738794 0.00391007
0.26413378 0.23898371 0.00391007
0.28817484 0.24066725 0.00391007
0.31008556 0.24238133 0.00391007
0.33025289 0.24408123 0.00391007
0.34895110 0.24574694 0.00391007
0.36638254 0.24735956 0.00391007
0.38271159 0.24891296 0.00391007
0.39806989 0.25040632 0.00391007
0.41256455 0.25183898 0.00391007
0.42635608 0.25321937 0.00391007
0.44075572 0.25467506 0.00391007
0.45615652 0.25624463 0.00391007
0.47250280 0.25792411 0.00391007
0.48973763 0.25970668 0.00391007
0.50778455 0.26158246 0.00391007
0.52657503 0.26354513 0.00391007
0.54602677 0.26558617 0.00391007
0.56607586 0.26769966 0.00391007
0.58664793 0.26987362 0.00391007
0.60767305 0.27210534 0.00391007
0.62908077 0.27438918 0.00391007
0.65081519 0.27671805 0.00391007
0.67281061 0.27908984 0.00391007
0.69502062 0.28149590 0.00391007
0.71738881 0.28393683 0.00391007
0.73987025 0.28640997 0.00391007
0.00391007 0.26305124 0.00391007
0.00391007 0.26362789 0.00391007
0.06248107 0.26381373 0.00391007
0.12843969 0.26399586 0.00391007
0.17445776 0.26452783 0.00391007
0.21066388 0.26536766 0.00391007
0.24111694 0.26645279 0.00391007
0.26772228 0.26772228 0.00391007
0.29152155 0.26911217 0.00391007
0.31315532 0.27057907 0.00391007
0.33303753 0.27207726 0.00391007
0.35146347 0.27358311 0.00391007
0.36864766 0.27507728 0.00391007
0.38475177 0.27654299 0.00391007
0.39990973 0.27797437 0.00391007
0.41422203 0.27936646 0.00391007
0.42786103 0.28072363 0.00391007
0.44210675 0.28216794 0.00391007
0.45735946 0.28374431 0.00391007
0.47356591 0.28544366 0.00391007
0.49066418 0.28726438 0.00391007
0.50858694 0.28919291 0.00391007
0.52726340 0.29122415 0.00391007
0.54661983 0.29334825 0.00391007
0.56657392 0.29555866 0.00391007
0.58706695 0.29784504 0.00391007
0.60802358 0.30019894 0.00391007
0.62937796 0.30261391 0.00391007
0.65106249 0.30508208 0.00391007
0.67301804 0.30759755 0.00391007
0.69519067 0.31015769 0.00391007
0.71752775 0.31275612 0.00391007
0.73998201 0.31538996 0.00391007
0.00391007 0.28995675 0.00391007
0.00391007 0.29037991 0.00391007
0.06247791 0.29051712 0.00391007
0.13040301 0.29065442 0.00391007
0.17726113 0.29105592 0.00391007
0.21386449 0.29169667 0.00391007
0.24445745 0.29254794 0.00391007
0.27103639 0.29356563 0.00391007
0.29471081 0.29471081 0.00391007
0.31616098 0.29594749 0.00391007
0.33583641 0.29724336 0.00391007
0.35404751 0.29857448 0.00391007
0.37102050 0.29991987 0.00391007
0.38692510 0.30126372 0.00391007
0.40189669 0.30259559 0.00391007
0.41604850 0.30390829 0.00391007
0.42952901 0.30520141 0.00391007
0.44362357 0.30659342 0.00391007
0.45872393 0.30812812 0.00391007
0.47477835 0.30979857 0.00391007
0.49173108 0.31160390 0.00391007
0.50952423 0.31353360 0.00391007
0.52807176 0.31558189 0.00391007
0.54731232 0.31773922 0.00391007
0.56716800 0.31999454 0.00391007
0.58757061 0.32233894 0.00391007
0.60844916 0.32476449 0.00391007
0.62973154 0.32726035 0.00391007
0.65135431 0.32982042 0.00391007
0.67326009 0.33243710 0.00391007
0.69539070 0.33510253 0.00391007
0.71769458 0.33781353 0.00391007
0.74011928 0.34056449 0.00391007
0.00391007 0.31417409 0.00391007
0.00391007 0.31450099 0.00391007
0.06247514 0.31460801 0.00391007
0.13209777 0.31471512 0.00391007
0.17969662 0.31502700 0.00391007
0.21668266 0.31553477 0.00391007
0.24745080 0.31621423 0.00391007
0.27407023 0.31704241 0.00391007
0.29769221 0.31799021 0.00391007
0.31903452 0.31903452 0.00391007
0.33856651 0.32014939 0.00391007
0.35661519 0.32131225 0.00391007
0.37342036 0.32250756 0.00391007
0.38915798 0.32372206 0.00391007
0.40396985 0.32493845 0.00391007
0.41796371 0.32615277 0.00391007
0.43130431 0.32736388 0.00391007
0.44525352 0.32867947 0.00391007
0.46020061 0.33014309 0.00391007
0.47610807 0.33175331 0.00391007
0.49291885 0.33350867 0.00391007
0.51056737 0.33540154 0.00391007
0.52898318 0.33742800 0.00391007
0.54809767 0.33957756 0.00391007
0.56784415 0.34184089 0.00391007
0.58814436 0.34420705 0.00391007
0.60893440 0.34666476 0.00391007
0.63013625 0.34920782 0.00391007
0.65169913 0.35182297 0.00391007
0.67354840 0.35450336 0.00391007
0.69562954 0.35724196 0.00391007
0.71789229 0.36003152 0.00391007
0.74027902 0.36286706 0.00391007
0.00391007 0.33621323 0.00391007
0.00391007 0.33647433 0.00391007
0.06247266 0.33656049 0.00391007
0.13359343 0.33664414 0.00391007
0.18185103 0.33689645 0.00391007
0.21919721 0.33730617 0.00391007
0.25015181 0.33786079 0.00391007
0.27684510 0.33854544 0.00391007
0.30046469 0.33933863 0.00391007
0.32174718 0.34022409 0.00391007
0.34118274 0.34118274 0.00391007
0.35911334 0.34219927 0.00391007
0.37578645 0.34325290 0.00391007
0.39139038 0.34433866 0.00391007
0.40606692 0.34544069 0.00391007
0.41992992 0.34655106 0.00391007
0.43313915 0.34766978 0.00391007
0.44695607 0.34889793 0.00391007
0.46176416 0.35027382 0.00391007
0.47752470 0.35180643 0.00391007
0.49419177 0.35348842 0.00391007
0.51169598 0.35532370 0.00391007
0.52997822 0.35730094 0.00391007
0.54896492 0.35941297 0.00391007
0.56859523 0.36165529 0.00391007
0.58878851 0.36401334 0.00391007
0.60947955 0.36647516 0.00391007
0.63060027 0.36903411 0.00391007
0.65208596 0.37167904 0.00391007
0.67387146 0.37439701 0.00391007
0.69589841 0.37718204 0.00391007
0.71811181 0.38002479 0.00391007
0.74046111 0.38292038 0.00391007
0.00391007 0.35644576 0.00391007
0.00391007 0.35665721 0.00391007
0.06247041 0.35672727 0.00391007
0.13493319 0.35679454 0.00391007
0.18378441 0.35700205 0.00391007
0.22146289 0.35734165 0.00391007
0.25260848 0.35780257 0.00391007
0.27939340 0.35837552 0.00391007
0.30303735 0.35904697 0.00391007
0.32429454 0.35980207 0.00391007
0.34367061 0.36063141 0.00391007
0.36151713 0.36151713 0.00391007
0.37809223 0.36244974 0.00391007
0.39358589 0.36341673 0.00391007
0.40815043 0.36440983 0.00391007
0.42189834 0.36541909 0.00391007
0.43499890 0.36644477 0.00391007
0.44869357 0.36757982 0.00391007
0.46337560 0.36886486 0.00391007
0.47900727 0.37030467 0.00391007
0.49553195 0.37190431 0.00391007
0.51289773 0.37366164 0.00391007
0.53104192 0.37557188 0.00391007
0.54990053 0.37763005 0.00391007
0.56940746 0.37982693 0.00391007
0.58949065 0.38215446 0.00391007
0.61008215 0.38459694 0.00391007
0.63110769 0.38715205 0.00391007
0.65251476 0.38980183 0.00391007
0.67422932 0.39253736 0.00391007
0.69619721 0.39534926 0.00391007
0.71836221 0.39822471 0.00391007
0.74066877 0.40116170 0.00391007
0.00391007 0.37514603 0.00391007
0.00391007 0.37532315 0.00391007
0.06246836 0.37538117 0.00391007
0.13614793 0.37543926 0.00391007
0.18553710 0.37561208 0.00391007
0.22352663 0.37589532 0.00391007
0.25485548 0.37628332 0.00391007
0.28174308 0.37677047 0.00391007
0.30542746 0.37734529 0.00391007
0.32668394 0.37799618 0.00391007
0.34602505 0.37871608 0.00391007
0.36381534 0.37949041 0.00391007
0.38031802 0.38031802 0.00391007
0.39572459 0.38117653 0.00391007
0.41019523 0.38207087 0.00391007
0.42384997 0.38298592 0.00391007
0.43685719 0.38391885 0.00391007
0.45044437 0.38496336 0.00391007
0.46501449 0.38615903 0.00391007
0.48051697 0.38750431 0.00391007
0.49691334 0.38901350 0.00391007
0.51414979 0.39068255 0.00391007
0.53216136 0.39251223 0.00391007
0.55089331 0.39450192 0.00391007
0.57027614 0.39664009 0.00391007
0.59024370 0.39891821 0.00391007
0.61072940 0.40132919 0.00391007
0.63166118 0.40385950 0.00391007
0.65298295 0.40649509 0.00391007
0.67462778 0.40923151 0.00391007
0.69652915 0.41204754 0.00391007
0.71863747 0.41494480 0.00391007
0.74089897 0.41790628 0.00391007
0.00391007 0.39253891 0.00391007
0.00391007 0.39268491 0.00391007
0.06246645 0.39273673 0.00391007
0.13726068 0.39278543 0.00391007
0.18714307 0.39293155 0.00391007
0.22542050 0.39317048 0.00391007
0.25692567 0.39350402 0.00391007
0.28391778 0.39392143 0.00391007
0.30765605 0.39441669 0.00391007
0.32892329 0.39498225 0.00391007
0.34825051 0.39561209 0.00391007
0.36600229 0.39629236 0.00391007
0.38245118 0.39702484 0.00391007
0.39779559 0.39779559 0.00391007
0.41219214 0.39859524 0.00391007
0.42576718 0.39942402 0.00391007
0.43869069 0.40027571 0.00391007
0.45219189 0.40123421 0.00391007
0.46665424 0.40233749 0.00391007
0.48204795 0.40359348 0.00391007
0.49832800 0.40500540 0.00391007
0.51543313 0.40658340 0.00391007
0.53332353 0.40832958 0.00391007
0.55192763 0.41023821 0.00391007
0.57118726 0.41230512 0.00391007
0.59104270 0.41452304 0.00391007
0.61141896 0.41688779 0.00391007
0.63225561 0.41938010 0.00391007
0.65348774 0.42198882 0.00391007
0.67505550 0.42470923 0.00391007
0.69688511 0.42752281 0.00391007
0.71893758 0.43042085 0.00391007
0.74114841 0.43339267 0.00391007
0.00391007 0.40878683 0.00391007
0.00391007 0.40891522 0.00391007
0.06246467 0.40895808 0.00391007
0.13828756 0.40900084 0.00391007
0.18862280 0.40912768 0.00391007
0.22716884 0.40933368 0.00391007
0.25884393 0.40961897 0.00391007
0.28594071 0.40998212 0.00391007
0.30973721 0.41041341 0.00391007
0.33103022 0.41090816 0.00391007
0.35035333 0.41146168 0.00391007
0.36808270 0.41206750 0.00391007
0.38449124 0.41271430 0.00391007
0.39978948 0.41340399 0.00391007
0.41412678 0.41412678 0.00391007
0.42763376 0.41487783 0.00391007
0.44049183 0.41565394 0.00391007
0.45391378 0.41653100 0.00391007
0.46828902 0.41754508 0.00391007
0.48358044 0.41871098 0.00391007
0.49975136 0.42003185 0.00391007
0.51674384 0.42152286 0.00391007
0.53451318 0.42317599 0.00391007
0.55299878 0.42500013 0.00391007
0.57213867 0.42699093 0.00391007
0.59187794 0.42914045 0.00391007
0.61214834 0.43144271 0.00391007
0.63288295 0.43388796 0.00391007
0.65402651 0.43645921 0.00391007
0.67550653 0.43915004 0.00391007
0.69727129 0.44194821 0.00391007
0.71925956 0.44483951 0.00391007
0.74141711 0.44781289 0.00391007
0.00391007 0.42404225 0.00391007
0.00391007 0.42415389 0.00391007
0.06246301 0.42418829 0.00391007
0.13924249 0.42422265 0.00391007
0.18999831 0.42433435 0.00391007
0.22879449 0.42451659 0.00391007
0.26063100 0.42476431 0.00391007
0.28783002 0.42508280 0.00391007
0.31168830 0.42546016 0.00391007
0.33301300 0.42589492 0.00391007
0.35234439 0.42638719 0.00391007
0.37006158 0.42692336 0.00391007
0.38644549 0.42750371 0.00391007
0.40170154 0.42812318 0.00391007
0.41599473 0.42877322 0.00391007
0.42945057 0.42945057 0.00391007
0.44225097 0.43016061 0.00391007
0.45560583 0.43096471 0.00391007
0.46990329 0.43190032 0.00391007
0.48510846 0.43297902 0.00391007
0.50117719 0.43421257 0.00391007
0.51806259 0.43560964 0.00391007
0.53572375 0.43717551 0.00391007
0.55409092 0.43891227 0.00391007
0.57311827 0.44082218 0.00391007
0.59274715 0.44289511 0.00391007
0.61290729 0.44513363 0.00391007
0.63354343 0.44751853 0.00391007
0.65459085 0.45004687 0.00391007
0.67599273 0.45270079 0.00391007
0.69768161 0.45546970 0.00391007
0.71960646 0.45834434 0.00391007
0.74170512 0.46130410 0.00391007
0.00391007 0.43849069 0.00391007
0.00391007 0.43859071 0.00391007
0.06246143 0.43862107 0.00391007
0.14013825 0.43865499 0.00391007
0.19128884 0.43875143 0.00391007
0.23032163 0.43890870 0.00391007
0.26231167 0.43912679 0.00391007
0.28961253 0.43940765 0.00391007
0.31353480 0.43974060 0.00391007
0.33489597 0.44012767 0.00391007
0.35424063 0.44056180 0.00391007
0.37195435 0.44104314 0.00391007
0.38832003 0.44156289 0.00391007
0.40354970 0.44211578 0.00391007
0.41780499 0.44270736 0.00391007
0.43122199 0.44332513 0.00391007
0.44396928 0.44396928 0.00391007
0.45726767 0.44470882 0.00391007
0.47149670 0.44556978 0.00391007
0.48662388 0.44656938 0.00391007
0.50260353 0.44771782 0.00391007
0.51940018 0.44902551 0.00391007
0.53695303 0.45050144 0.00391007
0.55521345 0.45215309 0.00391007
0.57412875 0.45397508 0.00391007
0.59364772 0.45597163 0.00391007
0.61370111 0.45813590 0.00391007
0.63423431 0.46045730 0.00391007
0.65518939 0.46293268 0.00391007
0.67650539 0.46553802 0.00391007
0.69811612 0.46827361 0.00391007
0.71997219 0.47112057 0.00391007
0.74200928 0.47406724 0.00391007
0.00391007 0.45350721 0.00391007
0.00391007 0.45359442 0.00391007
0.06245979 0.45362595 0.00391007
0.14106412 0.45365009 0.00391007
0.19261985 0.45373550 0.00391007
0.23189676 0.45387292 0.00391007
0.26404890 0.45406428 0.00391007
0.29145700 0.45430592 0.00391007
0.31544912 0.45460349 0.00391007
0.33685330 0.45494416 0.00391007
0.35621905 0.45532799 0.00391007
0.37393719 0.45575139 0.00391007
0.39029256 0.45621815 0.00391007
0.40549907 0.45671546 0.00391007
0.41972619 0.45724520 0.00391007
0.43310395 0.45780191 0.00391007
0.44580990 0.45838565 0.00391007
0.45905682 0.45905682 0.00391007
0.47322097 0.45984036 0.00391007
0.48827180 0.46076140 0.00391007
0.50416619 0.46182287 0.00391007
0.52086109 0.46303722 0.00391007
0.53830940 0.46441725 0.00391007
0.55645531 0.46597418 0.00391007
0.57525516 0.46770239 0.00391007
0.59465814 0.46960965 0.00391007
0.61460042 0.47169074 0.00391007
0.63502604 0.47393650 0.00391007
0.65587527 0.47634351 0.00391007
0.67709386 0.47889671 0.00391007
0.69862002 0.48158273 0.00391007
0.72039700 0.48439580 0.00391007
0.74237126 0.48731411 0.00391007
0.00391007 0.46950924 0.00391007
0.00391007 0.46958262 0.00391007
0.06245803 0.46960774 0.00391007
0.14204322 0.46962896 0.00391007
0.19402640 0.46970236 0.00391007
0.23356354 0.46982405 0.00391007
0.26588663 0.46999025 0.00391007
0.29341114 0.47020099 0.00391007
0.31748360 0.47046021 0.00391007
0.33893782 0.47075441 0.00391007
0.35833326 0.47109342 0.00391007
0.37606239 0.47146761 0.00391007
0.39241338 0.47187322 0.00391007
0.40760708 0.47231808 0.00391007
0.42180783 0.47278875 0.00391007
0.43515104 0.47328526 0.00391007
0.44782019 0.47380772 0.00391007
0.46101660 0.47440895 0.00391007
0.47512066 0.47512066 0.00391007
0.49009830 0.47595510 0.00391007
0.50590867 0.47692680 0.00391007
0.52250516 0.47804657 0.00391007
0.53984356 0.47932541 0.00391007
0.55787611 0.48077667 0.00391007
0.57655668 0.48240018 0.00391007
0.59583175 0.48420578 0.00391007
0.61564493 0.48618975 0.00391007
0.63595152 0.48834446 0.00391007
0.65668261 0.49067023 0.00391007
0.67779315 0.49315152 0.00391007
0.69922340 0.49577630 0.00391007
0.72090894 0.49853462 0.00391007
0.74280077 0.50141430 0.00391007
0.00391007 0.48642486 0.00391007
0.00391007 0.48648918 0.00391007
0.06245618 0.48650929 0.00391007
0.14307375 0.48652938 0.00391007
0.19550489 0.48658973 0.00391007
0.23531197 0.48669225 0.00391007
0.26781851 0.48683506 0.00391007
0.29546961 0.48702419 0.00391007
0.31963000 0.48724362 0.00391007
0.34114289 0.48750141 0.00391007
0.36057460 0.48779166 0.00391007
0.37832060 0.48812044 0.00391007
0.39467883 0.48847771 0.00391007
0.40985829 0.48886561 0.00391007
0.42404225 0.48928016 0.00391007
0.43736058 0.48971942 0.00391007
0.44999352 0.49017936 0.00391007
0.46314552 0.49071696 0.00391007
0.47719616 0.49135482 0.00391007
0.49210355 0.49210355 0.00391007
0.50783092 0.49298006 0.00391007
0.52433443 0.49399942 0.00391007
0.54156160 0.49517295 0.00391007
0.55947483 0.49651003 0.00391007
0.57802963 0.49802655 0.00391007
0.59716958 0.49971819 0.00391007
0.61685109 0.50158900 0.00391007
0.63702506 0.50364119 0.00391007
0.65763146 0.50586879 0.00391007
0.67861825 0.50826162 0.00391007
0.69993258 0.51080948 0.00391007
0.72151762 0.51350838 0.00391007
0.74331719 0.51633304 0.00391007
0.00391007 0.50418711 0.00391007
0.00391007 0.50424361 0.00391007
0.06245421 0.50426036 0.00391007
0.14415026 0.50427711 0.00391007
0.19704701 0.50432938 0.00391007
0.23713832 0.50441945 0.00391007
0.26983589 0.50454092 0.00391007
0.29762146 0.50470227 0.00391007
0.32187706 0.50488669 0.00391007
0.34345630 0.50510895 0.00391007
0.36293286 0.50536484 0.00391007
0.38070536 0.50564402 0.00391007
0.39706779 0.50595486 0.00391007
0.41225028 0.50629121 0.00391007
0.42642003 0.50665307 0.00391007
0.43971914 0.50703621 0.00391007
0.45232326 0.50744289 0.00391007
0.46544054 0.50791961 0.00391007
0.47944003 0.50848126 0.00391007
0.49428588 0.50914735 0.00391007
0.50993311 0.50993311 0.00391007
0.52634656 0.51085192 0.00391007
0.54346573 0.51191521 0.00391007
0.56126505 0.51313680 0.00391007
0.57968771 0.51452869 0.00391007
0.59869075 0.51609451 0.00391007
0.61823577 0.51784468 0.00391007
0.63826090 0.51977903 0.00391007
0.65872818 0.52189994 0.00391007
0.67958128 0.52418792 0.00391007
0.70076591 0.52664536 0.00391007
0.72223580 0.52925497 0.00391007
0.74392706 0.53201467 0.00391007
0.00391007 0.52272308 0.00391007
0.00391007 0.52276886 0.00391007
0.06245214 0.52278632 0.00391007
0.14527097 0.52279937 0.00391007
0.19865000 0.52284735 0.00391007
0.23903362 0.52291936 0.00391007
0.27192998 0.52302617 0.00391007
0.29985979 0.52315706 0.00391007
0.32421592 0.52332288 0.00391007
