LUTS_for_Hardware_Devices_TypeIII_CUBE_LUT_Format/7-NBCU-HLG2PQ_1000nit_v1.cube
TITLE "Generated by ORION-CONVERT 1.0b41"
# HLG 1000 nits to PQ
# Unscaled code values in and out
# HLG to PQ
# Display light mode
# HLG Peak =  1000 nits
# PLEASE DO NOT ALTER THE LINES BELOW
# 
# © 2020 NBCUniversal, LLC - Please do not remove this line
#
# Built using tools from and in collaboration with Cromorama and Nick Shaw - the creators of ORION-CONVERT
#
# Parameters designed by Chris Seeger, NBCU Advanced Technology (chris.seeger@nbcuni.com)
# In collaboration with Michael Drazin, NBCU Sports Group (michael.drazin@nbcuni.com)
#
# HLG 1000 nits to PQ
# Unscaled code values in and out
# HLG to PQ
# Display light mode
# HLG Peak =  1000 nits
#
# No Matrix Compensation (so make sure your device is using the correct matrix)
#
# Type III LUT - Full Range Processing for Narrow Range Signals
LUT_3D_SIZE 5
0.00391007 0.00391007 0.00391007
0.27428785 0.00391007 0.00391007
0.42241943 0.00391007 0.00391007
0.56491464 0.00391007 0.00391007
0.73961490 0.00391007 0.00391007
0.00391007 0.28995675 0.00391007
0.29471081 0.29471081 0.00391007
0.42952901 0.30520141 0.00391007
0.56716800 0.31999454 0.00391007
0.74011928 0.34056449 0.00391007
0.00391007 0.43849069 0.00391007
0.31353480 0.43974060 0.00391007
0.44396928 0.44396928 0.00391007
0.57412875 0.45397508 0.00391007
0.74200928 0.47406724 0.00391007
0.00391007 0.58222032 0.00391007
0.33169168 0.58257681 0.00391007
0.46298778 0.58393604 0.00391007
0.58819664 0.58819664 0.00391007
0.74765909 0.60144508 0.00391007
0.00391007 0.75737709 0.00391007
0.35380185 0.75745237 0.00391007
0.48835656 0.75775361 0.00391007
0.61236918 0.75882238 0.00391007
0.76349628 0.76349628 0.00391007
0.00391007 0.00391007 0.25801766
0.27806813 0.00391007 0.27806813
0.42318112 0.00391007 0.30005258
0.56512141 0.00391007 0.31845748
0.73965961 0.00391007 0.34021747
0.00391007 0.29119027 0.29119027
0.29558206 0.29558206 0.29558206
0.43002442 0.30560729 0.30560729
0.56735188 0.32013339 0.32013339
0.74016404 0.34059498 0.34059498
0.00391007 0.43878359 0.31274897
0.31375530 0.44000936 0.31375530
0.44417939 0.44417939 0.31717601
0.57425702 0.45409214 0.32534802
0.74204773 0.47410235 0.34202334
0.00391007 0.58230138 0.33148128
0.33175331 0.58265799 0.33175331
0.46305430 0.58401006 0.33278871
0.58825380 0.58825380 0.33605021
0.74768806 0.60147315 0.34630620
0.00391007 0.75739014 0.35375744
0.35381570 0.75746542 0.35381570
0.48837072 0.75777000 0.35404891
0.61238736 0.75883549 0.35487634
0.76350945 0.76350945 0.35850659
0.00391007 0.00391007 0.39386943
0.28707221 0.00391007 0.40704328
0.42591909 0.00391007 0.42591909
0.56593525 0.00391007 0.44647825
0.73983836 0.00391007 0.47210824
0.00391007 0.29521829 0.41719270
0.29858801 0.29858801 0.42137283
0.43187752 0.30711368 0.43187752
0.56807125 0.32067472 0.44843152
0.74033648 0.34072754 0.47255531
0.00391007 0.43989828 0.43989828
0.31460562 0.44104674 0.44104674
0.44499195 0.44499195 0.44499195
0.57475102 0.45454770 0.45454770
0.74220467 0.47424296 0.47424296
0.00391007 0.58262354 0.46177742
0.33199218 0.58297044 0.46209767
0.46332043 0.58430111 0.46332043
0.58848506 0.58848506 0.46717989
0.74780434 0.60158777 0.47930169
0.00391007 0.75746220 0.48808816
0.35386986 0.75753421 0.48815474
0.48843127 0.75783551 0.48843127
0.61244971 0.75890106 0.48940158
0.76355904 0.76355904 0.49366823
0.00391007 0.00391007 0.53715301
0.30061361 0.00391007 0.54104716
0.43324476 0.00391007 0.55139518
0.56863838 0.00391007 0.56863838
0.74047387 0.00391007 0.59444433
0.00391007 0.30414584 0.54586428
0.30598009 0.30598009 0.54835743
0.43730003 0.31153849 0.55586672
0.57049245 0.32250014 0.57049245
0.74095333 0.34119600 0.59490979
0.00391007 0.44344270 0.56260723
0.31733891 0.44437513 0.56363279
0.44767573 0.44767573 0.56724685
0.57646185 0.45611542 0.57646185
0.74276876 0.47474706 0.59667194
0.00391007 0.58375120 0.58375120
0.33284155 0.58407915 0.58407915
0.46427235 0.58533347 0.58533347
0.58930880 0.58930880 0.58930880
0.74822432 0.60199308 0.60199308
0.00391007 0.75771105 0.61127633
0.35406142 0.75778645 0.61135155
0.48865545 0.75808454 0.61164469
0.61267585 0.75913084 0.61267585
0.76373738 0.76373738 0.61719435
0.00391007 0.00391007 0.71154779
0.32007930 0.00391007 0.71241456
0.45045358 0.00391007 0.71553248
0.57835156 0.00391007 0.72388941
0.74343264 0.00391007 0.74343264
0.00391007 0.32101858 0.71370912
0.32158029 0.32158029 0.71448028
0.45201069 0.32363114 0.71729612
0.57946032 0.32931104 0.72503787
0.74384350 0.34338269 0.74384350
0.00391007 0.45483243 0.72049004
0.32636288 0.45531681 0.72103310
0.45711035 0.45711035 0.72305745
0.58333236 0.46242958 0.72903842
0.74540585 0.47713518 0.74540585
0.00391007 0.58863175 0.73450249
0.33653831 0.58888304 0.73476225
0.46844497 0.58985704 0.73576111
0.59303290 0.59303290 0.73902476
0.75022739 0.60395235 0.75022739
0.00391007 0.75894374 0.75894374
0.35501283 0.75900936 0.75900936
0.48976195 0.75928831 0.75928831
0.61379224 0.76027709 0.76027709
0.76463979 0.76463979 0.76463979
