3D_Type_III_Cube_LUTS_for_Software/MovieLabs/MovieLabs_PQ4000_to_HLG_MaxRGB_33Point_TypeIII.cube
# Blackmagic DaVinci
# EETF_maxRGB_4000_to_1000_PQ_full_to_HLG_legal_with_superwhite_65.cube
# 33 Point for baseband workflows
LUT_3D_SIZE 33
LUT_3D_INPUT_RANGE 0.0 1.0
0.0625610000 0.0625610000 0.0625610000
0.0625610000 0.0625610000 0.0625610000
0.0625610000 0.0625610000 0.0625610000
0.0841580000 0.0625610000 0.0625610000
0.1044050000 0.0625610000 0.0625610000
0.1270150000 0.0625610000 0.0625610000
0.1528100000 0.0625610000 0.0625610000
0.1820780000 0.0625610000 0.0625610000
0.2152740000 0.0625610000 0.0625610000
0.2531840000 0.0625610000 0.0625610000
0.2961070000 0.0625610000 0.0625610000
0.3446820000 0.0625610000 0.0625610000
0.4000260000 0.0625610000 0.0625610000
0.4626070000 0.0625610000 0.0625610000
0.5299780000 0.0625610000 0.0625610000
0.5904490000 0.0625610000 0.0625610000
0.6455640000 0.0625610000 0.0625610000
0.6970480000 0.0625610000 0.0625610000
0.7458700000 0.0625610000 0.0625610000
0.7928940000 0.0625610000 0.0625610000
0.8386010000 0.0625610000 0.0625610000
0.8815590000 0.0625610000 0.0625610000
0.9132300000 0.0625610000 0.0625610000
0.9339790000 0.0625610000 0.0625610000
0.9458590000 0.0625610000 0.0625610000
0.9516810000 0.0625610000 0.0625610000
0.9535720000 0.0625610000 0.0625610000
0.9537250000 0.0625610000 0.0625610000
0.9537250000 0.0625610000 0.0625610000
0.9537250000 0.0625610000 0.0625610000
0.9537250000 0.0625610000 0.0625610000
0.9537250000 0.0625610000 0.0625610000
0.9537250000 0.0625610000 0.0625610000
0.0625610000 0.0625610000 0.0625610000
0.0625610000 0.0625610000 0.0625610000
0.0625610000 0.0625610000 0.0625610000
0.0841580000 0.0625610000 0.0625610000
0.1044050000 0.0625610000 0.0625610000
0.1270150000 0.0625610000 0.0625610000
0.1528100000 0.0625610000 0.0625610000
0.1820780000 0.0625610000 0.0625610000
0.2152740000 0.0625610000 0.0625610000
0.2531840000 0.0625610000 0.0625610000
0.2961070000 0.0625610000 0.0625610000
0.3446820000 0.0625610000 0.0625610000
0.4000260000 0.0625610000 0.0625610000
0.4626070000 0.0625610000 0.0625610000
0.5299780000 0.0625610000 0.0625610000
0.5904490000 0.0625610000 0.0625610000
0.6455640000 0.0625610000 0.0625610000
0.6970480000 0.0625610000 0.0625610000
0.7458700000 0.0625610000 0.0625610000
0.7928940000 0.0625610000 0.0625610000
0.8386010000 0.0625610000 0.0625610000
0.8815590000 0.0625610000 0.0625610000
0.9132300000 0.0625610000 0.0625610000
0.9339790000 0.0625610000 0.0625610000
0.9458590000 0.0625610000 0.0625610000
0.9516810000 0.0625610000 0.0625610000
0.9535720000 0.0625610000 0.0625610000
0.9537250000 0.0625610000 0.0625610000
0.9537250000 0.0625610000 0.0625610000
0.9537250000 0.0625610000 0.0625610000
0.9537250000 0.0625610000 0.0625610000
0.9537250000 0.0625610000 0.0625610000
0.9537250000 0.0625610000 0.0625610000
0.0625610000 0.0625610000 0.0625610000
0.0625610000 0.0625610000 0.0625610000
0.0625610000 0.0625610000 0.0625610000
0.0841580000 0.0625610000 0.0625610000
0.1044050000 0.0625610000 0.0625610000
0.1270150000 0.0625610000 0.0625610000
0.1528100000 0.0625610000 0.0625610000
0.1820780000 0.0625610000 0.0625610000
0.2152740000 0.0625610000 0.0625610000
0.2531840000 0.0625610000 0.0625610000
0.2961070000 0.0625610000 0.0625610000
0.3446820000 0.0625610000 0.0625610000
0.4000260000 0.0625610000 0.0625610000
0.4626070000 0.0625610000 0.0625610000
0.5299780000 0.0625610000 0.0625610000
0.5904490000 0.0625610000 0.0625610000
0.6455640000 0.0625610000 0.0625610000
0.6970480000 0.0625610000 0.0625610000
0.7458700000 0.0625610000 0.0625610000
0.7928940000 0.0625610000 0.0625610000
0.8386010000 0.0625610000 0.0625610000
0.8815590000 0.0625610000 0.0625610000
0.9132300000 0.0625610000 0.0625610000
0.9339790000 0.0625610000 0.0625610000
0.9458590000 0.0625610000 0.0625610000
0.9516810000 0.0625610000 0.0625610000
0.9535720000 0.0625610000 0.0625610000
0.9537250000 0.0625610000 0.0625610000
0.9537250000 0.0625610000 0.0625610000
0.9537250000 0.0625610000 0.0625610000
0.9537250000 0.0625610000 0.0625610000
0.9537250000 0.0625610000 0.0625610000
0.9537250000 0.0625610000 0.0625610000
0.0625610000 0.0825170000 0.0625610000
0.0625610000 0.0825170000 0.0625610000
0.0625610000 0.0825170000 0.0625610000
0.0819790000 0.0819790000 0.0625610000
0.1029360000 0.0808340000 0.0625610000
0.1260700000 0.0797030000 0.0625610000
0.1521980000 0.0786980000 0.0625610000
0.1816480000 0.0778860000 0.0625610000
0.2149630000 0.0771880000 0.0625610000
0.2529580000 0.0765460000 0.0625610000
0.2959350000 0.0760070000 0.0625610000
0.3445490000 0.0755200000 0.0625610000
0.3999240000 0.0750510000 0.0625610000
0.4625250000 0.0746430000 0.0625610000
0.5299220000 0.0742620000 0.0625610000
0.5904150000 0.0738860000 0.0625610000
0.6455410000 0.0735530000 0.0625610000
0.6970320000 0.0732340000 0.0625610000
0.7458600000 0.0729150000 0.0625610000
0.7928860000 0.0726270000 0.0625610000
0.8385950000 0.0723490000 0.0625610000
0.8815550000 0.0720050000 0.0625610000
0.9132270000 0.0713940000 0.0625610000
0.9339760000 0.0705490000 0.0625610000
0.9458580000 0.0695480000 0.0625610000
0.9516790000 0.0685990000 0.0625610000
0.9535710000 0.0677040000 0.0625610000
0.9537240000 0.0668840000 0.0625610000
0.9537240000 0.0662300000 0.0625610000
0.9537240000 0.0656980000 0.0625610000
0.9537240000 0.0655190000 0.0625610000
0.9537240000 0.0655190000 0.0625610000
0.9537240000 0.0655190000 0.0625610000
0.0625610000 0.1012260000 0.0625610000
0.0625610000 0.1012260000 0.0625610000
0.0625610000 0.1012260000 0.0625610000
0.0799720000 0.1009730000 0.0625610000
0.1001850000 0.1001850000 0.0625610000
0.1236120000 0.0989190000 0.0625610000
0.1502600000 0.0974440000 0.0625610000
0.1802060000 0.0959590000 0.0625610000
0.2138720000 0.0945960000 0.0625610000
0.2521330000 0.0933140000 0.0625610000
0.2953090000 0.0921420000 0.0625610000
0.3440590000 0.0911000000 0.0625610000
0.3995400000 0.0901090000 0.0625610000
0.4622250000 0.0891920000 0.0625610000
0.5297160000 0.0883620000 0.0625610000
0.5902850000 0.0875570000 0.0625610000
0.6454570000 0.0868010000 0.0625610000
0.6969750000 0.0861030000 0.0625610000
0.7458200000 0.0854170000 0.0625610000
0.7928590000 0.0847630000 0.0625610000
0.8385760000 0.0841520000 0.0625610000
0.8815410000 0.0834230000 0.0625610000
0.9132170000 0.0820410000 0.0625610000
0.9339690000 0.0801920000 0.0625610000
0.9458530000 0.0780330000 0.0625610000
0.9516760000 0.0758750000 0.0625610000
0.9535680000 0.0739140000 0.0625610000
0.9537220000 0.0721380000 0.0625610000
0.9537230000 0.0706520000 0.0625610000
0.9537230000 0.0694860000 0.0625610000
0.9537230000 0.0690870000 0.0625610000
0.9537230000 0.0690870000 0.0625610000
0.9537230000 0.0690870000 0.0625610000
0.0625610000 0.1221190000 0.0625610000
0.0625610000 0.1221190000 0.0625610000
0.0625610000 0.1221190000 0.0625610000
0.0786160000 0.1219740000 0.0625610000
0.0976780000 0.1214750000 0.0625610000
0.1205160000 0.1205160000 0.0625610000
0.1472310000 0.1190920000 0.0625610000
0.1775640000 0.1173800000 0.0625610000
0.2117300000 0.1155420000 0.0625610000
0.2504190000 0.1137040000 0.0625610000
0.2939520000 0.1119310000 0.0625610000
0.3429950000 0.1102490000 0.0625610000
0.3986930000 0.1086700000 0.0625610000
0.4615470000 0.1071860000 0.0625610000
0.5292550000 0.1057860000 0.0625610000
0.5899900000 0.1044700000 0.0625610000
0.6452610000 0.1032210000 0.0625610000
0.6968450000 0.1020320000 0.0625610000
0.7457310000 0.1009000000 0.0625610000
0.7927960000 0.0998140000 0.0625610000
0.8385320000 0.0987710000 0.0625610000
0.8815100000 0.0975710000 0.0625610000
0.9131950000 0.0952890000 0.0625610000
0.9339540000 0.0921350000 0.0625610000
0.9458420000 0.0885590000 0.0625610000
0.9516680000 0.0849650000 0.0625610000
0.9535630000 0.0816080000 0.0625610000
0.9537180000 0.0786620000 0.0625610000
0.9537200000 0.0761780000 0.0625610000
0.9537210000 0.0741780000 0.0625610000
0.9537220000 0.0735060000 0.0625610000
0.9537220000 0.0735060000 0.0625610000
0.9537220000 0.0735060000 0.0625610000
0.0625610000 0.1459540000 0.0625610000
0.0625610000 0.1459540000 0.0625610000
0.0625610000 0.1459540000 0.0625610000
0.0775610000 0.1458660000 0.0625610000
0.0955800000 0.1455370000 0.0625610000
0.1175210000 0.1448490000 0.0625610000
0.1437090000 0.1437090000 0.0625610000
0.1740040000 0.1421120000 0.0625610000
0.2084480000 0.1401710000 0.0625610000
0.2475960000 0.1379970000 0.0625610000
0.2915880000 0.1357520000 0.0625610000
0.3410510000 0.1335110000 0.0625610000
0.3971280000 0.1312950000 0.0625610000
0.4602740000 0.1291950000 0.0625610000
0.5283700000 0.1271830000 0.0625610000
0.5894340000 0.1252330000 0.0625610000
0.6448900000 0.1234070000 0.0625610000
0.6965920000 0.1216570000 0.0625610000
0.7455600000 0.1199530000 0.0625610000
0.7926760000 0.1183480000 0.0625610000
0.8384470000 0.1167990000 0.0625610000
0.8814510000 0.1149720000 0.0625610000
0.9131530000 0.1115680000 0.0625610000
0.9339230000 0.1068600000 0.0625610000
0.9458200000 0.1014370000 0.0625610000
0.9516530000 0.0960950000 0.0625610000
0.9535520000 0.0910890000 0.0625610000
0.9537100000 0.0866290000 0.0625610000
0.9537140000 0.0829420000 0.0625610000
0.9537170000 0.0799620000 0.0625610000
0.9537180000 0.0789600000 0.0625610000
0.9537180000 0.0789600000 0.0625610000
0.9537180000 0.0789600000 0.0625610000
0.0625610000 0.1729980000 0.0625610000
0.0625610000 0.1729980000 0.0625610000
0.0625610000 0.1729980000 0.0625610000
0.0767680000 0.1729370000 0.0625610000
0.0938350000 0.1727140000 0.0625610000
0.1148430000 0.1722210000 0.0625610000
0.1402390000 0.1713470000 0.0625610000
0.1700250000 0.1700250000 0.0625610000
0.2043700000 0.1682290000 0.0625610000
0.2437220000 0.1660220000 0.0625610000
0.2881350000 0.1635230000 0.0625610000
0.3380680000 0.1608710000 0.0625610000
0.3946110000 0.1581290000 0.0625610000
0.4582000000 0.1553930000 0.0625610000
0.5268950000 0.1527420000 0.0625610000
0.5884770000 0.1501360000 0.0625610000
0.6442630000 0.1476210000 0.0625610000
0.6961610000 0.1452290000 0.0625610000
0.7452620000 0.1428920000 0.0625610000
0.7924710000 0.1406400000 0.0625610000
0.8383020000 0.1384970000 0.0625610000
0.8813480000 0.1359750000 0.0625610000
0.9130800000 0.1311600000 0.0625610000
0.9338710000 0.1246060000 0.0625610000
0.9457830000 0.1170610000 0.0625610000
0.9516260000 0.1094950000 0.0625610000
0.9535320000 0.1025260000 0.0625610000
0.9536970000 0.0963110000 0.0625610000
0.9537050000 0.0910870000 0.0625610000
0.9537100000 0.0869380000 0.0625610000
0.9537120000 0.0855300000 0.0625610000
0.9537120000 0.0855300000 0.0625610000
0.9537120000 0.0855300000 0.0625610000
0.0625610000 0.2036740000 0.0625610000
0.0625610000 0.2036740000 0.0625610000
0.0625610000 0.2036740000 0.0625610000
0.0761030000 0.2036290000 0.0625610000
0.0923990000 0.2034680000 0.0625610000
0.1124820000 0.2031130000 0.0625610000
0.1370020000 0.2024490000 0.0625610000
0.1660380000 0.2013940000 0.0625610000
0.1998740000 0.1998740000 0.0625610000
0.2390800000 0.1978360000 0.0625610000
0.2836420000 0.1953520000 0.0625610000
0.3339650000 0.1925020000 0.0625610000
0.3909840000 0.1893970000 0.0625610000
0.4550760000 0.1861590000 0.0625610000
0.5246260000 0.1828710000 0.0625610000
0.5869770000 0.1796000000 0.0625610000
0.6432490000 0.1763860000 0.0625610000
0.6954770000 0.1732420000 0.0625610000
0.7447820000 0.1701930000 0.0625610000
0.7921340000 0.1672320000 0.0625610000
0.8380670000 0.1643590000 0.0625610000
0.8811800000 0.1610290000 0.0625610000
0.9129600000 0.1546400000 0.0625610000
0.9337860000 0.1457790000 0.0625610000
0.9457220000 0.1357310000 0.0625610000
0.9515820000 0.1256230000 0.0625610000
0.9535010000 0.1161750000 0.0625610000
0.9536750000 0.1078860000 0.0625610000
0.9536890000 0.1008950000 0.0625610000
0.9536980000 0.0952640000 0.0625610000
0.9537010000 0.0933740000 0.0625610000
0.9537010000 0.0933740000 0.0625610000
0.9537010000 0.0933740000 0.0625610000
0.0625610000 0.2387020000 0.0625610000
0.0625610000 0.2387020000 0.0625610000
0.0625610000 0.2387020000 0.0625610000
0.0754970000 0.2386700000 0.0625610000
0.0911140000 0.2385520000 0.0625610000
0.1104040000 0.2382860000 0.0625610000
0.1340010000 0.2377880000 0.0625610000
0.1621790000 0.2369590000 0.0625610000
0.1952790000 0.2357130000 0.0625610000
0.2339610000 0.2339610000 0.0625610000
0.2783390000 0.2316650000 0.0625610000
0.3287650000 0.2288640000 0.0625610000
0.3861460000 0.2256130000 0.0625610000
0.4507200000 0.2220460000 0.0625610000
0.5212830000 0.2182730000 0.0625610000
0.5847730000 0.2143570000 0.0625610000
0.6417280000 0.2104460000 0.0625610000
0.6944170000 0.2065530000 0.0625610000
0.7440500000 0.2026790000 0.0625610000
0.7916130000 0.1989280000 0.0625610000
0.8376960000 0.1952600000 0.0625610000
0.8809200000 0.1909030000 0.0625610000
0.9127720000 0.1826150000 0.0625610000
0.9336520000 0.1711110000 0.0625610000
0.9456270000 0.1578950000 0.0625610000
0.9515130000 0.1447860000 0.0625610000
0.9534520000 0.1325080000 0.0625610000
0.9536390000 0.1216120000 0.0625610000
0.9536630000 0.1125510000 0.0625610000
0.9536800000 0.1052330000 0.0625610000
0.9536850000 0.1027730000 0.0625610000
0.9536850000 0.1027730000 0.0625610000
0.9536850000 0.1027730000 0.0625610000
0.0625610000 0.2783650000 0.0625610000
0.0625610000 0.2783650000 0.0625610000
0.0625610000 0.2783650000 0.0625610000
0.0749940000 0.2783410000 0.0625610000
0.0899750000 0.2782520000 0.0625610000
0.1085400000 0.2780500000 0.0625610000
0.1313110000 0.2776650000 0.0625610000
0.1585520000 0.2770240000 0.0625610000
0.1907910000 0.2760200000 0.0625610000
0.2287260000 0.2745530000 0.0625610000
0.2725550000 0.2725550000 0.0625610000
0.3227640000 0.2699660000 0.0625610000
0.3802130000 0.2667920000 0.0625610000
0.4451290000 0.2631130000 0.0625610000
0.5167430000 0.2590340000 0.0625610000
0.5816330000 0.2546440000 0.0625610000
0.6395660000 0.2500740000 0.0625610000
0.6928810000 0.2454520000 0.0625610000
0.7429560000 0.2407710000 0.0625610000
0.7908450000 0.2361210000 0.0625610000
0.8371440000 0.2315820000 0.0625610000
0.8805230000 0.2261480000 0.0625610000
0.9124910000 0.2155550000 0.0625610000
0.9334480000 0.2009820000 0.0625610000
0.9454800000 0.1842250000 0.0625610000
0.9514090000 0.1673780000 0.0625610000
0.9533770000 0.1517990000 0.0625610000
0.9535850000 0.1379520000 0.0625610000
0.9536250000 0.1262980000 0.0625610000
0.9536520000 0.1170090000 0.0625610000
0.9536600000 0.1138640000 0.0625610000
0.9536600000 0.1138640000 0.0625610000
0.9536600000 0.1138640000 0.0625610000
0.0625610000 0.3232490000 0.0625610000
0.0625610000 0.3232490000 0.0625610000
0.0625610000 0.3232490000 0.0625610000
0.0745410000 0.3232300000 0.0625610000
0.0889830000 0.3231620000 0.0625610000
0.1068500000 0.3230070000 0.0625610000
0.1288450000 0.3227070000 0.0625610000
0.1552210000 0.3222010000 0.0625610000
0.1864910000 0.3214070000 0.0625610000
0.2235410000 0.3202010000 0.0625610000
0.2666020000 0.3185050000 0.0625610000
0.3162310000 0.3162310000 0.0625610000
0.3734250000 0.3132890000 0.0625610000
0.4383810000 0.3097140000 0.0625610000
0.5109130000 0.3055510000 0.0625610000
0.5774700000 0.3008750000 0.0625610000
0.6365650000 0.2958330000 0.0625610000
0.6907490000 0.2905320000 0.0625610000
0.7414090000 0.2850780000 0.0625610000
0.7897250000 0.2795590000 0.0625610000
0.8363480000 0.2740370000 0.0625610000
0.8799460000 0.2674220000 0.0625610000
0.9120740000 0.2543380000 0.0625610000
0.9331510000 0.2360160000 0.0625610000
0.9452640000 0.2151600000 0.0625610000
0.9512540000 0.1941350000 0.0625610000
0.9532670000 0.1744530000 0.0625610000
0.9535060000 0.1571770000 0.0625610000
0.9535680000 0.1425970000 0.0625610000
0.9536100000 0.1308480000 0.0625610000
0.9536240000 0.1269020000 0.0625610000
0.9536240000 0.1269020000 0.0625610000
0.9536240000 0.1269020000 0.0625610000
0.0625610000 0.3743890000 0.0625610000
0.0625610000 0.3743890000 0.0625610000
0.0625610000 0.3743890000 0.0625610000
0.0741050000 0.3743740000 0.0625610000
0.0880490000 0.3743210000 0.0625610000
0.1053110000 0.3741990000 0.0625610000
0.1265380000 0.3739670000 0.0625610000
0.1520790000 0.3735660000 0.0625610000
0.1824330000 0.3729300000 0.0625610000
0.2184650000 0.3719600000 0.0625610000
0.2606020000 0.3705460000 0.0625610000
0.3094240000 0.3685950000 0.0625610000
0.3659940000 0.3659940000 0.0625610000
0.4306560000 0.3626750000 0.0625610000
0.5037070000 0.3586420000 0.0625610000
0.5722410000 0.3539100000 0.0625610000
0.6326680000 0.3485950000 0.0625610000
0.6878530000 0.3428160000 0.0625610000
0.7392990000 0.3366520000 0.0625610000
0.7881690000 0.3303080000 0.0625610000
0.8352080000 0.3238410000 0.0625610000
0.8791260000 0.3158220000 0.0625610000
0.9114750000 0.2998290000 0.0625610000
0.9327150000 0.2773300000 0.0625610000
0.9449530000 0.2513800000 0.0625610000
0.9510280000 0.2254960000 0.0625610000
0.9531030000 0.2012160000 0.0625610000
0.9533910000 0.1796840000 0.0625610000
0.9534850000 0.1617170000 0.0625610000
0.9535500000 0.1472090000 0.0625610000
0.9535690000 0.1423280000 0.0625610000
0.9535690000 0.1423280000 0.0625610000
0.9535690000 0.1423280000 0.0625610000
0.0625610000 0.4322160000 0.0625610000
0.0625610000 0.4322160000 0.0625610000
0.0625610000 0.4322160000 0.0625610000
0.0737280000 0.4322040000 0.0625610000
0.0871890000 0.4321620000 0.0625610000
0.1038890000 0.4320660000 0.0625610000
0.1244400000 0.4318810000 0.0625610000
0.1491450000 0.4315650000 0.0625610000
0.1786010000 0.4310540000 0.0625610000
0.2136550000 0.4302650000 0.0625610000
0.2547170000 0.4291110000 0.0625610000
0.3025630000 0.4274670000 0.0625610000
0.3582740000 0.4252140000 0.0625610000
0.4222640000 0.4222640000 0.0625610000
0.4952920000 0.4185090000 0.0625610000
0.5658320000 0.4139380000 0.0625610000
0.6278180000 0.4085890000 0.0625610000
0.6841360000 0.4025470000 0.0625610000
0.7364750000 0.3958950000 0.0625610000
0.7860800000 0.3887970000 0.0625610000
0.8336470000 0.3814470000 0.0625610000
0.8779720000 0.3721040000 0.0625610000
0.9106390000 0.3527070000 0.0625610000
0.9321010000 0.3254600000 0.0625610000
0.9445050000 0.2939380000 0.0625610000
0.9507080000 0.2620870000 0.0625610000
0.9528710000 0.2325080000 0.0625610000
0.9532230000 0.2062230000 0.0625610000
0.9533650000 0.1840600000 0.0625610000
0.9534620000 0.1663590000 0.0625610000
0.9534910000 0.1603680000 0.0625610000
0.9534910000 0.1603680000 0.0625610000
0.9534910000 0.1603680000 0.0625610000
0.0625610000 0.4974820000 0.0625610000
0.0625610000 0.4974820000 0.0625610000
0.0625610000 0.4974820000 0.0625610000
0.0733750000 0.4974730000 0.0625610000
0.0864160000 0.4974400000 0.0625610000
0.1025640000 0.4973670000 0.0625610000
0.1224790000 0.4972220000 0.0625610000
0.1464370000 0.4969750000 0.0625610000
0.1749800000 0.4965770000 0.0625610000
0.2090590000 0.4959500000 0.0625610000
0.2490710000 0.4950200000 0.0625610000
0.2957700000 0.4936850000 0.0625610000
0.3504370000 0.4917830000 0.0625610000
0.4135030000 0.4892160000 0.0625610000
0.4858800000 0.4858800000 0.0625610000
0.5584110000 0.4816270000 0.0625610000
0.6219310000 0.4764750000 0.0625610000
0.6795530000 0.4704160000 0.0625610000
0.7328880000 0.4635090000 0.0625610000
0.7833130000 0.4559130000 0.0625610000
0.8315750000 0.4477640000 0.0625610000
0.8764100000 0.4371140000 0.0625610000
0.9094740000 0.4142120000 0.0625610000
0.9312520000 0.3813170000 0.0625610000
0.9438790000 0.3434470000 0.0625610000
0.9502500000 0.3050480000 0.0625610000
0.9525440000 0.2689560000 0.0625610000
0.9529850000 0.2372040000 0.0625610000
0.9531940000 0.2103610000 0.0625610000
0.9533380000 0.1887050000 0.0625610000
0.9533810000 0.1814300000 0.0625610000
0.9533810000 0.1814300000 0.0625610000
0.9533810000 0.1814300000 0.0625610000
0.0625610000 0.5606950000 0.0625610000
0.0625610000 0.5606950000 0.0625610000
0.0625610000 0.5606950000 0.0625610000
0.0730270000 0.5606900000 0.0625610000
0.0856680000 0.5606700000 0.0625610000
0.1013270000 0.5606240000 0.0625610000
0.1206080000 0.5605350000 0.0625610000
0.1438500000 0.5603800000 0.0625610000
0.1715660000 0.5601290000 0.0625610000
0.2046360000 0.5597430000 0.0625610000
0.2435870000 0.5591510000 0.0625610000
0.2891490000 0.5582930000 0.0625610000
0.3425730000 0.5570870000 0.0625610000
0.4045160000 0.5553880000 0.0625610000
0.4759080000 0.5531080000 0.0625610000
0.5501510000 0.5501510000 0.0625610000
0.6151810000 0.5463190000 0.0625610000
0.6740480000 0.5415900000 0.0625610000
0.7285030000 0.5359680000 0.0625610000
0.7798320000 0.5293040000 0.0625610000
0.8288600000 0.5217410000 0.0625610000
0.8743540000 0.5111300000 0.0625610000
0.9079110000 0.4853920000 0.0625610000
0.9300790000 0.4465010000 0.0625610000
0.9430210000 0.4009070000 0.0625610000
0.9496170000 0.3549950000 0.0625610000
0.9520810000 0.3117220000 0.0625610000
0.9526550000 0.2732410000 0.0625610000
0.9529530000 0.2410260000 0.0625610000
0.9531610000 0.2149780000 0.0625610000
0.9532230000 0.2062080000 0.0625610000
0.9532230000 0.2062080000 0.0625610000
0.9532230000 0.2062080000 0.0625610000
0.0625610000 0.6175120000 0.0625610000
0.0625610000 0.6175120000 0.0625610000
0.0625610000 0.6175120000 0.0625610000
0.0727180000 0.6175090000 0.0625610000
0.0849650000 0.6174960000 0.0625610000
0.1001590000 0.6174660000 0.0625610000
0.1188770000 0.6174080000 0.0625610000
0.1414070000 0.6173090000 0.0625610000
0.1683260000 0.6171440000 0.0625610000
0.2004760000 0.6168890000 0.0625610000
0.2383200000 0.6165070000 0.0625610000
0.2827260000 0.6159370000 0.0625610000
0.3349100000 0.6151260000 0.0625610000
0.3955080000 0.6139990000 0.0625610000
0.4656920000 0.6124300000 0.0625610000
0.5410470000 0.6103490000 0.0625610000
0.6076490000 0.6076490000 0.0625610000
0.6677300000 0.6041730000 0.0625610000
0.7232520000 0.5999090000 0.0625610000
0.7755910000 0.5948070000 0.0625610000
0.8254580000 0.5887780000 0.0625610000
0.8716760000 0.5798910000 0.0625610000
0.9058670000 0.5572690000 0.0625610000
0.9285180000 0.5194400000 0.0625610000
0.9418460000 0.4678380000 0.0625610000
0.9487550000 0.4128590000 0.0625610000
0.9514440000 0.3613990000 0.0625610000
0.9521900000 0.3155180000 0.0625610000
0.9526200000 0.2766970000 0.0625610000
0.9529140000 0.2455970000 0.0625610000
0.9530040000 0.2350630000 0.0625610000
0.9530040000 0.2350630000 0.0625610000
0.9530040000 0.2350630000 0.0625610000
0.0625610000 0.6701120000 0.0625610000
0.0625610000 0.6701120000 0.0625610000
0.0625610000 0.6701120000 0.0625610000
0.0724230000 0.6701100000 0.0625610000
0.0843190000 0.6701010000 0.0625610000
0.0990520000 0.6700810000 0.0625610000
0.1172310000 0.6700420000 0.0625610000
0.1391200000 0.6699750000 0.0625610000
0.1652370000 0.6698660000 0.0625610000
0.1964940000 0.6696940000 0.0625610000
0.2333220000 0.6694350000 0.0625610000
0.2765100000 0.6690550000 0.0625610000
0.3274200000 0.6685000000 0.0625610000
0.3866640000 0.6677200000 0.0625610000
0.4553710000 0.6666460000 0.0625610000
0.5313280000 0.6651690000 0.0625610000
0.5993810000 0.6632150000 0.0625610000
0.6606910000 0.6606910000 0.0625610000
0.7172370000 0.6574580000 0.0625610000
0.7705290000 0.6534810000 0.0625610000
0.8213280000 0.6487240000 0.0625610000
0.8683360000 0.6411620000 0.0625610000
0.9032170000 0.6207110000 0.0625610000
0.9264840000 0.5866780000 0.0625610000
0.9402870000 0.5395030000 0.0625610000
0.9475800000 0.4802780000 0.0625610000
0.9505830000 0.4189520000 0.0625610000
0.9515550000 0.3646360000 0.0625610000
0.9521540000 0.3185320000 0.0625610000
0.9525740000 0.2812160000 0.0625610000
0.9527000000 0.2686660000 0.0625610000
0.9527000000 0.2686660000 0.0625610000
0.9527000000 0.2686660000 0.0625610000
0.0625610000 0.7196830000 0.0625610000
0.0625610000 0.7196830000 0.0625610000
0.0625610000 0.7196830000 0.0625610000
0.0721280000 0.7196820000 0.0625610000
0.0836830000 0.7196760000 0.0625610000
0.0980000000 0.7196620000 0.0625610000
0.1156360000 0.7196360000 0.0625610000
0.1369070000 0.7195900000 0.0625610000
0.1622950000 0.7195150000 0.0625610000
0.1926420000 0.7193980000 0.0625610000
0.2284680000 0.7192200000 0.0625610000
0.2705220000 0.7189570000 0.0625610000
0.3200740000 0.7185780000 0.0625610000
0.3779110000 0.7180320000 0.0625610000
0.4451270000 0.7172730000 0.0625610000
0.5211740000 0.7162370000 0.0625610000
0.5906040000 0.7148210000 0.0625610000
