3D_Type_III_Cube_LUTS_for_Software/MovieLabs/MovieLabs_PQ4000_to_HLG_MaxRGB_33Point_TypeIII.cube
# Blackmagic DaVinci
# EETF_maxRGB_4000_to_1000_PQ_full_to_HLG_legal_with_superwhite_65.cube
# 33 Point for baseband workflows
LUT_3D_SIZE 5
LUT_3D_INPUT_RANGE 0.0 1.0
0.0625610000 0.0625610000 0.0625610000
0.2152740000 0.0625610000 0.0625610000
0.6455640000 0.0625610000 0.0625610000
0.9458590000 0.0625610000 0.0625610000
0.9537250000 0.0625610000 0.0625610000
0.0625610000 0.2036740000 0.0625610000
0.1998740000 0.1998740000 0.0625610000
0.6432490000 0.1763860000 0.0625610000
0.9457220000 0.1357310000 0.0625610000
0.9537010000 0.0933740000 0.0625610000
0.0625610000 0.6175120000 0.0625610000
0.1683260000 0.6171440000 0.0625610000
0.6076490000 0.6076490000 0.0625610000
0.9418460000 0.4678380000 0.0625610000
0.9530040000 0.2350630000 0.0625610000
0.0625610000 0.9211260000 0.0625610000
0.1301970000 0.9211050000 0.0625610000
0.4411170000 0.9204800000 0.0625610000
0.9125620000 0.9125620000 0.0625610000
0.9443050000 0.6552900000 0.0625610000
0.0625610000 0.9290170000 0.0625610000
0.0910350000 0.9290140000 0.0625610000
0.2222720000 0.9289080000 0.0625610000
0.6362970000 0.9273620000 0.0625610000
0.9204640000 0.9204640000 0.0625610000
0.0625610000 0.0625610000 0.2354410000
0.2127060000 0.0625610000 0.2127060000
0.6453540000 0.0625610000 0.1770700000
0.9458480000 0.0625610000 0.1357600000
0.9537230000 0.0625610000 0.0933760000
0.0625610000 0.2026910000 0.2026910000
0.1991760000 0.1991760000 0.1991760000
0.6430550000 0.1763230000 0.1763230000
0.9457100000 0.1357280000 0.1357280000
0.9536990000 0.0933740000 0.0933740000
0.0625610000 0.6174290000 0.1684090000
0.1683010000 0.6170620000 0.1683010000
0.6075890000 0.6075890000 0.1655670000
0.9418350000 0.4678250000 0.1348260000
0.9530020000 0.2350620000 0.0933050000
0.0625610000 0.9211210000 0.1302010000
0.1301960000 0.9211000000 0.1301960000
0.4411110000 0.9204750000 0.1300620000
0.9125590000 0.9125590000 0.1283800000
0.9443040000 0.6552880000 0.0924600000
0.0625610000 0.9290170000 0.0910350000
0.0910340000 0.9290130000 0.0910340000
0.2222710000 0.9289070000 0.0910250000
0.6362960000 0.9273610000 0.0908850000
0.9204630000 0.9204630000 0.0902680000
0.0625610000 0.0625610000 0.6883570000
0.1908480000 0.0625610000 0.6846100000
0.6396000000 0.0625610000 0.6396000000
0.9454830000 0.0625610000 0.4725900000
0.9536610000 0.0625610000 0.2354280000
0.0625610000 0.1889520000 0.6795290000
0.1879200000 0.1879200000 0.6767220000
0.6376890000 0.1746030000 0.6376890000
0.9453470000 0.1356430000 0.4724120000
0.9536380000 0.0933670000 0.2354150000
0.0625610000 0.6149960000 0.6149960000
0.1675980000 0.6146560000 0.6146560000
0.6057970000 0.6057970000 0.6057970000
0.9415220000 0.4674190000 0.4674190000
0.9529410000 0.2350290000 0.2350290000
0.0625610000 0.9209790000 0.4417210000
0.1301660000 0.9209580000 0.4416950000
0.4409430000 0.9203360000 0.4409430000
0.9124560000 0.9124560000 0.4315620000
0.9442610000 0.6552400000 0.2302990000
0.0625610000 0.9289930000 0.2223150000
0.0910320000 0.9289890000 0.2223130000
0.2222590000 0.9288830000 0.2222590000
0.6362710000 0.9273380000 0.2214730000
0.9204460000 0.9204460000 0.2180180000
0.0625610000 0.0625610000 0.9845310000
0.1453670000 0.0625610000 0.9842960000
0.5159060000 0.0625610000 0.9780100000
0.9405570000 0.0625610000 0.9405570000
0.9527500000 0.0625610000 0.6646590000
0.0625610000 0.1452690000 0.9839300000
0.1452080000 0.1452080000 0.9837000000
0.5152880000 0.1435870000 0.9775410000
0.9404450000 0.1345060000 0.9404450000
0.9527280000 0.0932780000 0.6646330000
0.0625610000 0.5055430000 0.9701980000
0.1416640000 0.5053620000 0.9700630000
0.5002360000 0.5002360000 0.9662460000
0.9372350000 0.4619090000 0.9372350000
0.9520560000 0.2345400000 0.6638900000
0.0625610000 0.9189340000 0.9189340000
0.1297270000 0.9189150000 0.9189150000
0.4385430000 0.9183400000 0.9183400000
0.9109620000 0.9109620000 0.9109620000
0.9436220000 0.6545310000 0.6545310000
0.0625610000 0.9286340000 0.6377320000
0.0910000000 0.9286310000 0.6377280000
0.2220770000 0.9285260000 0.6376090000
0.6358910000 0.9270020000 0.6358910000
0.9201870000 0.9201870000 0.6281760000
0.0625610000 0.0625610000 0.9923620000
0.0974400000 0.0625610000 0.9923230000
0.2575270000 0.0625610000 0.9911420000
0.6922480000 0.0625610000 0.9778820000
0.9484270000 0.0625610000 0.9484270000
0.0625610000 0.0974330000 0.9922600000
0.0974290000 0.0974290000 0.9922210000
0.2574660000 0.0972970000 0.9910450000
0.6921830000 0.0958530000 0.9778240000
0.9484090000 0.0928560000 0.9484090000
0.0625610000 0.2563880000 0.9893230000
0.0971020000 0.2563650000 0.9892870000
0.2557090000 0.2557090000 0.9882350000
0.6903040000 0.2483170000 0.9760980000
0.9478370000 0.2322340000 0.9478370000
0.0625610000 0.6775920000 0.9644760000
0.0944550000 0.6775770000 0.9644620000
0.2412700000 0.6771270000 0.9640520000
0.6710970000 0.6710970000 0.9585710000
0.9405000000 0.6510470000 0.9405000000
0.0625610000 0.9268290000 0.9268290000
0.0908370000 0.9268250000 0.9268250000
0.2211640000 0.9267280000 0.9267280000
0.6339700000 0.9253010000 0.9253010000
0.9188660000 0.9188660000 0.9188660000
