LUTS_for_Software/HLG-to-from-SDR - Type III and Type I/Type I LUTs - Narrow Range Clipped/3-NBCU_HLG2SDR_DL_v1-Type1_AdobeFormat.cube
TITLE "HLG-BT.2100 to SDR-BT.709 Display-Light Conversion 3D Look-Up-Table"
# 
# PLEASE DO NOT ALTER THE LINES BELOW
#  
# © 2020 NBCUniversal, LLC - Please do not remove this line
# 
# Built using tools from and in collaboration with Cromorama and Nick Shaw - the creators of ORION-CONVERT
# 
# MaxRGB 2-stage highlight compression knee
# 
# Parameters designed by Chris Seeger, NBCU Advanced Technology (chris.seeger@nbcuni.com)
# In collaboration with Michael Drazin, NBCU Sports Group (michael.drazin@nbcuni.com)
# 
# 75% HLG maps to 94% SDR (before highlight compression)
# Highlight compression from 94% to 109% SDR
# Stage 1 Pre-rolled-off HDR highlights
# Stage 2 Post-Rolled off converted SDR highlights
# 
# Sophisticated Highlight Knee REQUIRES the use of devices using Tetrehedral Interpolation
# 
# Display-Light Conversion (absolute chromaticity is preserved from input to output)
# Display-Light Conversion preserves original artistic intent
# 
# No Matrix Compensation (so make sure your device is using the correct matrix)
# 
# Type I LUT - Narrow Range processing clipped to 0-100% Signal level
# 
LUT_3D_SIZE 9
DOMAIN_MIN 0.000000 0.000000 0.000000
DOMAIN_MAX 1.000000 1.000000 1.000000
0.000000 0.000000 0.000000
0.154933 -0.052655 -0.023600
0.309866 -0.105310 -0.047201
0.464799 -0.157965 -0.070801
0.619732 -0.210620 -0.094401
0.813644 -0.276522 -0.123939
0.984372 -0.334545 -0.149946
1.062492 -0.361095 -0.161845
1.084756 -0.368661 -0.165237
-0.108765 0.142979 -0.052128
0.143638 0.139975 -0.057404
0.310763 0.121424 -0.070677
0.466800 0.024314 -0.088304
0.621683 -0.150253 -0.108194
0.815333 -0.235803 -0.134765
0.984814 -0.309220 -0.157073
1.062634 -0.346131 -0.166192
1.084846 -0.356824 -0.168706
-0.217530 0.285958 -0.104256
-0.131548 0.284843 -0.107012
0.287276 0.279949 -0.114809
0.461267 0.267650 -0.126606
0.621527 0.242848 -0.141354
0.817348 0.176450 -0.162724
0.985690 -0.200851 -0.176630
1.062978 -0.293590 -0.178548
1.085074 -0.316921 -0.178676
-0.326295 0.428938 -0.156384
-0.279864 0.428248 -0.158238
0.187369 0.425676 -0.163645
0.430914 0.419924 -0.172213
0.608825 0.409267 -0.183447
0.813466 0.385816 -0.200527
0.985965 0.280005 -0.205104
1.063311 -0.138361 -0.197368
1.085333 -0.224377 -0.194102
-0.435061 0.571917 -0.208512
-0.402024 0.571414 -0.209907
-0.263096 0.569686 -0.214024
0.354845 0.566131 -0.220679
0.574552 0.559898 -0.229617
0.797944 0.546797 -0.243587
0.984502 0.455234 -0.239841
1.063370 0.301422 -0.221121
1.085479 0.212575 -0.213847
-0.571189 0.750867 -0.273754
-0.546669 0.750490 -0.274819
-0.460609 0.749261 -0.277981
-0.199154 0.746897 -0.283155
0.482134 0.742977 -0.290213
0.754327 0.735089 -0.301463
0.978509 0.642863 -0.290353
1.062656 0.480342 -0.256245
1.085277 0.407045 -0.243325
-0.724332 0.952183 -0.347151
-0.707838 0.952064 -0.347934
-0.654360 0.951689 -0.350279
-0.546464 0.951005 -0.354178
-0.293744 0.949925 -0.359621
0.568617 0.947838 -0.368589
0.954202 0.929866 -0.381343
1.058895 0.711084 -0.318837
1.083600 0.623088 -0.295835
-0.795038 1.045131 -0.381039
-0.784980 1.045096 -0.381535
-0.753518 1.044988 -0.383024
-0.695999 1.044798 -0.385508
-0.600599 1.044510 -0.388989
-0.354792 1.043984 -0.394757
0.652331 1.042740 -0.406419
1.046199 1.019517 -0.418109
1.077644 0.889917 -0.376953
-0.814659 1.070924 -0.390442
-0.806641 1.070902 -0.390841
-0.781799 1.070836 -0.392039
-0.737411 1.070721 -0.394036
-0.667314 1.070549 -0.396836
-0.517896 1.070240 -0.401478
0.456638 1.069528 -0.410859
0.911393 1.068046 -0.427023
1.071770 1.044436 -0.428328
-0.037198 -0.015085 0.116095
0.154665 -0.055023 0.132766
0.309860 -0.106528 0.144111
0.464812 -0.158781 0.148093
0.619747 -0.211234 0.146266
0.813657 -0.276990 0.135418
0.984376 -0.334850 0.078527
1.062493 -0.361279 -0.100644
1.084756 -0.368808 -0.120570
-0.114993 0.143539 0.137715
0.140203 0.140203 0.140203
0.310070 0.121096 0.143767
0.466562 0.014768 0.144322
0.621581 -0.151011 0.140301
0.815291 -0.236306 0.126694
0.984810 -0.309537 0.058289
1.062634 -0.346319 -0.108453
1.084846 -0.356974 -0.125706
-0.220712 0.286254 0.132831
-0.137391 0.285087 0.132414
0.285606 0.280072 0.130496
0.460599 0.267636 0.125543
0.621189 0.242688 0.115515
0.817181 0.175976 0.089680
0.985667 -0.201308 -0.081499
1.062974 -0.293800 -0.128440
1.085072 -0.317082 -0.139751
-0.328425 0.429137 0.085736
-0.282410 0.428431 0.082908
0.183224 0.425816 0.073057
0.429806 0.420007 0.048174
0.608246 0.409289 -0.058502
0.813157 0.385760 -0.103480
0.985918 0.279846 -0.138323
1.063303 -0.138831 -0.155177
1.085328 -0.224595 -0.159996
-0.436660 0.572067 -0.127158
-0.403775 0.571557 -0.129355
-0.266077 0.569810 -0.135722
0.353025 0.566226 -0.145701
0.573723 0.559961 -0.158595
0.797495 0.546817 -0.177850
0.984429 0.455250 -0.188186
1.063356 0.301330 -0.185554
1.085472 0.212407 -0.184236
-0.572409 0.750982 -0.220820
-0.547951 0.750602 -0.222083
-0.462183 0.749363 -0.225829
-0.203913 0.746986 -0.231935
0.480822 0.743049 -0.240220
0.753696 0.735136 -0.253322
0.978399 0.642987 -0.249953
1.062634 0.480357 -0.226940
1.085266 0.407026 -0.218351
-0.725138 0.952220 -0.313268
-0.708668 0.952100 -0.314103
-0.655277 0.951724 -0.316605
-0.547624 0.951037 -0.320758
-0.296434 0.949954 -0.326542
0.567581 0.947863 -0.336041
0.954004 0.930128 -0.350269
1.058861 0.711186 -0.295755
1.083582 0.623144 -0.275853
-0.795526 1.045142 -0.360814
-0.785477 1.045107 -0.361325
-0.754042 1.044999 -0.362861
-0.696581 1.044808 -0.365420
-0.601309 1.044520 -0.369004
-0.356250 1.043993 -0.374937
0.651725 1.042747 -0.386904
1.046140 1.019739 -0.399509
1.077616 0.890053 -0.360879
-0.815048 1.070931 -0.374412
-0.807035 1.070909 -0.374820
-0.782210 1.070843 -0.376045
-0.737855 1.070727 -0.378088
-0.667821 1.070555 -0.380951
-0.518613 1.070246 -0.385692
0.455798 1.069533 -0.395262
0.911086 1.068050 -0.411713
1.071734 1.044624 -0.413575
-0.074397 -0.030169 0.232190
0.150838 -0.061336 0.246654
0.309330 -0.110047 0.265532
0.464689 -0.161188 0.279120
0.619719 -0.213056 0.288222
0.813664 -0.278385 0.294637
0.984382 -0.335765 0.263226
1.062496 -0.361833 0.203117
1.084758 -0.369249 0.173544
-0.131893 0.144782 0.257393
0.128250 0.140635 0.262408
0.307721 0.119999 0.272421
0.465734 -0.031226 0.281774
0.621219 -0.153262 0.288714
0.815140 -0.237806 0.293621
0.984794 -0.310489 0.260963
1.062633 -0.346885 0.200431
1.084845 -0.357422 0.170663
-0.229986 0.287077 0.275431
-0.153322 0.285763 0.276880
0.280406 0.280406 0.280406
0.458531 0.267572 0.284388
0.620140 0.242192 0.287533
0.816659 0.174533 0.289179
0.985596 -0.202672 0.253649
1.062962 -0.294431 0.191890
1.085067 -0.317565 0.161454
-0.334731 0.429715 0.277880
-0.289902 0.428962 0.278230
0.169822 0.426222 0.279055
0.426428 0.420246 0.279803
0.606486 0.409348 0.279841
0.812214 0.385586 0.278035
0.985775 0.279368 0.239577
1.063276 -0.140230 0.175721
1.085315 -0.225249 0.143706
-0.441424 0.572508 0.265662
-0.408981 0.571978 0.265477
-0.274782 0.570173 0.264827
0.347463 0.566507 0.263454
0.571211 0.560145 0.260993
0.796139 0.546872 0.255735
0.984208 0.455298 0.215017
1.063312 0.301052 0.147124
1.085449 0.211900 0.110327
-0.576051 0.751321 0.223526
-0.551777 0.750932 0.222785
-0.466869 0.749667 0.220491
-0.217361 0.747249 0.216430
0.476846 0.743261 0.210236
0.751793 0.735278 0.198602
0.978067 0.643360 0.151839
1.062568 0.480402 0.041782
1.085231 0.406970 -0.086439
-0.727552 0.952329 -0.146228
-0.711152 0.952208 -0.148052
-0.658020 0.951827 -0.153379
-0.551087 0.951133 -0.161835
-0.304315 0.950041 -0.172943
0.564455 0.947936 -0.189883
0.953407 0.930913 -0.217549
1.058757 0.711494 -0.203112
1.083528 0.623311 -0.197938
-0.796989 1.045175 -0.287607
-0.786964 1.045139 -0.288211
-0.755611 1.045030 -0.290022
-0.698324 1.044838 -0.293030
-0.603431 1.044549 -0.297222
-0.360579 1.044019 -0.304112
0.649901 1.042768 -0.317832
1.045963 1.020408 -0.334497
1.077530 0.890458 -0.305157
-0.816213 1.070951 -0.319289
-0.808216 1.070929 -0.319744
-0.783440 1.070862 -0.321107
-0.739185 1.070746 -0.323376
-0.669341 1.070573 -0.326547
-0.520755 1.070263 -0.331780
0.453264 1.069547 -0.342274
0.910163 1.068061 -0.360118
1.071624 1.045189 -0.364023
-0.111595 -0.045254 0.348285
0.137845 -0.070308 0.359828
0.307066 -0.115546 0.380197
0.463995 -0.165070 0.398298
0.619453 -0.216035 0.412720
0.813574 -0.280684 0.426260
0.984378 -0.337288 0.391082
1.062498 -0.362756 0.320288
1.084760 -0.369984 0.287882
-0.155995 0.145837 0.371358
0.100605 0.140702 0.377194
0.302988 0.117826 0.390005
0.464004 -0.049337 0.403618
0.620439 -0.156942 0.415552
0.814799 -0.240282 0.427353
0.984755 -0.312073 0.390576
1.062628 -0.347829 0.319251
1.084844 -0.358170 0.286749
-0.244648 0.288256 0.398007
-0.176163 0.286725 0.400283
0.271080 0.280851 0.406141
0.454878 0.267396 0.413629
0.618278 0.241318 0.421149
0.815727 0.172055 0.429266
0.985467 -0.204932 0.388825
1.062940 -0.295482 0.316031
1.085057 -0.318370 0.283254
-0.344979 0.430616 0.413146
-0.301940 0.429788 0.414143
0.143018 0.426851 0.416855
0.420609 0.420609 0.420609
0.603471 0.409420 0.424653
0.810598 0.385280 0.429189
0.985529 0.278561 0.385219
1.063229 -0.142527 0.310295
1.085292 -0.226337 0.277099
-0.449248 0.573217 0.417988
-0.417504 0.572654 0.418409
-0.288580 0.570756 0.419566
0.337822 0.566955 0.421178
0.566948 0.560435 0.422880
0.793843 0.546953 0.424574
0.983832 0.455376 0.378908
1.063238 0.300584 0.301450
1.085412 0.211049 0.267725
-0.582070 0.751875 0.410531
-0.558094 0.751471 0.410569
-0.474565 0.750162 0.410640
-0.237573 0.747677 0.410623
0.470081 0.743607 0.410344
0.748586 0.735507 0.409309
0.977507 0.643982 0.365348
1.062456 0.480476 0.284430
1.085173 0.406876 0.249923
-0.731556 0.952508 0.342748
-0.715271 0.952385 0.342489
-0.662563 0.951996 0.341698
-0.556801 0.951291 0.340336
-0.316870 0.950184 0.338340
0.559179 0.948056 0.334804
0.952398 0.932224 0.323137
1.058582 0.712009 0.237165
1.083437 0.623590 0.200925
-0.799421 1.045228 0.149064
-0.789437 1.045192 0.147950
-0.758219 1.045082 0.144517
-0.701217 1.044888 0.138470
-0.606947 1.044596 0.129190
-0.367643 1.044062 0.110941
0.646841 1.042804 0.037874
1.045666 1.021525 -0.133218
1.077388 0.891136 -0.146193
-0.818152 1.070984 -0.171059
-0.810180 1.070962 -0.171924
-0.785486 1.070895 -0.174493
-0.741395 1.070777 -0.178688
-0.671865 1.070603 -0.184399
-0.524301 1.070291 -0.193481
0.448994 1.069571 -0.210635
0.908621 1.068079 -0.237428
1.071441 1.046133 -0.248571
-0.148793 -0.060339 0.464380
0.106271 -0.081029 0.473735
0.301676 -0.122671 0.493309
0.462149 -0.170273 0.513417
0.618660 -0.220093 0.531065
0.813248 -0.283849 0.549246
0.984345 -0.339416 0.507336
1.062495 -0.364049 0.421794
1.084760 -0.371014 0.383392
-0.184488 0.145963 0.484582
-0.054890 0.139821 0.490457
0.294827 0.114123 0.504269
0.460928 -0.065409 0.520210
0.619000 -0.161951 0.535285
0.814145 -0.243697 0.551563
0.984675 -0.314286 0.507746
1.062617 -0.349150 0.421445
1.084840 -0.359217 0.382890
-0.263785 0.289564 0.514786
-0.203285 0.287776 0.517544
0.256501 0.281269 0.524816
0.449344 0.267017 0.534518
0.615442 0.239998 0.544842
0.814291 0.168426 0.557034
0.985264 -0.208064 0.508791
1.062905 -0.296953 0.420345
1.085040 -0.319497 0.381345
-0.358825 0.431756 0.537121
-0.317971 0.430832 0.538521
0.083109 0.427639 0.542406
0.412055 0.421048 0.548011
0.599081 0.409471 0.554466
0.808242 0.384817 0.562655
0.985166 0.277411 0.510047
1.063161 -0.145676 0.418343
1.085259 -0.227854 0.378638
-0.459973 0.574154 0.550862
-0.429138 0.573547 0.551617
-0.306643 0.571526 0.553761
0.323460 0.567544 0.556967
0.560812 0.560812 0.560812
0.790554 0.547045 0.565879
0.983292 0.455481 0.511068
1.063130 0.299924 0.415212
1.085357 0.209844 0.374573
-0.590390 0.752626 0.557291
-0.566813 0.752201 0.557629
-0.485109 0.750833 0.558595
-0.262513 0.748257 0.560053
0.460300 0.744074 0.561811
0.744024 0.735814 0.564095
0.976708 0.644855 0.511419
1.062297 0.480581 0.409224
1.085091 0.406743 0.367122
-0.737121 0.952754 0.509192
-0.720994 0.952627 0.509283
-0.668863 0.952229 0.509549
-0.564683 0.951507 0.509974
-0.333397 0.950380 0.510531
0.551651 0.948220 0.511361
0.950959 0.934064 0.507968
1.058334 0.712733 0.393948
1.083309 0.623982 0.349054
-0.802812 1.045303 0.375611
-0.792884 1.045266 0.375465
-0.761852 1.045154 0.375022
-0.705245 1.044957 0.374274
-0.611828 1.044661 0.373202
-0.377235 1.044121 0.371367
0.642518 1.042852 0.367433
1.045246 1.023098 0.354024
1.077187 0.892090 0.304656
-0.820857 1.071030 0.300471
-0.812920 1.071008 0.300218
-0.788341 1.070940 0.299453
-0.744477 1.070821 0.298162
-0.675380 1.070645 0.296319
-0.529214 1.070329 0.293177
0.442913 1.069605 0.286477
0.906454 1.068104 0.273724
1.071183 1.047462 0.259642
-0.195350 -0.079218 0.609683
-0.095341 -0.096041 0.617147
0.288373 -0.133411 0.634800
0.457263 -0.178401 0.655405
0.616409 -0.226559 0.675226
0.812236 -0.288960 0.697233
0.984223 -0.342929 0.645200
1.062479 -0.366189 0.539723
1.084754 -0.372718 0.492980
-0.223766 0.144070 0.626708
-0.147602 0.136646 0.632195
0.277687 0.106377 0.645937
0.454381 -0.084571 0.663106
0.615832 -0.169909 0.680501
0.812643 -0.249225 0.700551
0.984479 -0.317938 0.646387
1.062587 -0.351336 0.539895
1.084827 -0.360951 0.492927
-0.292674 0.291034 0.657828
-0.240851 0.288902 0.660888
0.227561 0.281516 0.669137
0.439147 0.266089 0.680543
0.610198 0.237582 0.693200
0.811601 0.161985 0.708938
0.984877 -0.213172 0.649781
1.062837 -0.299381 0.540377
1.085008 -0.321360 0.492747
-0.380604 0.433365 0.685429
-0.342740 0.432302 0.687165
-0.140964 0.428729 0.692041
0.396795 0.421611 0.699234
0.591393 0.409436 0.707786
0.804113 0.383966 0.719164
0.984524 0.275454 0.655034
1.063039 -0.150728 0.541090
1.085198 -0.230349 0.492384
-0.477173 0.575574 0.706267
-0.447687 0.574898 0.707311
-0.333993 0.572687 0.710304
0.297023 0.568425 0.714879
0.550221 0.561360 0.720553
0.784924 0.547141 0.728464
0.982360 0.455647 0.661875
1.062945 0.298817 0.541938
1.085263 0.207814 0.491759
-0.603896 0.753805 0.723224
-0.580939 0.753348 0.723803
-0.502012 0.751886 0.725484
-0.298007 0.749167 0.728112
0.443259 0.744803 0.731462
0.736288 0.736288 0.736288
0.975345 0.646304 0.672597
1.062027 0.480754 0.543068
1.084951 0.406520 0.490465
-0.746229 0.953149 0.682341
-0.730353 0.953017 0.682663
-0.679142 0.952602 0.683625
-0.577438 0.951855 0.685216
-0.358557 0.950694 0.687419
0.538817 0.948484 0.691006
0.948510 0.937119 0.693727
1.057919 0.713938 0.544699
1.083095 0.624633 0.487003
-0.808387 1.045424 0.548122
-0.798549 1.045386 0.548189
-0.767819 1.045271 0.548392
-0.711848 1.045070 0.548728
-0.619799 1.044768 0.549196
-0.392419 1.044218 0.549965
0.635261 1.042931 0.551500
1.044541 1.025720 0.546398
1.076851 0.893676 0.478483
-0.825311 1.071106 0.480471
-0.817431 1.071083 0.480461
-0.793037 1.071013 0.480431
-0.749542 1.070892 0.480379
-0.681146 1.070713 0.480301
-0.537214 1.070393 0.480162
0.432573 1.069659 0.479842
0.902847 1.068145 0.479180
1.070750 1.049674 0.470905
-0.265288 -0.107579 0.827956
-0.208481 -0.120545 0.833371
0.246345 -0.152106 0.846759
0.439517 -0.192303 0.862980
0.602175 -0.236139 0.878698
0.792926 -0.293019 0.895851
0.983741 -0.349974 0.844454
1.062402 -0.370498 0.707326
1.084719 -0.376152 0.647442
-0.286579 0.135243 0.840585
-0.234963 0.125413 0.844804
0.226959 0.082987 0.855572
0.433217 -0.111822 0.869217
0.599032 -0.182472 0.882992
0.791264 -0.254481 0.898557
0.983864 -0.325255 0.846499
1.062484 -0.355737 0.708027
1.084779 -0.364441 0.647822
-0.341249 0.290249 0.865359
-0.299485 0.287398 0.867809
0.130308 0.278046 0.874404
0.409249 0.259779 0.883461
0.586916 0.227707 0.893377
0.784800 0.143368 0.905454
0.983909 -0.223200 0.852491
1.062662 -0.304256 0.710111
1.084923 -0.325106 0.648952
-0.414492 0.429042 0.888086
-0.381342 0.427471 0.889456
-0.238574 0.422475 0.893288
0.353590 0.413266 0.898888
0.559838 0.398643 0.905467
0.770220 0.370065 0.914092
0.983071 0.271310 0.862156
1.062760 -0.160383 0.713544
1.085058 -0.235318 0.650813
-0.497085 0.563367 0.905593
-0.470291 0.562289 0.906400
-0.371782 0.558924 0.908705
0.221024 0.552906 0.912211
0.509780 0.543685 0.916535
0.743818 0.526559 0.922532
0.980338 0.455949 0.875366
1.062545 0.296525 0.718316
1.085058 0.203583 0.653389
-0.607185 0.728386 0.921113
-0.585920 0.727616 0.921564
-0.513998 0.725244 0.922872
-0.342328 0.721101 0.924922
0.388145 0.714926 0.927545
0.687468 0.703823 0.931359
0.972447 0.649244 0.897211
1.061459 0.481100 0.726269
1.084656 0.406062 0.657644
-0.764198 0.953900 0.915201
-0.748798 0.953757 0.915762
-0.699307 0.953312 0.917440
-0.602129 0.952516 0.920228
-0.403118 0.951290 0.924113
0.511382 0.948983 0.930508
0.943302 0.943302 0.943302
1.057057 0.716394 0.743157
1.082652 0.625957 0.666462
-0.819476 1.045659 0.761863
-0.809814 1.045620 0.762101
-0.779668 1.045499 0.762816
-0.724919 1.045289 0.764010
-0.635464 1.044975 0.765690
-0.420797 1.044407 0.768489
0.620241 1.043086 0.774209
1.043083 1.031076 0.777341
1.076160 0.896906 0.683412
-0.834190 1.071254 0.687547
-0.826422 1.071230 0.687689
-0.802391 1.071157 0.688116
-0.759613 1.071032 0.688829
-0.692571 1.070847 0.689832
-0.552861 1.070517 0.691502
0.410587 1.069766 0.694911
0.895508 1.068226 0.700898
1.069862 1.054181 0.696368
-0.315397 -0.127899 0.984346
-0.279941 -0.136492 0.985759
0.038739 -0.158804 0.989563
0.351720 -0.188906 0.994792
0.509107 -0.222844 1.000538
0.679635 -0.267758 1.007593
0.914738 -0.337069 1.016980
1.062145 -0.377867 0.911757
1.084596 -0.382024 0.834416
-0.328077 0.096012 0.987760
-0.294449 0.081323 0.988988
-0.112574 -0.060264 0.992332
0.342083 -0.128829 0.997013
0.503882 -0.178981 1.002256
0.676472 -0.235195 1.008815
0.912898 -0.313850 1.017719
1.062186 -0.363257 0.912965
1.084635 -0.370408 0.835193
-0.362818 0.253214 0.995699
-0.333401 0.249936 0.996571
-0.207023 0.239577 0.999000
0.309326 0.220293 1.002530
0.486985 0.187480 1.006655
0.666386 0.094618 1.012052
0.907100 -0.221458 1.019743
1.062253 -0.312544 0.916587
1.084721 -0.331493 0.837523
-0.412876 0.375048 1.004577
-0.388040 0.373219 1.005152
-0.294359 0.367586 1.006785
0.235678 0.357701 1.009247
0.454792 0.342772 1.012250
0.647808 0.314920 1.016373
0.896605 0.241093 1.022599
1.062188 -0.175612 0.922627
1.084770 -0.243653 0.841411
-0.472401 0.488830 1.012584
-0.451524 0.487586 1.012963
-0.378470 0.483787 1.014056
-0.152868 0.477241 1.015748
0.399945 0.467629 1.017883
0.618398 0.450572 1.020937
0.880413 0.411489 1.025800
1.061778 0.292417 0.931148
1.084665 0.195875 0.846891
-0.554679 0.625999 1.020747
-0.537644 0.625124 1.020981
-0.481143 0.622466 1.021664
-0.356836 0.617938 1.022745
0.262972 0.611394 1.024150
0.560706 0.600059 1.026236
0.850267 0.575343 1.029737
1.060416 0.481690 0.945583
1.084116 0.405251 0.856126
-0.687352 0.826945 1.029509
-0.674278 0.826354 1.029633
-0.632659 0.824570 1.029998
-0.552863 0.821556 1.030588
-0.400791 0.817251 1.031373
0.390870 0.809919 1.032580
0.777368 0.794400 1.034715
1.055509 0.720679 0.976762
1.081860 0.628255 0.875737
-0.838014 1.046039 1.003602
-0.828633 1.045997 1.003991
-0.799420 1.045867 1.005159
-0.746600 1.045642 1.007113
-0.661144 1.045308 1.009863
-0.464056 1.044710 1.014452
0.593196 1.043332 1.023849
1.040467 1.040467 1.040467
1.074937 0.902533 0.914114
-0.849096 1.071495 0.915543
-0.841508 1.071470 0.915808
-0.818064 1.071393 0.916604
-0.776440 1.071260 0.917934
-0.711549 1.071065 0.919806
-0.578311 1.070720 0.922927
0.368518 1.069939 0.929310
0.882727 1.068355 0.940547
1.068288 1.062051 0.943484
-0.328020 -0.133018 1.023741
-0.299737 -0.140012 1.024585
-0.173395 -0.158633 1.026912
0.295662 -0.184469 1.030237
0.455399 -0.214183 1.034049
0.618966 -0.254041 1.038939
0.838998 -0.316165 1.045772
1.061902 -0.382622 1.017914
1.084477 -0.385812 0.930928
-0.338116 0.063491 1.025801
-0.310969 0.034921 1.026558
-0.195262 -0.085869 1.028658
0.284684 -0.133474 1.031695
0.449838 -0.175470 1.035224
0.615606 -0.224701 1.039816
0.837009 -0.294982 1.046332
1.061921 -0.368105 1.019359
1.084504 -0.374254 0.931884
-0.366297 0.230652 1.030843
-0.341917 0.227396 1.031416
-0.246826 0.217128 1.033031
0.246655 0.198030 1.035429
0.432094 0.165257 1.038302
0.605078 0.058244 1.042171
0.830840 -0.211900 1.047882
1.061922 -0.317859 1.023699
1.084556 -0.335599 0.934757
-0.407926 0.345476 1.036875
-0.386796 0.343678 1.037277
-0.310391 0.338161 1.038426
0.148048 0.328541 1.040179
0.398688 0.314110 1.042352
0.586118 0.287347 1.045393
0.819938 0.216365 1.050104
1.061760 -0.184767 1.030959
1.084553 -0.248928 0.939566
-0.458512 0.450888 1.042650
-0.440387 0.449668 1.042927
-0.378233 0.445953 1.043732
-0.216093 0.439586 1.044985
0.341481 0.430300 1.046582
0.556639 0.413946 1.048896
0.803501 0.376800 1.052649
1.061230 0.289634 1.041241
1.084384 0.190548 0.946363
-0.529647 0.576853 1.048856
-0.514606 0.575995 1.049035
-0.465168 0.573398 1.049559
-0.360053 0.568990 1.050390
0.182724 0.562654 1.051477
0.499403 0.551749 1.053103
0.773530 0.528184 1.055870
1.059695 0.482069 1.058732
1.083743 0.404708 0.957860
-0.645888 0.759944 1.055939
-0.634184 0.759365 1.056038
-0.597053 0.757618 1.056331
-0.526513 0.754673 1.056804
-0.395985 0.750481 1.057436
0.327458 0.743377 1.058413
0.702422 0.728449 1.060157
1.021703 0.701027 1.062606
1.081327 0.629761 0.982369
-0.802514 0.988171 1.061779
-0.793531 0.987776 1.061831
-0.765655 0.986589 1.061985
-0.715633 0.984595 1.062236
-0.635758 0.981774 1.062577
-0.457494 0.977034 1.063115
0.532731 0.967226 1.064110
0.942430 0.949677 1.065581
1.074120 0.906232 1.030446
-0.858526 1.071643 1.028168
-0.851049 1.071617 1.028486
-0.827962 1.071538 1.029442
-0.787037 1.071400 1.031040
-0.723435 1.071199 1.033289
-0.593946 1.070844 1.037041
0.337309 1.070046 1.044716
0.874327 1.068434 1.058231
1.067235 1.067235 1.067235
