LUTS_for_Software/HLG-to-from-SDR - Type III and Type I/Type I LUTs - Narrow Range Clipped/3-NBCU_HLG2SDR_DL_v1-Type1_AdobeFormat.cube
TITLE "HLG-BT.2100 to SDR-BT.709 Display-Light Conversion 3D Look-Up-Table"
# 
# PLEASE DO NOT ALTER THE LINES BELOW
#  
# © 2020 NBCUniversal, LLC - Please do not remove this line
# 
# Built using tools from and in collaboration with Cromorama and Nick Shaw - the creators of ORION-CONVERT
# 
# MaxRGB 2-stage highlight compression knee
# 
# Parameters designed by Chris Seeger, NBCU Advanced Technology (chris.seeger@nbcuni.com)
# In collaboration with Michael Drazin, NBCU Sports Group (michael.drazin@nbcuni.com)
# 
# 75% HLG maps to 94% SDR (before highlight compression)
# Highlight compression from 94% to 109% SDR
# Stage 1 Pre-rolled-off HDR highlights
# Stage 2 Post-Rolled off converted SDR highlights
# 
# Sophisticated Highlight Knee REQUIRES the use of devices using Tetrehedral Interpolation
# 
# Display-Light Conversion (absolute chromaticity is preserved from input to output)
# Display-Light Conversion preserves original artistic intent
# 
# No Matrix Compensation (so make sure your device is using the correct matrix)
# 
# Type I LUT - Narrow Range processing clipped to 0-100% Signal level
# 
LUT_3D_SIZE 33
DOMAIN_MIN 0.000000 0.000000 0.000000
DOMAIN_MAX 1.000000 1.000000 1.000000
0.000000 0.000000 0.000000
0.038733 -0.013164 -0.005900
0.077466 -0.026328 -0.011800
0.116200 -0.039491 -0.017700
0.154933 -0.052655 -0.023600
0.193666 -0.065819 -0.029500
0.232400 -0.078982 -0.035401
0.271133 -0.092146 -0.041301
0.309866 -0.105310 -0.047201
0.348599 -0.118474 -0.053101
0.387333 -0.131637 -0.059001
0.426066 -0.144801 -0.064901
0.464799 -0.157965 -0.070801
0.503532 -0.171129 -0.076701
0.542266 -0.184292 -0.082601
0.580999 -0.197456 -0.088501
0.619732 -0.210620 -0.094401
0.660701 -0.224544 -0.100642
0.706400 -0.240075 -0.107603
0.757235 -0.257351 -0.115347
0.813644 -0.276522 -0.123939
0.869368 -0.295460 -0.132428
0.915033 -0.310980 -0.139383
0.952800 -0.323815 -0.145136
0.984372 -0.334545 -0.149946
1.011013 -0.343599 -0.154004
1.033675 -0.351301 -0.157456
1.051060 -0.357210 -0.160104
1.062492 -0.361095 -0.161845
1.070541 -0.363830 -0.163071
1.076508 -0.365858 -0.163980
1.081106 -0.367421 -0.164681
1.084756 -0.368661 -0.165237
-0.027191 0.035745 -0.013032
0.035909 0.034994 -0.014351
0.077691 0.030356 -0.017669
0.116700 0.006079 -0.022076
0.155421 -0.037563 -0.027048
0.194102 -0.054962 -0.032330
0.232784 -0.070361 -0.037794
0.271474 -0.084953 -0.043371
0.310171 -0.099120 -0.049024
0.348875 -0.113032 -0.054728
0.387583 -0.126778 -0.060470
0.426295 -0.140409 -0.066240
0.465011 -0.153956 -0.072030
0.503729 -0.167440 -0.077837
0.542449 -0.180876 -0.083657
0.581170 -0.194275 -0.089488
0.619893 -0.207642 -0.095327
0.660853 -0.221755 -0.101511
0.706542 -0.237470 -0.108416
0.757368 -0.254924 -0.116106
0.813767 -0.274266 -0.124646
0.869456 -0.293374 -0.133075
0.915094 -0.309088 -0.139966
0.952842 -0.322125 -0.145655
0.984402 -0.333053 -0.150402
1.011034 -0.342292 -0.154402
1.033691 -0.350165 -0.157802
1.051072 -0.356211 -0.160408
1.062501 -0.360189 -0.162121
1.070549 -0.362990 -0.163327
1.076515 -0.365068 -0.164220
1.081112 -0.366668 -0.164909
1.084762 -0.367939 -0.165456
-0.054383 0.071490 -0.026064
-0.032887 0.071211 -0.026753
0.071819 0.069987 -0.028702
0.115317 0.066913 -0.031651
0.155382 0.060712 -0.035339
0.194543 0.048809 -0.039555
0.233400 0.012157 -0.044152
0.272143 -0.053195 -0.049024
0.310841 -0.075126 -0.054097
0.349525 -0.093336 -0.059321
0.388204 -0.109923 -0.064661
0.426884 -0.125607 -0.070089
0.465568 -0.140723 -0.075588
0.504256 -0.155453 -0.081143
0.542948 -0.169905 -0.086742
0.581643 -0.184152 -0.092379
0.620342 -0.198240 -0.098047
0.661279 -0.213005 -0.104070
0.706944 -0.229345 -0.110817
0.757747 -0.247394 -0.118351
0.814123 -0.267298 -0.126740
0.869711 -0.286961 -0.134997
0.915270 -0.303295 -0.141700
0.952966 -0.316967 -0.147198
0.984490 -0.328509 -0.151762
1.011097 -0.338323 -0.155591
1.033736 -0.346720 -0.158835
1.051106 -0.353187 -0.161316
1.062529 -0.357448 -0.162944
1.070572 -0.360451 -0.164089
1.076536 -0.362679 -0.164938
1.081131 -0.364396 -0.165592
1.084779 -0.365760 -0.166111
-0.081574 0.107234 -0.039096
-0.069966 0.107062 -0.039559
0.046842 0.106419 -0.040911
0.107729 0.104981 -0.043053
0.152206 0.102317 -0.045862
0.193274 0.097912 -0.049215
0.233072 0.091068 -0.053008
0.272309 0.080581 -0.057152
0.311274 0.063497 -0.061577
0.350100 0.018236 -0.066228
0.388853 -0.065767 -0.071061
0.427568 -0.091807 -0.076043
0.466262 -0.112690 -0.081146
0.504946 -0.131255 -0.086349
0.543627 -0.148496 -0.091635
0.582306 -0.164885 -0.096991
0.620986 -0.180681 -0.102407
0.661901 -0.196923 -0.108190
0.707543 -0.214617 -0.114696
0.758319 -0.233908 -0.121993
0.814667 -0.254949 -0.130149
0.870105 -0.275705 -0.138136
0.915547 -0.293211 -0.144538
0.953163 -0.308049 -0.149730
0.984631 -0.320699 -0.153999
1.011198 -0.331533 -0.157551
1.033809 -0.340851 -0.160540
1.051161 -0.348051 -0.162816
1.062574 -0.352803 -0.164306
1.070610 -0.356155 -0.165352
1.076570 -0.358642 -0.166128
1.081162 -0.360558 -0.166724
1.084807 -0.362079 -0.167198
-0.108765 0.142979 -0.052128
-0.100506 0.142854 -0.052477
-0.065774 0.142422 -0.053506
0.088711 0.141533 -0.055170
0.143638 0.139975 -0.057404
0.188745 0.137499 -0.060138
0.230633 0.133825 -0.063303
0.271071 0.128618 -0.066835
0.310763 0.121424 -0.070677
0.350044 0.111535 -0.074783
0.389087 0.097618 -0.079111
0.427987 0.076321 -0.083627
0.466800 0.024314 -0.088304
0.505560 -0.076553 -0.093117
0.544285 -0.106390 -0.098047
0.582990 -0.129788 -0.103077
0.621683 -0.150253 -0.108194
0.662601 -0.170063 -0.113688
0.708238 -0.190743 -0.119901
0.759002 -0.212573 -0.126902
0.815333 -0.235803 -0.134765
0.870595 -0.258556 -0.142405
0.915898 -0.278068 -0.148413
0.953415 -0.294815 -0.153200
0.984814 -0.309220 -0.157073
1.011331 -0.321634 -0.160251
1.033906 -0.332352 -0.162895
1.051235 -0.340650 -0.164891
1.062634 -0.346131 -0.166192
1.070662 -0.349996 -0.167103
1.076616 -0.352863 -0.167777
1.081204 -0.355072 -0.168295
1.084846 -0.356824 -0.168706
-0.135956 0.178724 -0.065160
-0.129495 0.178625 -0.065439
-0.106341 0.178299 -0.066269
0.025318 0.177665 -0.067623
0.126747 0.176603 -0.069467
0.179547 0.174968 -0.071755
0.225092 0.172600 -0.074444
0.267642 0.169323 -0.077487
0.308663 0.164935 -0.080844
0.348819 0.159195 -0.084475
0.388454 0.151780 -0.088346
0.427764 0.142222 -0.092428
0.466864 0.129755 -0.096694
0.505825 0.112912 -0.101121
0.544694 0.087985 -0.105689
0.583500 0.030393 -0.110380
0.622264 -0.086106 -0.115181
0.663233 -0.121143 -0.120363
0.708906 -0.150828 -0.126255
0.759693 -0.178907 -0.132929
0.816034 -0.206826 -0.140461
0.871128 -0.233432 -0.147698
0.916289 -0.256429 -0.153239
0.953704 -0.276270 -0.157540
0.985027 -0.293383 -0.160931
1.011489 -0.308145 -0.163651
1.034023 -0.320887 -0.165869
1.051324 -0.330740 -0.167519
1.062708 -0.337238 -0.168583
1.070726 -0.341814 -0.169324
1.076672 -0.345204 -0.169871
1.081255 -0.347813 -0.170291
1.084893 -0.349881 -0.170624
-0.163148 0.214469 -0.078192
-0.157825 0.214387 -0.078425
-0.139932 0.214124 -0.079119
-0.098661 0.213632 -0.080259
0.093684 0.212838 -0.081823
0.163775 0.211649 -0.083782
0.215457 0.209962 -0.086106
0.261324 0.207664 -0.088764
0.304412 0.204634 -0.091723
0.345950 0.200738 -0.094955
0.386548 0.195823 -0.098430
0.426545 0.189703 -0.102125
0.466145 0.182136 -0.106016
0.505475 0.172790 -0.110081
0.544619 0.161162 -0.114304
0.583630 0.146428 -0.118666
0.622548 0.126993 -0.123154
0.663640 0.096743 -0.128024
0.709413 -0.043177 -0.133587
0.760276 -0.116620 -0.139920
0.816673 -0.159747 -0.147102
0.871640 -0.195568 -0.153906
0.916684 -0.225392 -0.158928
0.954005 -0.250580 -0.162677
0.985255 -0.272000 -0.165517
1.011662 -0.290285 -0.167707
1.034153 -0.305934 -0.169428
1.051426 -0.317953 -0.170671
1.062792 -0.325839 -0.171456
1.070799 -0.331373 -0.171997
1.076737 -0.335461 -0.172394
1.081314 -0.338601 -0.172696
1.084948 -0.341086 -0.172936
-0.190339 0.250213 -0.091224
-0.185808 0.250144 -0.091424
-0.171081 0.249923 -0.092020
-0.141116 0.249521 -0.093003
-0.066167 0.248890 -0.094358
0.137462 0.247967 -0.096067
0.200379 0.246681 -0.098108
0.251366 0.244956 -0.100458
0.297480 0.242706 -0.103093
0.341013 0.239845 -0.105990
0.383005 0.236277 -0.109128
0.424014 0.231894 -0.112485
0.464364 0.226575 -0.116042
0.504260 0.220170 -0.119781
0.543836 0.212493 -0.123685
0.583181 0.203292 -0.127739
0.622359 0.192216 -0.131930
0.663663 0.177864 -0.136496
0.709617 0.157325 -0.141738
0.760630 0.124756 -0.147732
0.817146 0.041530 -0.154562
0.872066 -0.128012 -0.160918
0.917038 -0.177495 -0.165387
0.954291 -0.213841 -0.168537
0.985482 -0.242841 -0.170770
1.011839 -0.266708 -0.172370
1.034290 -0.286654 -0.173534
1.051534 -0.301723 -0.174317
1.062883 -0.311507 -0.174787
1.070878 -0.318327 -0.175100
1.076809 -0.323342 -0.175324
1.081380 -0.327180 -0.175493
1.085009 -0.330209 -0.175626
-0.217530 0.285958 -0.104256
-0.213583 0.285897 -0.104431
-0.201012 0.285707 -0.104953
-0.176928 0.285367 -0.105817
-0.131548 0.284843 -0.107012
0.085640 0.284093 -0.108525
0.177422 0.283066 -0.110340
0.236762 0.281705 -0.112440
0.287276 0.279949 -0.114809
0.333585 0.277736 -0.117427
0.377490 0.274998 -0.120277
0.419882 0.271662 -0.123342
0.461267 0.267650 -0.126606
0.501953 0.262876 -0.130053
0.542142 0.257236 -0.133669
0.581968 0.250611 -0.137440
0.621527 0.242848 -0.141354
0.663151 0.233185 -0.145637
0.709384 0.220259 -0.150572
0.760635 0.202430 -0.156239
0.817348 0.176450 -0.162724
0.872337 0.132315 -0.168635
0.917310 -0.064884 -0.172531
0.954535 -0.154293 -0.175047
0.985690 -0.200851 -0.176630
1.012009 -0.234839 -0.177591
1.034427 -0.261605 -0.178148
1.051645 -0.281149 -0.178427
1.062978 -0.293590 -0.178548
1.070962 -0.302162 -0.178609
1.076884 -0.308418 -0.178642
1.081449 -0.313179 -0.178663
1.085074 -0.316921 -0.178676
-0.244722 0.321703 -0.117288
-0.241223 0.321649 -0.117443
-0.230230 0.321482 -0.117908
-0.209898 0.321186 -0.118678
-0.175200 0.320739 -0.119746
-0.104854 0.320108 -0.121102
0.140526 0.319257 -0.122734
0.215852 0.318143 -0.124630
0.273015 0.316721 -0.126777
0.323186 0.314943 -0.129160
0.369653 0.312758 -0.131765
0.413873 0.310112 -0.134577
0.456618 0.306950 -0.137585
0.498347 0.303212 -0.140773
0.539350 0.298832 -0.144131
0.579822 0.293735 -0.147646
0.619897 0.287836 -0.151306
0.661961 0.280611 -0.155325
0.708584 0.271178 -0.159973
0.760174 0.258663 -0.165330
0.817175 0.241661 -0.171483
0.872387 0.215735 -0.176967
0.917456 0.174845 -0.180283
0.954710 0.102165 -0.182142
0.985860 -0.127451 -0.183041
1.012161 -0.188468 -0.183325
1.034556 -0.227977 -0.183233
1.051754 -0.254665 -0.182968
1.063072 -0.271026 -0.182713
1.071046 -0.282075 -0.182499
1.076961 -0.290038 -0.182325
1.081521 -0.296046 -0.182184
1.085141 -0.300740 -0.182067
-0.271913 0.357448 -0.130320
-0.268771 0.357399 -0.130460
-0.258989 0.357250 -0.130879
-0.241307 0.356988 -0.131573
-0.212681 0.356597 -0.132537
-0.164435 0.356054 -0.133765
0.050636 0.355329 -0.135247
0.185269 0.354392 -0.136973
0.253494 0.353206 -0.138933
0.309186 0.351734 -0.141116
0.359095 0.349937 -0.143511
0.405694 0.347773 -0.146105
0.450185 0.345201 -0.148888
0.493243 0.342174 -0.151848
0.535285 0.338645 -0.154975
0.576584 0.334563 -0.158258
0.617326 0.329871 -0.161687
0.659962 0.324172 -0.165464
0.707098 0.316819 -0.169845
0.759140 0.307231 -0.174912
0.816532 0.294554 -0.180751
0.872151 0.275050 -0.185838
0.917434 0.245078 -0.188577
0.954787 0.203160 -0.189763
0.985975 0.139860 -0.189953
1.012283 -0.098630 -0.189529
1.034669 -0.178682 -0.188751
1.051854 -0.219137 -0.187911
1.063162 -0.241907 -0.187254
1.071128 -0.256711 -0.186748
1.077037 -0.267150 -0.186352
1.081592 -0.274917 -0.186037
1.085208 -0.280924 -0.185781
-0.299104 0.393193 -0.143352
-0.296253 0.393149 -0.143479
-0.287434 0.393013 -0.143860
-0.271741 0.392779 -0.144492
-0.247157 0.392431 -0.145371
-0.208918 0.391954 -0.146492
-0.140398 0.391324 -0.147848
0.135137 0.390516 -0.149431
0.226552 0.389504 -0.151233
0.290671 0.388256 -0.153245
0.345301 0.386743 -0.155458
0.395004 0.384930 -0.157862
0.441714 0.382785 -0.160447
0.486439 0.380271 -0.163205
0.529776 0.377352 -0.166126
0.572104 0.373989 -0.169201
0.613679 0.370140 -0.172421
0.657031 0.365490 -0.175977
0.704814 0.359531 -0.180113
0.757431 0.351834 -0.184909
0.815324 0.341797 -0.190454
0.871565 0.325764 -0.195183
0.917201 0.300299 -0.197353
0.954738 0.266152 -0.197859
0.986016 0.221869 -0.197321
1.012362 0.159923 -0.196161
1.034758 -0.071192 -0.194670
1.051941 -0.166124 -0.193226
1.063243 -0.202123 -0.192147
1.071204 -0.223459 -0.191332
1.077109 -0.237860 -0.190702
1.081660 -0.248302 -0.190202
1.085273 -0.256242 -0.189799
-0.326295 0.428938 -0.156384
-0.323685 0.428897 -0.156501
-0.315651 0.428773 -0.156850
-0.301518 0.428561 -0.157430
-0.279864 0.428248 -0.158238
-0.247696 0.427822 -0.159269
-0.197322 0.427265 -0.160518
-0.084842 0.426557 -0.161979
0.187369 0.425676 -0.163645
0.266134 0.424598 -0.165510
0.327550 0.423298 -0.167564
0.381376 0.421749 -0.169801
0.430914 0.419924 -0.172213
0.477717 0.417793 -0.174791
0.522648 0.415328 -0.177528
0.566235 0.412496 -0.180416
0.608825 0.409267 -0.183447
0.653052 0.405380 -0.186800
0.701626 0.400421 -0.190710
0.754950 0.394053 -0.195257
0.813466 0.385816 -0.200527
0.870564 0.372026 -0.204946
0.916718 0.348907 -0.206567
0.954537 0.318126 -0.206387
0.985965 0.280005 -0.205104
1.012386 0.232842 -0.203189
1.034816 0.169377 -0.200959
1.052008 0.046516 -0.198888
1.063311 -0.138361 -0.197368
1.071271 -0.175855 -0.196230
1.077173 -0.198072 -0.195354
1.081722 -0.213241 -0.194661
1.085333 -0.224377 -0.194102
-0.353487 0.464682 -0.169416
-0.351079 0.464645 -0.169524
-0.343698 0.464531 -0.169846
-0.330827 0.464336 -0.170382
-0.311416 0.464052 -0.171129
-0.283427 0.463667 -0.172083
-0.242417 0.463168 -0.173241
-0.174841 0.462538 -0.174597
0.118123 0.461760 -0.176146
0.232696 0.460814 -0.177881
0.304730 0.459679 -0.179798
0.364226 0.458333 -0.181888
0.417422 0.456754 -0.184146
0.466823 0.454918 -0.186564
0.513708 0.452799 -0.189136
0.558820 0.450374 -0.191855
0.602632 0.447616 -0.194714
0.647909 0.444306 -0.197884
0.697434 0.440096 -0.201588
0.751608 0.434713 -0.205903
0.810877 0.427785 -0.210918
0.869086 0.415629 -0.215084
0.915943 0.393833 -0.216177
0.954158 0.364662 -0.215312
0.985805 0.329240 -0.213273
1.012344 0.287431 -0.210582
1.034833 0.237127 -0.207590
1.052051 0.179309 -0.204871
1.063362 0.114326 -0.202895
1.071324 -0.078796 -0.201421
1.077227 -0.134350 -0.200289
1.081775 -0.161829 -0.199395
1.085386 -0.179843 -0.198674
-0.380678 0.500427 -0.182448
-0.378444 0.500392 -0.182548
-0.371616 0.500287 -0.182847
-0.359789 0.500107 -0.183346
-0.342162 0.499846 -0.184040
-0.317268 0.499495 -0.184928
-0.282231 0.499042 -0.186006
-0.230209 0.498475 -0.187271
-0.132334 0.497779 -0.188717
0.183183 0.496938 -0.190340
0.274925 0.495934 -0.192135
0.342699 0.494748 -0.194095
0.400757 0.493363 -0.196216
0.453446 0.491757 -0.198491
0.502733 0.489911 -0.200915
0.549688 0.487804 -0.203482
0.594961 0.485413 -0.206185
0.641486 0.482550 -0.209187
0.692136 0.478921 -0.212701
0.747316 0.474293 -0.216804
0.807477 0.468361 -0.221582
0.867063 0.457518 -0.225557
0.914837 0.436490 -0.226155
0.953575 0.408016 -0.224606
0.985519 0.373763 -0.221798
1.012224 0.334312 -0.218315
1.034804 0.289075 -0.214541
1.052064 0.241981 -0.211154
1.063392 0.199942 -0.208707
1.071362 0.159284 -0.206887
1.077268 0.114484 -0.205489
1.081818 0.034908 -0.204387
1.085429 -0.098431 -0.203498
-0.407869 0.536172 -0.195480
-0.405785 0.536139 -0.195573
-0.399432 0.536041 -0.195853
-0.388484 0.535875 -0.196318
-0.372317 0.535633 -0.196967
-0.349830 0.535310 -0.197797
-0.319022 0.534896 -0.198806
-0.275774 0.534381 -0.199990
-0.208757 0.533751 -0.201347
0.075955 0.532994 -0.202870
0.234211 0.532095 -0.204557
0.315426 0.531038 -0.206401
0.380240 0.529808 -0.208400
0.437181 0.528388 -0.210547
0.489453 0.526759 -0.212837
0.538642 0.524905 -0.215266
0.585660 0.522806 -0.217828
0.633658 0.520300 -0.220677
0.685630 0.517129 -0.224017
0.741988 0.513097 -0.227924
0.803191 0.507944 -0.232482
0.864422 0.498257 -0.236332
0.913356 0.477681 -0.236475
0.952762 0.449358 -0.234246
0.985090 0.415425 -0.230660
1.012016 0.376921 -0.226367
1.034719 0.333950 -0.221792
1.052041 0.291223 -0.217719
1.063396 0.255707 -0.214787
1.071379 0.224934 -0.212610
1.077293 0.197114 -0.210940
1.081847 0.170870 -0.209623
1.085461 0.144877 -0.208560
-0.435061 0.571917 -0.208512
-0.433108 0.571886 -0.208599
-0.427166 0.571795 -0.208862
-0.416971 0.571639 -0.209298
-0.402024 0.571414 -0.209907
-0.381474 0.571115 -0.210686
-0.353856 0.570734 -0.211634
-0.316435 0.570261 -0.212748
-0.263096 0.569686 -0.214024
-0.172385 0.568999 -0.215459
0.171280 0.568186 -0.217049
0.279931 0.567235 -0.218791
0.354845 0.566131 -0.220679
0.417477 0.564861 -0.222711
0.473523 0.563409 -0.224881
0.525446 0.561760 -0.227184
0.574552 0.559898 -0.229617
0.624291 0.557680 -0.232326
0.677807 0.554879 -0.235507
0.735534 0.551326 -0.239233
0.797944 0.546797 -0.243587
0.861082 0.538200 -0.247379
0.911456 0.517911 -0.247118
0.951691 0.489385 -0.244217
0.984502 0.455234 -0.239841
1.011708 0.416864 -0.234721
1.034572 0.374792 -0.229326
1.051977 0.334074 -0.224550
1.063370 0.301422 -0.221121
1.071374 0.274347 -0.218577
1.077299 0.251184 -0.216627
1.081860 0.230843 -0.215089
1.085479 0.212575 -0.213847
-0.463821 0.609725 -0.222296
-0.461991 0.609697 -0.222378
-0.456429 0.609611 -0.222624
-0.446922 0.609465 -0.223034
-0.433067 0.609256 -0.223605
-0.414201 0.608978 -0.224337
-0.389226 0.608626 -0.225228
-0.356239 0.608191 -0.226275
-0.311524 0.607665 -0.227476
-0.245774 0.607039 -0.228828
-0.106987 0.606301 -0.230327
0.227216 0.605442 -0.231971
0.320764 0.604448 -0.233755
0.391999 0.603309 -0.235676
0.453281 0.602010 -0.237731
0.508817 0.600539 -0.239914
0.560604 0.598882 -0.242223
0.612534 0.596912 -0.244797
0.667968 0.594431 -0.247822
0.727377 0.591290 -0.251372
0.791261 0.587296 -0.255527
0.856683 0.579839 -0.259327
0.908934 0.559797 -0.258710
0.950246 0.530794 -0.255112
0.983686 0.496009 -0.249889
1.011261 0.457204 -0.243874
1.034341 0.415215 -0.237589
1.051859 0.375343 -0.232050
1.063306 0.344099 -0.228081
1.071339 0.318836 -0.225139
1.077281 0.297812 -0.222884
1.081854 0.279905 -0.221106
1.085480 0.264363 -0.219671
-0.495903 0.651898 -0.237672
-0.494191 0.651871 -0.237749
-0.489000 0.651791 -0.237979
-0.480154 0.651655 -0.238362
-0.467334 0.651461 -0.238897
-0.450020 0.651204 -0.239582
-0.427391 0.650879 -0.240417
-0.398098 0.650480 -0.241399
-0.359761 0.649999 -0.242525
-0.307476 0.649429 -0.243794
-0.227315 0.648762 -0.245203
0.112951 0.647987 -0.246750
0.269004 0.647094 -0.248429
0.356107 0.646073 -0.250240
0.425646 0.644914 -0.252178
0.486466 0.643606 -0.254241
0.542004 0.642135 -0.256424
0.596913 0.640391 -0.258861
0.654902 0.638199 -0.261729
0.716518 0.635432 -0.265098
0.782319 0.631921 -0.269048
0.850565 0.625742 -0.272926
0.905418 0.606053 -0.272031
0.948213 0.576311 -0.267675
0.982516 0.540456 -0.261493
1.010599 0.500673 -0.254454
1.033980 0.458093 -0.247148
1.051660 0.418266 -0.240733
1.063185 0.387588 -0.236145
1.071260 0.363208 -0.232747
1.077229 0.343274 -0.230143
1.081818 0.326596 -0.228090
1.085456 0.312384 -0.226433
-0.531590 0.698811 -0.254775
-0.529993 0.698786 -0.254847
-0.525159 0.698711 -0.255062
-0.516946 0.698585 -0.255419
-0.505100 0.698405 -0.255919
-0.489218 0.698167 -0.256559
-0.468679 0.697868 -0.257339
-0.442518 0.697502 -0.258256
-0.409151 0.697063 -0.259310
-0.365717 0.696546 -0.260499
-0.306045 0.695942 -0.261819
-0.210213 0.695243 -0.263269
0.171718 0.694442 -0.264845
0.302023 0.693530 -0.266547
0.386601 0.692497 -0.268369
0.455795 0.691334 -0.270311
0.516866 0.690031 -0.272369
0.575977 0.688490 -0.274668
0.637460 0.686559 -0.277377
0.702031 0.684126 -0.280564
0.770355 0.681048 -0.284306
0.841981 0.676246 -0.288312
0.900507 0.657258 -0.287313
0.945360 0.626551 -0.282154
0.980854 0.589166 -0.274888
1.009640 0.547834 -0.266672
1.033438 0.504003 -0.258192
1.051344 0.463519 -0.250771
1.062980 0.432752 -0.245472
1.071117 0.408615 -0.241551
1.077124 0.389122 -0.238547
1.081739 0.373007 -0.236178
1.085395 0.359431 -0.234266
-0.571189 0.750867 -0.273754
-0.569704 0.750844 -0.273821
-0.565212 0.750775 -0.274021
-0.557601 0.750657 -0.274354
-0.546669 0.750490 -0.274819
-0.532104 0.750271 -0.275415
-0.513436 0.749996 -0.276142
-0.489965 0.749661 -0.276998
-0.460609 0.749261 -0.277981
-0.423588 0.748791 -0.279091
-0.375640 0.748244 -0.280324
-0.309488 0.747615 -0.281680
-0.199154 0.746897 -0.283155
0.204017 0.746082 -0.284749
0.327587 0.745162 -0.286458
0.412169 0.744130 -0.288280
0.482134 0.742977 -0.290213
0.547520 0.741617 -0.292375
0.613977 0.739917 -0.294926
0.682612 0.737782 -0.297930
0.754327 0.735089 -0.301463
0.829765 0.731531 -0.305551
0.893599 0.714076 -0.304812
0.941357 0.682269 -0.298845
0.978509 0.642863 -0.290353
1.008266 0.599358 -0.280782
1.032642 0.553586 -0.270943
1.050864 0.511767 -0.262361
1.062656 0.480342 -0.256245
1.070882 0.455940 -0.251723
1.076944 0.436416 -0.248259
1.081596 0.420416 -0.245529
1.085277 0.407045 -0.243325
-0.615032 0.808502 -0.294767
-0.613654 0.808481 -0.294829
-0.609488 0.808416 -0.295015
-0.602445 0.808308 -0.295324
-0.592368 0.808153 -0.295756
-0.579013 0.807951 -0.296310
-0.562025 0.807699 -0.296986
-0.540892 0.807392 -0.297782
-0.514857 0.807027 -0.298698
-0.482761 0.806600 -0.299731
-0.442702 0.806106 -0.300881
-0.391184 0.805540 -0.302145
-0.320316 0.804895 -0.303523
-0.200909 0.804167 -0.305011
0.220047 0.803347 -0.306609
0.345446 0.802431 -0.308315
0.432212 0.801411 -0.310125
0.507906 0.800212 -0.312152
0.581892 0.798717 -0.314546
0.656358 0.796844 -0.317370
0.732762 0.794489 -0.320695
0.812227 0.791512 -0.324603
0.883762 0.777218 -0.324795
0.935714 0.744397 -0.318099
0.975204 0.702452 -0.308234
1.006315 0.656064 -0.297091
1.031494 0.607589 -0.285670
1.050155 0.563732 -0.275740
1.062165 0.531099 -0.268678
1.070515 0.505977 -0.263462
1.076656 0.486030 -0.259470
1.081360 0.469793 -0.256324
1.085079 0.456308 -0.253785
-0.659033 0.866343 -0.315855
-0.657767 0.866328 -0.315914
-0.653945 0.866281 -0.316089
-0.647498 0.866203 -0.316382
-0.638301 0.866092 -0.316791
-0.626167 0.865946 -0.317316
-0.610828 0.865764 -0.317957
-0.591908 0.865544 -0.318713
-0.568870 0.865283 -0.319584
-0.540940 0.864979 -0.320568
-0.506938 0.864626 -0.321664
-0.464948 0.864223 -0.322872
-0.411484 0.863765 -0.324191
-0.338814 0.863248 -0.325620
-0.219759 0.862667 -0.327156
0.217558 0.862016 -0.328799
0.352343 0.861292 -0.330548
0.448006 0.860438 -0.332510
0.534379 0.859372 -0.334834
0.617607 0.858031 -0.337583
0.700715 0.856335 -0.340830
0.785604 0.854174 -0.344658
0.869452 0.847277 -0.347473
0.927672 0.814069 -0.340344
0.970535 0.769082 -0.328963
1.003556 0.718985 -0.315986
1.029855 0.666918 -0.302705
1.049126 0.620240 -0.291195
1.061441 0.585822 -0.283029
1.069966 0.559530 -0.277007
1.076216 0.538790 -0.272402
1.080995 0.522004 -0.268776
1.084767 0.508132 -0.265851
-0.694904 0.913498 -0.333047
-0.693763 0.913488 -0.333101
-0.690323 0.913456 -0.333264
-0.684530 0.913402 -0.333534
-0.676289 0.913326 -0.333913
-0.665458 0.913227 -0.334399
-0.651839 0.913104 -0.334992
-0.635157 0.912956 -0.335693
-0.615035 0.912780 -0.336501
-0.590951 0.912576 -0.337416
-0.562153 0.912340 -0.338437
-0.527520 0.912072 -0.339563
-0.485260 0.911769 -0.340795
-0.432188 0.911428 -0.342131
-0.361547 0.911046 -0.343572
-0.252285 0.910621 -0.345116
0.185381 0.910149 -0.346763
0.347554 0.909596 -0.348617
0.457701 0.908907 -0.350819
0.554126 0.908046 -0.353433
0.645782 0.906963 -0.356537
0.736683 0.905592 -0.360218
0.829235 0.903844 -0.364581
0.915983 0.892622 -0.366069
0.963875 0.844241 -0.353094
0.999650 0.789459 -0.337962
1.027530 0.732718 -0.322466
1.047655 0.682294 -0.309081
1.060394 0.645439 -0.299615
1.069162 0.617488 -0.292648
1.075566 0.595573 -0.287328
1.080449 0.577926 -0.283142
1.084295 0.563406 -0.279768
-0.724332 0.952183 -0.347151
-0.723318 0.952176 -0.347200
-0.720264 0.952154 -0.347347
-0.715127 0.952117 -0.347591
-0.707838 0.952064 -0.347934
-0.698290 0.951996 -0.348374
-0.686337 0.951911 -0.348911
