LUTS_for_Software/HLG-to-from-SDR - Type III and Type I/Type I LUTs - Narrow Range Clipped/3-NBCU_HLG2SDR_DL_v1-Type1_AdobeFormat.cube
TITLE "HLG-BT.2100 to SDR-BT.709 Display-Light Conversion 3D Look-Up-Table"
# 
# PLEASE DO NOT ALTER THE LINES BELOW
#  
# © 2020 NBCUniversal, LLC - Please do not remove this line
# 
# Built using tools from and in collaboration with Cromorama and Nick Shaw - the creators of ORION-CONVERT
# 
# MaxRGB 2-stage highlight compression knee
# 
# Parameters designed by Chris Seeger, NBCU Advanced Technology (chris.seeger@nbcuni.com)
# In collaboration with Michael Drazin, NBCU Sports Group (michael.drazin@nbcuni.com)
# 
# 75% HLG maps to 94% SDR (before highlight compression)
# Highlight compression from 94% to 109% SDR
# Stage 1 Pre-rolled-off HDR highlights
# Stage 2 Post-Rolled off converted SDR highlights
# 
# Sophisticated Highlight Knee REQUIRES the use of devices using Tetrehedral Interpolation
# 
# Display-Light Conversion (absolute chromaticity is preserved from input to output)
# Display-Light Conversion preserves original artistic intent
# 
# No Matrix Compensation (so make sure your device is using the correct matrix)
# 
# Type I LUT - Narrow Range processing clipped to 0-100% Signal level
# 
LUT_3D_SIZE 5
DOMAIN_MIN 0.000000 0.000000 0.000000
DOMAIN_MAX 1.000000 1.000000 1.000000
0.000000 0.000000 0.000000
0.309866 -0.105310 -0.047201
0.619732 -0.210620 -0.094401
0.984372 -0.334545 -0.149946
1.084756 -0.368661 -0.165237
-0.217530 0.285958 -0.104256
0.287276 0.279949 -0.114809
0.621527 0.242848 -0.141354
0.985690 -0.200851 -0.176630
1.085074 -0.316921 -0.178676
-0.435061 0.571917 -0.208512
-0.263096 0.569686 -0.214024
0.574552 0.559898 -0.229617
0.984502 0.455234 -0.239841
1.085479 0.212575 -0.213847
-0.724332 0.952183 -0.347151
-0.654360 0.951689 -0.350279
-0.293744 0.949925 -0.359621
0.954202 0.929866 -0.381343
1.083600 0.623088 -0.295835
-0.814659 1.070924 -0.390442
-0.781799 1.070836 -0.392039
-0.667314 1.070549 -0.396836
0.456638 1.069528 -0.410859
1.071770 1.044436 -0.428328
-0.074397 -0.030169 0.232190
0.309330 -0.110047 0.265532
0.619719 -0.213056 0.288222
0.984382 -0.335765 0.263226
1.084758 -0.369249 0.173544
-0.229986 0.287077 0.275431
0.280406 0.280406 0.280406
0.620140 0.242192 0.287533
0.985596 -0.202672 0.253649
1.085067 -0.317565 0.161454
-0.441424 0.572508 0.265662
-0.274782 0.570173 0.264827
0.571211 0.560145 0.260993
0.984208 0.455298 0.215017
1.085449 0.211900 0.110327
-0.727552 0.952329 -0.146228
-0.658020 0.951827 -0.153379
-0.304315 0.950041 -0.172943
0.953407 0.930913 -0.217549
1.083528 0.623311 -0.197938
-0.816213 1.070951 -0.319289
-0.783440 1.070862 -0.321107
-0.669341 1.070573 -0.326547
0.453264 1.069547 -0.342274
1.071624 1.045189 -0.364023
-0.148793 -0.060339 0.464380
0.301676 -0.122671 0.493309
0.618660 -0.220093 0.531065
0.984345 -0.339416 0.507336
1.084760 -0.371014 0.383392
-0.263785 0.289564 0.514786
0.256501 0.281269 0.524816
0.615442 0.239998 0.544842
0.985264 -0.208064 0.508791
1.085040 -0.319497 0.381345
-0.459973 0.574154 0.550862
-0.306643 0.571526 0.553761
0.560812 0.560812 0.560812
0.983292 0.455481 0.511068
1.085357 0.209844 0.374573
-0.737121 0.952754 0.509192
-0.668863 0.952229 0.509549
-0.333397 0.950380 0.510531
0.950959 0.934064 0.507968
1.083309 0.623982 0.349054
-0.820857 1.071030 0.300471
-0.788341 1.070940 0.299453
-0.675380 1.070645 0.296319
0.442913 1.069605 0.286477
1.071183 1.047462 0.259642
-0.265288 -0.107579 0.827956
0.246345 -0.152106 0.846759
0.602175 -0.236139 0.878698
0.983741 -0.349974 0.844454
1.084719 -0.376152 0.647442
-0.341249 0.290249 0.865359
0.130308 0.278046 0.874404
0.586916 0.227707 0.893377
0.983909 -0.223200 0.852491
1.084923 -0.325106 0.648952
-0.497085 0.563367 0.905593
-0.371782 0.558924 0.908705
0.509780 0.543685 0.916535
0.980338 0.455949 0.875366
1.085058 0.203583 0.653389
-0.764198 0.953900 0.915201
-0.699307 0.953312 0.917440
-0.403118 0.951290 0.924113
0.943302 0.943302 0.943302
1.082652 0.625957 0.666462
-0.834190 1.071254 0.687547
-0.802391 1.071157 0.688116
-0.692571 1.070847 0.689832
0.410587 1.069766 0.694911
1.069862 1.054181 0.696368
-0.328020 -0.133018 1.023741
-0.173395 -0.158633 1.026912
0.455399 -0.214183 1.034049
0.838998 -0.316165 1.045772
1.084477 -0.385812 0.930928
-0.366297 0.230652 1.030843
-0.246826 0.217128 1.033031
0.432094 0.165257 1.038302
0.830840 -0.211900 1.047882
1.084556 -0.335599 0.934757
-0.458512 0.450888 1.042650
-0.378233 0.445953 1.043732
0.341481 0.430300 1.046582
0.803501 0.376800 1.052649
1.084384 0.190548 0.946363
-0.645888 0.759944 1.055939
-0.597053 0.757618 1.056331
-0.395985 0.750481 1.057436
0.702422 0.728449 1.060157
1.081327 0.629761 0.982369
-0.858526 1.071643 1.028168
-0.827962 1.071538 1.029442
-0.723435 1.071199 1.033289
0.337309 1.070046 1.044716
1.067235 1.067235 1.067235
