LUTS_for_Still_Image_Graphics/NBC_1b_4b_Type_I_For_Full_Range_RGB/1b-NBCU_SDR2HLG_DL_Type_I.cube
TITLE "SDR-BT.709 to HLG-BT.2100 Display-Light Conversion 3D Look-Up-Table"
# PLEASE DO NOT ALTER THE LINES BELOW
# 
# Copyright 2025 NBCUniversal, LLC - Please do not remove this line
# Products integrated with NBCU LUTs must acknowledge NBCUniversal, LLC in product documentation
#
# Version 1.2 (fix for unicode character which was preventing loading in some devices)
#
# Built using tools from and in collaboration with Cromorama and Nick Shaw - the creators of ORION-CONVERT
#
# Simple 2x scaling in linear light using display light following MovieLabs recommendations for SDR to HDR conversion
# Scaling matches BT.1886 scaling in conventional SDR consumer TVs for matching side-by-side look of upmapped HDR from SDR
#
# 100% SDR maps to 75% HLG 
# SDR sub-black and super-white values must be clipped by host application before LUT processing (0-100% signal = 0-1 in LUT processing)
#
# Display-Light Conversion (absolute chromaticity is preserved from input to output)
# Display-Light Conversion preserves original artistic intent
#
# No Matrix Compensation (so make sure your device is using the correct matrix)
#
# Type I LUT
LUT_3D_SIZE 9
0.00000000 0.00000000 0.00000000
0.10043065 0.03332907 0.01623309
0.20086129 0.06665813 0.03246618
0.30129194 0.09998720 0.04869927
0.40172259 0.13331627 0.06493236
0.50214496 0.16664534 0.08116545
0.58764550 0.19997440 0.09739854
0.65398719 0.23330347 0.11363163
0.70866206 0.26663254 0.12986472
0.06576277 0.10989574 0.03399927
0.10968812 0.11150472 0.03623554
0.20213388 0.12005134 0.04425645
0.30143179 0.13723619 0.05627977
0.40165583 0.16052876 0.07024415
0.50204198 0.18744067 0.08513599
0.58756957 0.21647017 0.10050906
0.65393169 0.24678400 0.11615449
0.70862059 0.27791330 0.13196575
0.13152555 0.21979148 0.06799854
0.15274099 0.22034194 0.06887257
0.21937624 0.22300944 0.07247109
0.30802935 0.22929048 0.07915846
0.40426776 0.24010268 0.08851290
0.50307650 0.25537959 0.09984948
0.58785192 0.27447239 0.11255955
0.65398314 0.29659823 0.12620377
0.70859525 0.32105752 0.14048830
0.19728832 0.32968721 0.10199782
0.20994666 0.32999313 0.10249553
0.25645863 0.33138182 0.10459383
0.32906436 0.33451416 0.10870663
0.41580374 0.34007604 0.11490302
0.50928401 0.34856433 0.12301975
0.59045075 0.36015402 0.13276936
0.65516441 0.37473779 0.14383700
0.70915335 0.39203819 0.15593810
0.26305110 0.43958295 0.13599709
0.27165776 0.43978616 0.13633026
0.30548198 0.44068388 0.13774514
0.36359207 0.44263164 0.14056745
0.43875248 0.44601888 0.14494218
0.52335809 0.45123391 0.15088604
0.59743173 0.45858095 0.15831692
0.65885901 0.46822821 0.16708866
0.71119886 0.48020535 0.17702581
0.32881387 0.54558901 0.16999636
0.33515747 0.54571527 0.17024028
0.36091406 0.54626540 0.17127929
0.40772624 0.54742819 0.17336731
0.47187803 0.54939427 0.17664500
0.54470355 0.55236088 0.18117772
0.60950805 0.55650122 0.18696815
0.66596317 0.56193000 0.19396809
0.71551109 0.56868304 0.20209278
0.39457664 0.62690396 0.20399563
0.39950944 0.62697836 0.20418465
0.41989332 0.62730054 0.20499106
0.45822298 0.62797319 0.20661771
0.51262760 0.62909438 0.20918766
0.57102198 0.63076904 0.21277501
0.62609493 0.63310262 0.21741327
0.67659900 0.63618826 0.22310070
0.72245355 0.64009404 0.22980604
0.46033942 0.69109155 0.23799490
0.46432309 0.69114037 0.23814726
0.48095588 0.69135102 0.23879780
0.51262055 0.69178739 0.24011280
0.55425484 0.69250718 0.24219801
0.59996411 0.69357144 0.24512439
0.64601141 0.69504440 0.24893512
0.69032254 0.69698922 0.25364881
0.73197383 0.69946196 0.25926236
0.52495801 0.74449089 0.27199417
0.52796997 0.74452521 0.27212057
0.54029181 0.74467295 0.27266052
0.56288828 0.74497745 0.27375340
0.59376903 0.74547601 0.27549028
0.62978584 0.74620712 0.27793594
0.66803286 0.74721168 0.28113490
0.70643609 0.74853182 0.28511407
0.74374580 0.75020836 0.28988436
0.02887346 0.01478846 0.13129413
0.10134067 0.03509967 0.11817031
0.20112310 0.06733783 0.10882046
0.30143175 0.10037300 0.10771702
0.40181423 0.13357426 0.11162622
0.50221093 0.16683413 0.11888791
0.58768337 0.20012068 0.12847236
0.65401170 0.23342136 0.13968777
0.70867915 0.26673033 0.15206241
0.06939597 0.10969005 0.11275251
0.11144559 0.11144559 0.11144559
0.20268078 0.12019464 0.10923617
0.30166083 0.13742691 0.10990204
0.40178173 0.16070416 0.11412499
0.50212345 0.18758973 0.12128281
0.58761338 0.21659525 0.13064758
0.65395891 0.24688963 0.14162742
0.70863907 0.27800353 0.15378398
0.13294434 0.21970149 0.11617011
0.15390280 0.22026650 0.11634521
0.22004660 0.22298002 0.11727901
0.30839024 0.22931071 0.11972065
0.40447307 0.24015537 0.12422771
0.50320242 0.25544739 0.13087842
0.58791523 0.27454433 0.13942956
0.65401999 0.29666866 0.14953499
0.70861891 0.32112391 0.16086384
0.19809626 0.32963514 0.13402134
0.21069097 0.32994435 0.13430300
0.25702103 0.33134546 0.13552283
0.32944472 0.33449687 0.13804856
0.41605445 0.34007853 0.14213091
0.50944635 0.34858295 0.14787226
0.59053573 0.36018375 0.15521949
0.65521395 0.37477416 0.16401256
0.70918464 0.39207788 0.17404567
0.26359194 0.43954793 0.15885786
0.27217621 0.43975226 0.15910601
0.30592412 0.44065447 0.16016704
0.36393533 0.44261009 0.16231621
0.43900681 0.44600720 0.16572406
0.52352915 0.45123234 0.17048103
0.59752935 0.45858835 0.17659737
0.65891867 0.46824279 0.18401305
0.71123741 0.48022520 0.19261901
0.32920983 0.54556712 0.18725738
0.33554363 0.54569381 0.18746188
0.36126383 0.54624566 0.18833506
0.40802119 0.54741166 0.19009966
0.47211519 0.54938213 0.19289418
0.54486250 0.55235373 0.19680303
0.60960749 0.55649907 0.20186168
0.66602776 0.56193234 0.20806027
0.71555454 0.56868907 0.21535094
0.39488349 0.62689103 0.21759546
0.39981134 0.62696559 0.21776390
0.42017593 0.62728844 0.21848320
0.45847376 0.62796237 0.21993765
0.51283149 0.62908541 0.22224461
0.57115989 0.63076233 0.22548207
0.62618869 0.63309838 0.22969487
0.67666372 0.63618650 0.23489740
0.72249909 0.64009458 0.24107657
0.46058674 0.69108305 0.24906358
0.46456764 0.69113195 0.24920417
0.48118932 0.69134290 0.24980480
0.51282507 0.69177987 0.25102035
0.55441137 0.69250055 0.25295161
0.60007979 0.69356593 0.25566935
0.64609580 0.69504021 0.25922041
0.69038410 0.69698642 0.26363012
0.73201907 0.69946057 0.26890402
0.52514571 0.74448491 0.28123255
0.52815418 0.74451927 0.28135174
0.54046236 0.74466716 0.28186109
0.56303613 0.74497197 0.28289268
0.59389029 0.74547101 0.28453389
0.62988157 0.74620273 0.28684831
0.66810682 0.74720802 0.28988140
0.70649270 0.74852899 0.29366277
0.74378909 0.75020639 0.29820745
0.05774693 0.02957691 0.26258826
0.10768974 0.04181612 0.25350006
0.20268133 0.07019934 0.23634061
0.30214215 0.10201572 0.22431669
0.40224620 0.13467566 0.21764092
0.50251038 0.16764088 0.21499153
0.58785186 0.20074600 0.21543405
0.65411949 0.23392543 0.21833915
0.70875375 0.26714852 0.22325244
0.08260636 0.10945701 0.24268154
0.11864124 0.11159100 0.23952912
0.20513669 0.12090877 0.23088158
0.30270558 0.13826426 0.22268089
0.40235028 0.16145956 0.21752432
0.50248634 0.18822871 0.21551614
0.58780661 0.21713073 0.21623877
0.65407808 0.24734161 0.21925933
0.70871954 0.27838954 0.22420685
0.13879193 0.21938009 0.22550502
0.15873994 0.22000053 0.22492345
0.22289118 0.22289118 0.22289118
0.30994163 0.22941605 0.22029889
0.40536155 0.24038929 0.21847233
0.50374791 0.25574119 0.21821902
0.58818966 0.27485382 0.21980408
0.65417955 0.29697076 0.22319821
0.70872123 0.32140832 0.22824999
0.20150269 0.32942674 0.22382158
0.21383473 0.32974937 0.22375054
0.25940808 0.33120138 0.22351883
0.33106695 0.33443118 0.22334544
0.41712766 0.34009454 0.22365992
0.51014188 0.34866581 0.22489524
0.59090067 0.36031281 0.22734261
0.65542692 0.37493084 0.23112780
0.70931919 0.39224827 0.23625203
0.26588867 0.43940298 0.23234022
0.27437891 0.43961199 0.23240346
0.30780559 0.44053299 0.23269042
0.36539892 0.44252154 0.23334610
0.44009320 0.44596003 0.23455802
0.52425975 0.45122762 0.23653134
0.59794705 0.45862142 0.23944131
0.65917423 0.46830609 0.24340111
0.71140264 0.48031074 0.24845541
0.33089642 0.54547528 0.24778505
0.33718877 0.54560374 0.24788545
0.36275482 0.54616290 0.24831944
0.40927966 0.54734243 0.24922124
0.47312804 0.54933143 0.25071116
0.54554091 0.55232418 0.25290665
0.61003242 0.55649065 0.25591219
0.66630405 0.56194292 0.25980601
0.71574053 0.56871529 0.26463200
0.39619252 0.62683640 0.26804269
0.40109933 0.62691164 0.26814918
0.42138195 0.62723733 0.26860599
0.45954448 0.62791668 0.26953951
0.51370075 0.62904754 0.27104566
0.57174854 0.63073407 0.27320773
0.62658923 0.63308064 0.27609713
0.67694040 0.63617928 0.27976971
0.72269386 0.64009714 0.28426183
0.46164276 0.69104702 0.29167941
0.46561184 0.69109622 0.29178134
0.48218623 0.69130848 0.29221770
0.51369702 0.69174798 0.29310518
0.55507924 0.69247242 0.29452680
0.60057373 0.69354264 0.29655011
0.64645630 0.69502249 0.29923092
0.69064722 0.69697466 0.30261322
0.73221250 0.69945477 0.30672797
0.52594619 0.74445950 0.31771572
0.52893981 0.74449401 0.31780975
0.54118985 0.74464257 0.31821201
0.56366706 0.74494870 0.31902884
0.59440797 0.74544973 0.32033408
0.63029041 0.74618408 0.32218615
0.66842279 0.74719252 0.32463243
0.70673466 0.74851699 0.32771051
0.74397417 0.75019807 0.33144812
0.08662039 0.04436537 0.39388238
0.12167601 0.05231271 0.38790496
0.20707676 0.07570092 0.37135243
0.30402200 0.10529902 0.35451092
0.40329814 0.13689796 0.34149095
0.50319747 0.16927388 0.33235305
0.58822477 0.20201348 0.32646138
0.65435251 0.23494786 0.32323930
0.70891253 0.26799708 0.32224694
0.10294089 0.11059100 0.37799615
0.13180777 0.11297884 0.37459257
0.21046831 0.12269758 0.36376716
0.30508691 0.14004622 0.35086626
0.40363725 0.16301393 0.33985585
0.50328946 0.18953182 0.33172554
0.58822642 0.21821969 0.32636350
0.65433315 0.24825988 0.32343318
0.70888982 0.27917350 0.32260634
0.14972652 0.21899265 0.35232318
0.16797629 0.21969921 0.35127009
0.22855182 0.22287072 0.34734088
0.31312125 0.22971377 0.34139690
0.40721164 0.24090330 0.33518929
0.50488729 0.25635548 0.32998210
0.58876406 0.27549045 0.32634896
0.65451297 0.29758813 0.32444251
0.70893443 0.32198782 0.32422323
0.20818790 0.32907014 0.33825753
0.22002939 0.32941724 0.33791952
0.26416503 0.33096235 0.33658413
0.33433678 0.33433678 0.33433678
0.41930973 0.34015239 0.33170532
0.51155908 0.34884946 0.32932719
0.59164829 0.36058393 0.32770850
0.65586436 0.37525429 0.32715595
0.70959581 0.39259741 0.32781095
0.27047133 0.43913211 0.33455417
0.27877891 0.43935011 0.33445557
0.31157806 0.44030726 0.33406292
0.36834747 0.44235928 0.33339749
0.44229133 0.44587786 0.33264133
0.52573740 0.45122794 0.33207077
0.59879559 0.45869543 0.33197299
0.65969482 0.46843930 0.33258416
0.71173978 0.48048756 0.33406479
0.33428603 0.54529745 0.33858324
0.34049642 0.54542940 0.33857866
0.36575698 0.54600293 0.33856870
0.41181912 0.54720909 0.33859343
0.47517645 0.54923461 0.33874426
0.54691084 0.55226908 0.33915592
0.61089320 0.55647731 0.33998321
0.66686492 0.56196719 0.34137416
0.71611867 0.56877054 0.34344998
0.39883301 0.62672881 0.34851033
0.40369784 0.62680540 0.34854591
0.42381671 0.62713673 0.34870176
0.46170839 0.62782686 0.34903563
0.51545154 0.62897331 0.34961370
0.57293752 0.63067898 0.35051706
0.62739998 0.63304650 0.35183704
0.67750130 0.63616613 0.35366560
0.72308919 0.64010354 0.35608534
0.46377736 0.69097537 0.36302175
0.46772275 0.69102519 0.36307448
0.48420219 0.69124004 0.36330156
0.51545307 0.69168461 0.36376995
0.55642687 0.69241660 0.36453753
0.60157212 0.69349649 0.36566360
0.64718601 0.69498752 0.36720986
0.69118041 0.69695163 0.36923777
0.73260482 0.69944370 0.37180423
0.52755949 0.74440867 0.38112744
0.53052341 0.74444350 0.38118659
0.54265702 0.74459341 0.38144028
0.56494061 0.74490218 0.38195863
0.59545402 0.74540722 0.38279547
0.63111743 0.74614685 0.38399996
0.66906257 0.74716162 0.38561931
0.70722496 0.74849313 0.38769872
0.74434946 0.75018161 0.39027988
0.11549385 0.05915382 0.52410962
0.14120167 0.06474736 0.52021941
0.21537948 0.08363223 0.50691373
0.30781252 0.11036390 0.48917604
0.40536267 0.14039869 0.47268123
0.50448388 0.17186558 0.45914742
0.58889821 0.20403144 0.44863338
0.65476168 0.23657818 0.44080098
0.70918558 0.26935131 0.43528184
0.12704129 0.11396908 0.51264028
0.14983207 0.11638057 0.50972570
0.21930062 0.12602362 0.49926343
0.30937631 0.14302775 0.48458203
0.40598875 0.16553426 0.47010628
0.50473127 0.19162443 0.45774180
0.58896659 0.21996279 0.44790545
0.65477478 0.24972809 0.44047813
0.70918019 0.28042647 0.43520953
0.16521272 0.21891401 0.48536308
0.18141805 0.21971026 0.48406146
0.23728247 0.22318199 0.47905824
0.31824889 0.23037981 0.47099931
0.41027339 0.24181753 0.46176316
0.50678427 0.25738073 0.45293195
0.58972549 0.27652851 0.44536178
0.65507044 0.29858490 0.43938185
0.70928955 0.32291912 0.43504864
0.21830050 0.32866261 0.46355788
0.22945763 0.32904235 0.46302472
0.27153331 0.33071244 0.46087646
0.33949485 0.33428343 0.45707916
0.42280117 0.34030933 0.45220794
0.51383413 0.34918272 0.44703993
0.59285980 0.36104094 0.44224153
0.65657649 0.37578523 0.43825593
0.71004698 0.39316373 0.43532548
0.27758386 0.43876018 0.45101004
0.28562042 0.43899124 0.45078235
0.31747987 0.44000106 0.44984690
0.37299665 0.44214593 0.44812297
0.44578237 0.44578237 0.44578237
0.52808224 0.45125469 0.44315106
0.60015230 0.45883209 0.44059778
0.66053111 0.46866472 0.43844800
0.71228297 0.48077858 0.43694467
0.33960921 0.54503638 0.44622343
0.34569440 0.54517361 0.44613021
0.37048657 0.54576888 0.44574506
0.41583435 0.54701539 0.44502720
0.47842762 0.54909634 0.44404051
0.54907934 0.55219429 0.44292932
0.61226302 0.55646620 0.44188411
0.66776077 0.56201357 0.44110357
0.71672422 0.56886431 0.44076506
0.40300538 0.62656588 0.44764316
0.40780507 0.62664456 0.44761518
0.42766945 0.62698458 0.44750107
0.46513878 0.62769136 0.44729612
0.51821070 0.62886188 0.44703766
0.57482041 0.63059714 0.44680122
0.62868856 0.63299711 0.44669088
0.67839521 0.63614929 0.44682474
0.72372052 0.64011703 0.44731984
0.46716235 0.69086499 0.45409368
0.47107065 0.69091578 0.45409944
0.48740130 0.69113469 0.45412662
0.51822021 0.69158716 0.45419408
0.55855736 0.69233093 0.45433422
0.60315514 0.69342592 0.45459601
0.64834585 0.69493442 0.45504332
0.69202955 0.69691720 0.45574985
0.73323061 0.69942800 0.45679239
0.53010483 0.74432956 0.46468044
0.53302246 0.74436489 0.46470417
0.54497442 0.74451690 0.46480692
0.56695523 0.74482983 0.46502161
0.59711179 0.74534117 0.46538085
0.63243046 0.74608910 0.46592279
0.67008000 0.74711380 0.46669220
0.70800579 0.74845639 0.46773911
0.74494783 0.75015653 0.46911605
0.14436731 0.07394228 0.62501477
0.16405737 0.07813253 0.62295123
0.22764860 0.09345369 0.61531352
0.31408318 0.11714781 0.60370701
0.40886564 0.14524137 0.59096076
0.50662406 0.17549836 0.57885596
0.58999461 0.20687666 0.56813700
0.65541237 0.23888351 0.55902035
0.70961099 0.27126922 0.55150807
0.15304039 0.11961096 0.61868694
0.17123961 0.12189955 0.61697402
0.23168965 0.13107510 0.61049599
0.31602503 0.14736898 0.60029200
0.40977424 0.16914208 0.58869042
0.50704302 0.19460219 0.57738495
0.59014313 0.22243831 0.56720000
0.65546643 0.25181200 0.55844077
0.70962814 0.28220469 0.55117190
0.18425444 0.21954649 0.60058721
0.19840590 0.22041369 0.59960745
0.24905121 0.22412858 0.59572542
0.32554618 0.23162387 0.58906836
0.41478325 0.24327027 0.58076529
0.50960428 0.25891245 0.57202372
0.59116984 0.27803962 0.56368998
0.65590891 0.30001880 0.55623823
0.70982200 0.32425110 0.54989333
0.23164292 0.32836657 0.58152881
0.24199073 0.32878226 0.58102578
0.28154781 0.33059101 0.57896964
0.34667584 0.33438354 0.57521269
0.42775662 0.34065119 0.57013185
0.51707600 0.34973094 0.56433887
0.59460993 0.36173540 0.55843202
0.65761252 0.37656644 0.55287178
0.71070546 0.39398432 0.54796344
0.28727643 0.43834822 0.56689016
0.29496636 0.43859547 0.56662890
0.32560904 0.43967071 0.56554421
0.37946992 0.44193159 0.56349335
0.45069241 0.44571647 0.56058137
0.53137504 0.45134416 0.55707523
0.60207833 0.45906254 0.55331022
0.66172652 0.46900982 0.54961018
0.71306281 0.48120879 0.54624208
0.34697983 0.54471178 0.55750613
0.35289842 0.54485591 0.55736948
0.37706410 0.54547967 0.55679792
0.42144715 0.54677914 0.55569905
0.48299704 0.54893303 0.55409916
0.55211479 0.55211479 0.55211479
0.61419533 0.55647106 0.54992094
0.66903131 0.56209478 0.54771493
0.71758634 0.56900859 0.54568575
0.40883263 0.62635289 0.55300646
0.41354374 0.62643437 0.55293781
0.43306120 0.62678610 0.55264994
0.46995199 0.62751533 0.55209321
0.52204881 0.62871834 0.55127590
0.57745798 0.63049362 0.55025406
0.63050316 0.63293756 0.54912095
0.67965905 0.63613392 0.54799229
0.72461580 0.64014294 0.54699047
0.47191399 0.69071679 0.55277080
0.47577119 0.69076890 0.55274097
0.49189663 0.69099336 0.55261615
0.52206873 0.69145666 0.55237623
0.56153445 0.69221657 0.55202865
0.60537670 0.69333227 0.55160548
0.64997936 0.69486476 0.55116022
0.69322893 0.69687322 0.55076207
0.73411655 0.69940979 0.55048845
0.53365124 0.74422164 0.55613859
0.53650551 0.74425766 0.55613141
0.54820849 0.74441259 0.55610214
0.56977292 0.74473125 0.55604965
0.59943653 0.74525131 0.55598440
0.63427668 0.74601074 0.55592886
0.67151405 0.74704920 0.55591711
0.70910864 0.74840714 0.55599272
0.74579445 0.75012344 0.55620546
0.17324078 0.08873074 0.70071953
0.18888120 0.09201724 0.69945012
0.24335201 0.10462542 0.69452924
0.32306921 0.12544835 0.68642261
0.41415351 0.15140184 0.67673293
0.50986309 0.18020686 0.66684224
0.59164951 0.21059803 0.65753738
0.65638159 0.24191283 0.64916741
0.71023478 0.27379592 0.64184772
0.18005288 0.12717369 0.69673840
0.19486953 0.12927659 0.69561974
0.24725773 0.13777784 0.69123795
0.32523789 0.15309978 0.68387916
0.41529983 0.17389751 0.67489343
0.51044568 0.19852802 0.66555325
0.59188323 0.22570423 0.65664668
0.65648203 0.25456314 0.64855827
0.71027849 0.28455357 0.64143802
0.20588178 0.22118201 0.68399584
0.21816746 0.22209263 0.68325932
0.26361553 0.22595769 0.68029581
0.33511209 0.23363556 0.67505096
0.42093662 0.24539517 0.66823181
0.51349598 0.26104420 0.66072251
0.59319696 0.28009243 0.65322430
0.65709161 0.30194341 0.64617779
0.71057228 0.32602786 0.63982024
0.24781908 0.32837102 0.66852152
0.25730728 0.32882107 0.66809693
0.29409011 0.33076345 0.66634979
0.35592371 0.33477299 0.66310868
0.43428859 0.34128239 0.65862152
0.52136576 0.35057218 0.65334655
0.59696790 0.36272630 0.64776235
0.65902214 0.37764410 0.64225799
0.71160572 0.39509695 0.63710543
0.29945303 0.43798530 0.65495556
0.30674117 0.43825049 0.65471367
0.33595258 0.43939841 0.65370514
0.38781615 0.44178900 0.65177863
0.45710364 0.44574144 0.64899498
0.53566316 0.45154651 0.64555635
0.60462231 0.45942754 0.64173146
0.66331993 0.46950820 0.63778947
0.71410841 0.48180660 0.63395976
0.35641800 0.54435883 0.64469146
0.36213402 0.54451116 0.64455154
0.38553305 0.54516877 0.64396396
0.42872110 0.54653130 0.64282288
0.48896012 0.54877233 0.64113158
0.55605388 0.55205461 0.63897502
0.61672835 0.55651246 0.63649282
0.67070874 0.56222843 0.63384888
0.71873038 0.56921856 0.63120503
0.41637580 0.62610244 0.63782547
0.42097619 0.62618738 0.63774427
0.44005878 0.62655354 0.63740197
0.47621981 0.62731046 0.63673129
0.52698956 0.62855363 0.63572313
0.58088449 0.63037848 0.63441416
0.63287702 0.63287702 0.63287702
0.68132115 0.63612841 0.63120749
0.72579797 0.64018892 0.62951076
0.47810518 0.69053554 0.63409458
0.48189745 0.69058930 0.63404865
0.49776171 0.69082076 0.63385471
0.52702179 0.69129769 0.63347322
0.56538967 0.69207795 0.63289629
0.60826984 0.69321981 0.63214171
0.65211677 0.69478263 0.63124928
0.69480433 0.69682361 0.63027562
0.73528383 0.69939288 0.62928755
0.53822614 0.74408661 0.63315348
0.54100061 0.74412351 0.63312947
0.55238935 0.74428215 0.63302812
0.57342602 0.74460814 0.63282894
0.60246110 0.74513934 0.63252840
0.63668719 0.74591344 0.63213733
0.67339244 0.74696952 0.63167966
0.71055722 0.74834712 0.63119036
0.74690908 0.75008414 0.63071236
0.20211424 0.10351919 0.76189651
0.21490678 0.10618664 0.76104365
0.26180999 0.11673438 0.75764249
0.33471721 0.13500805 0.75172657
0.42143085 0.15878731 0.74418749
0.51438318 0.18598029 0.73601893
0.59399120 0.21521681 0.72793236
0.65775052 0.24569771 0.72032979
0.71110830 0.27696475 0.71340167
0.20764777 0.13625755 0.75918521
0.21995326 0.13816040 0.75840569
0.26545874 0.14592161 0.75528011
0.33698325 0.16014140 0.74978462
0.42275302 0.17979530 0.74268800
0.51510348 0.20342766 0.73490200
0.59430703 0.22979640 0.72711481
0.65789920 0.25801879 0.71973649
0.71118104 0.28750859 0.71297411
0.22933731 0.22396844 0.74982995
0.24001539 0.22489619 0.74926246
0.28061665 0.22881726 0.74695069
0.34691961 0.23654766 0.74275165
0.42886018 0.24829859 0.73709718
0.51856555 0.26385653 0.73062853
0.59589945 0.28274816 0.72392196
0.65868363 0.30440696 0.71738374
0.71158441 0.32828897 0.71125999
0.26636353 0.32885339 0.73718244
0.27500207 0.32933269 0.73682219
0.30894173 0.33138963 0.73533135
0.36720356 0.33558797 0.73253010
0.44246405 0.34231140 0.72857609
0.52674969 0.35178929 0.72381432
0.59999324 0.36407634 0.71863322
0.66085370 0.37906652 0.71336891
0.71278350 0.39654007 0.70827038
0.31391884 0.43777618 0.72493714
0.32077289 0.43805958 0.72471602
0.34841312 0.43928148 0.72379123
0.39802184 0.44180503 0.72201152
0.46505888 0.44593105 0.71940840
0.54096180 0.45192207 0.71613783
0.60782038 0.45997557 0.71242047
0.66534577 0.47019887 0.70848623
0.71544773 0.48260389 0.70453786
0.36786889 0.54402530 0.71471190
0.37335415 0.54418666 0.71457520
0.39587335 0.54488158 0.71399977
0.43767040 0.54631380 0.71287585
0.49635771 0.54865147 0.71119341
0.56090476 0.55204572 0.70901655
0.61988658 0.55661722 0.70646045
0.67281875 0.56243674 0.70366535
0.72017868 0.56951261 0.70077345
0.42564351 0.62583384 0.70691007
0.43011369 0.62592276 0.70682457
0.44868289 0.62630559 0.70646332
0.48397596 0.62709450 0.70575144
0.53301581 0.62838416 0.70467044
0.58511072 0.63026655 0.70324509
0.63583024 0.63282866 0.70153431
0.68340255 0.63614429 0.69961984
0.72728587 0.64026510 0.69759408
0.48577176 0.69032968 0.70148930
0.48948610 0.69038542 0.70143578
0.50499138 0.69062516 0.70120913
0.53306151 0.69111827 0.70076018
0.57012620 0.69192269 0.70007269
0.61184921 0.69309564 0.69915584
0.65477682 0.69469460 0.69804051
0.69677440 0.69677440 0.69677440
0.73674922 0.69938278 0.69541600
0.54382053 0.74392833 0.69827100
0.54650029 0.74396629 0.69823808
0.55751520 0.74412941 0.69809855
0.57792071 0.74446423 0.69782145
0.60619862 0.74500886 0.69739533
0.63967906 0.74580070 0.69682390
0.67573328 0.74687807 0.69612443
0.71236876 0.74827946 0.69532562
0.74830710 0.75004160 0.69446477
0.23098770 0.11830765 0.81347145
0.24169878 0.12053006 0.81286322
0.28240334 0.12949472 0.81039297
0.34880235 0.14557630 0.80593316
0.43075895 0.16726446 0.79997101
0.52027246 0.19276987 0.79319095
0.59712169 0.22072780 0.78618109
0.65959535 0.25025230 0.77933785
0.71228407 0.28079738 0.77288979
0.23560042 0.14651314 0.81152104
0.24600674 0.14822466 0.81095192
0.28575444 0.15526119 0.80863352
0.35107295 0.16835282 0.80442134
0.43219538 0.18677657 0.79874300
0.52109518 0.20929029 0.79222993
0.59751024 0.23472733 0.78544465
0.65979083 0.26220115 0.77877949
0.71238661 0.29109504 0.77246889
0.25408257 0.22793817 0.80443584
0.26340960 0.22886211 0.80399064
0.29966414 0.23276115 0.80215948
0.36084080 0.24042675 0.79876347
0.43860124 0.25204724 0.79405524
0.52485815 0.26740794 0.78849088
0.59935058 0.28605551 0.78253241
0.66074572 0.30744982 0.77654269
0.71290297 0.33106852 0.77076602
0.28682783 0.32995512 0.79404685
0.29466565 0.33045675 0.79374101
0.32583399 0.33260158 0.79246921
0.38041740 0.33694617 0.79005298
0.45230243 0.34383684 0.78658490
0.53323310 0.35346101 0.78232112
0.60373023 0.36584685 0.77757472
0.66315104 0.38088146 0.77263502
0.71427403 0.39835160 0.76772975
0.33042544 0.43782802 0.78315557
0.33683418 0.43812860 0.78295548
0.36283610 0.43942052 0.78211642
0.41002354 0.44207081 0.78049172
0.47456495 0.44636399 0.77809157
0.54725481 0.45253621 0.77503527
0.61169478 0.46075962 0.77150412
0.66783293 0.47112439 0.76769540
0.71710690 0.48363507 0.76378959
0.38122226 0.54376728 0.77337529
0.38645732 0.54393799 0.77324489
0.40801500 0.54467155 0.77269508
0.44826805 0.54617613 0.77161672
0.50515231 0.54861453 0.76999112
0.56664971 0.55212601 0.76786653
0.62368128 0.55681700 0.76533876
0.67538059 0.56274568 0.76252894
0.72195059 0.56991190 0.75956318
0.43660101 0.62557196 0.76530280
0.44092496 0.62566524 0.76521700
0.45891526 0.62606630 0.76485399
0.49322127 0.62689027 0.76413612
0.54007582 0.62823101 0.76303941
0.59012641 0.63017678 0.76158027
0.63937082 0.63280914 0.75980730
0.68591753 0.63619602 0.75779124
0.72909465 0.64038387 0.75561416
0.49491735 0.69011109 0.75905697
0.49854215 0.69016905 0.75900007
0.51340416 0.69041815 0.75875878
0.54013533 0.69092956 0.75827912
0.57572233 0.69176134 0.75754001
0.61611294 0.69296958 0.75654500
0.65796773 0.69460962 0.75531856
0.69915128 0.69673364 0.75390158
0.73852550 0.69938669 0.75234593
0.55039410 0.74375272 0.75457478
0.55296652 0.74379190 0.75453705
0.56355646 0.74396019 0.75437684
0.58324008 0.74430521 0.75405735
0.61064453 0.74486536 0.75356240
0.64325666 0.74567770 0.75289113
0.67854593 0.74677971 0.75205616
0.71455458 0.74820870 0.75108151
0.75000000 0.75000000 0.75000000
