LUTS_for_Still_Image_Graphics/NBC_1b_4b_Type_I_For_Full_Range_RGB/1b-NBCU_SDR2HLG_DL_Type_I.cube
TITLE "SDR-BT.709 to HLG-BT.2100 Display-Light Conversion 3D Look-Up-Table"
# PLEASE DO NOT ALTER THE LINES BELOW
# 
# Copyright 2025 NBCUniversal, LLC - Please do not remove this line
# Products integrated with NBCU LUTs must acknowledge NBCUniversal, LLC in product documentation
#
# Version 1.2 (fix for unicode character which was preventing loading in some devices)
#
# Built using tools from and in collaboration with Cromorama and Nick Shaw - the creators of ORION-CONVERT
#
# Simple 2x scaling in linear light using display light following MovieLabs recommendations for SDR to HDR conversion
# Scaling matches BT.1886 scaling in conventional SDR consumer TVs for matching side-by-side look of upmapped HDR from SDR
#
# 100% SDR maps to 75% HLG 
# SDR sub-black and super-white values must be clipped by host application before LUT processing (0-100% signal = 0-1 in LUT processing)
#
# Display-Light Conversion (absolute chromaticity is preserved from input to output)
# Display-Light Conversion preserves original artistic intent
#
# No Matrix Compensation (so make sure your device is using the correct matrix)
#
# Type I LUT
LUT_3D_SIZE 5
0.00000000 0.00000000 0.00000000
0.20086129 0.06665813 0.03246618
0.40172259 0.13331627 0.06493236
0.58764550 0.19997440 0.09739854
0.70866206 0.26663254 0.12986472
0.13152555 0.21979148 0.06799854
0.21937624 0.22300944 0.07247109
0.40426776 0.24010268 0.08851290
0.58785192 0.27447239 0.11255955
0.70859525 0.32105752 0.14048830
0.26305110 0.43958295 0.13599709
0.30548198 0.44068388 0.13774514
0.43875248 0.44601888 0.14494218
0.59743173 0.45858095 0.15831692
0.71119886 0.48020535 0.17702581
0.39457664 0.62690396 0.20399563
0.41989332 0.62730054 0.20499106
0.51262760 0.62909438 0.20918766
0.62609493 0.63310262 0.21741327
0.72245355 0.64009404 0.22980604
0.52495801 0.74449089 0.27199417
0.54029181 0.74467295 0.27266052
0.59376903 0.74547601 0.27549028
0.66803286 0.74721168 0.28113490
0.74374580 0.75020836 0.28988436
0.05774693 0.02957691 0.26258826
0.20268133 0.07019934 0.23634061
0.40224620 0.13467566 0.21764092
0.58785186 0.20074600 0.21543405
0.70875375 0.26714852 0.22325244
0.13879193 0.21938009 0.22550502
0.22289118 0.22289118 0.22289118
0.40536155 0.24038929 0.21847233
0.58818966 0.27485382 0.21980408
0.70872123 0.32140832 0.22824999
0.26588867 0.43940298 0.23234022
0.30780559 0.44053299 0.23269042
0.44009320 0.44596003 0.23455802
0.59794705 0.45862142 0.23944131
0.71140264 0.48031074 0.24845541
0.39619252 0.62683640 0.26804269
0.42138195 0.62723733 0.26860599
0.51370075 0.62904754 0.27104566
0.62658923 0.63308064 0.27609713
0.72269386 0.64009714 0.28426183
0.52594619 0.74445950 0.31771572
0.54118985 0.74464257 0.31821201
0.59440797 0.74544973 0.32033408
0.66842279 0.74719252 0.32463243
0.74397417 0.75019807 0.33144812
0.11549385 0.05915382 0.52410962
0.21537948 0.08363223 0.50691373
0.40536267 0.14039869 0.47268123
0.58889821 0.20403144 0.44863338
0.70918558 0.26935131 0.43528184
0.16521272 0.21891401 0.48536308
0.23728247 0.22318199 0.47905824
0.41027339 0.24181753 0.46176316
0.58972549 0.27652851 0.44536178
0.70928955 0.32291912 0.43504864
0.27758386 0.43876018 0.45101004
0.31747987 0.44000106 0.44984690
0.44578237 0.44578237 0.44578237
0.60015230 0.45883209 0.44059778
0.71228297 0.48077858 0.43694467
0.40300538 0.62656588 0.44764316
0.42766945 0.62698458 0.44750107
0.51821070 0.62886188 0.44703766
0.62868856 0.63299711 0.44669088
0.72372052 0.64011703 0.44731984
0.53010483 0.74432956 0.46468044
0.54497442 0.74451690 0.46480692
0.59711179 0.74534117 0.46538085
0.67008000 0.74711380 0.46669220
0.74494783 0.75015653 0.46911605
0.17324078 0.08873074 0.70071953
0.24335201 0.10462542 0.69452924
0.41415351 0.15140184 0.67673293
0.59164951 0.21059803 0.65753738
0.71023478 0.27379592 0.64184772
0.20588178 0.22118201 0.68399584
0.26361553 0.22595769 0.68029581
0.42093662 0.24539517 0.66823181
0.59319696 0.28009243 0.65322430
0.71057228 0.32602786 0.63982024
0.29945303 0.43798530 0.65495556
0.33595258 0.43939841 0.65370514
0.45710364 0.44574144 0.64899498
0.60462231 0.45942754 0.64173146
0.71410841 0.48180660 0.63395976
0.41637580 0.62610244 0.63782547
0.44005878 0.62655354 0.63740197
0.52698956 0.62855363 0.63572313
0.63287702 0.63287702 0.63287702
0.72579797 0.64018892 0.62951076
0.53822614 0.74408661 0.63315348
0.55238935 0.74428215 0.63302812
0.60246110 0.74513934 0.63252840
0.67339244 0.74696952 0.63167966
0.74690908 0.75008414 0.63071236
0.23098770 0.11830765 0.81347145
0.28240334 0.12949472 0.81039297
0.43075895 0.16726446 0.79997101
0.59712169 0.22072780 0.78618109
0.71228407 0.28079738 0.77288979
0.25408257 0.22793817 0.80443584
0.29966414 0.23276115 0.80215948
0.43860124 0.25204724 0.79405524
0.59935058 0.28605551 0.78253241
0.71290297 0.33106852 0.77076602
0.33042544 0.43782802 0.78315557
0.36283610 0.43942052 0.78211642
0.47456495 0.44636399 0.77809157
0.61169478 0.46075962 0.77150412
0.71710690 0.48363507 0.76378959
0.43660101 0.62557196 0.76530280
0.45891526 0.62606630 0.76485399
0.54007582 0.62823101 0.76303941
0.63937082 0.63280914 0.75980730
0.72909465 0.64038387 0.75561416
0.55039410 0.74375272 0.75457478
0.56355646 0.74396019 0.75437684
0.61064453 0.74486536 0.75356240
0.67854593 0.74677971 0.75205616
0.75000000 0.75000000 0.75000000
