LUTS_for_Still_Image_Graphics/NBC_1b_4b_Type_I_For_Full_Range_RGB/1b-NBCU_SDR2HLG_DL_Type_I.cube
TITLE "SDR-BT.709 to HLG-BT.2100 Display-Light Conversion 3D Look-Up-Table"
# PLEASE DO NOT ALTER THE LINES BELOW
# 
# Copyright 2025 NBCUniversal, LLC - Please do not remove this line
# Products integrated with NBCU LUTs must acknowledge NBCUniversal, LLC in product documentation
#
# Version 1.2 (fix for unicode character which was preventing loading in some devices)
#
# Built using tools from and in collaboration with Cromorama and Nick Shaw - the creators of ORION-CONVERT
#
# Simple 2x scaling in linear light using display light following MovieLabs recommendations for SDR to HDR conversion
# Scaling matches BT.1886 scaling in conventional SDR consumer TVs for matching side-by-side look of upmapped HDR from SDR
#
# 100% SDR maps to 75% HLG 
# SDR sub-black and super-white values must be clipped by host application before LUT processing (0-100% signal = 0-1 in LUT processing)
#
# Display-Light Conversion (absolute chromaticity is preserved from input to output)
# Display-Light Conversion preserves original artistic intent
#
# No Matrix Compensation (so make sure your device is using the correct matrix)
#
# Type I LUT
LUT_3D_SIZE 33
0.00000000 0.00000000 0.00000000
0.02510766 0.00833227 0.00405827
0.05021532 0.01666453 0.00811654
0.07532299 0.02499680 0.01217482
0.10043065 0.03332907 0.01623309
0.12553831 0.04166133 0.02029136
0.15064597 0.04999360 0.02434963
0.17575363 0.05832587 0.02840791
0.20086129 0.06665813 0.03246618
0.22596896 0.07499040 0.03652445
0.25107662 0.08332267 0.04058272
0.27618428 0.09165494 0.04464100
0.30129194 0.09998720 0.04869927
0.32639960 0.10831947 0.05275754
0.35150727 0.11665174 0.05681581
0.37661493 0.12498400 0.06087409
0.40172259 0.13331627 0.06493236
0.42683025 0.14164854 0.06899063
0.45193791 0.14998080 0.07304890
0.47704557 0.15831307 0.07710718
0.50214496 0.16664534 0.08116545
0.52601643 0.17497760 0.08522372
0.54803981 0.18330987 0.08928199
0.56850758 0.19164214 0.09334027
0.58764550 0.19997440 0.09739854
0.60563169 0.20830667 0.10145681
0.62260938 0.21663894 0.10551508
0.63869557 0.22497120 0.10957336
0.65398719 0.23330347 0.11363163
0.66856554 0.24163574 0.11768990
0.68249951 0.24996801 0.12174817
0.69584806 0.25830027 0.12580645
0.70866206 0.26663254 0.12986472
0.01644069 0.02747393 0.00849982
0.02742203 0.02787618 0.00905889
0.05053347 0.03001283 0.01106411
0.07535795 0.03430905 0.01406994
0.10041396 0.04013219 0.01756104
0.12551237 0.04686017 0.02128400
0.15062026 0.05411754 0.02512726
0.17573029 0.06169600 0.02903862
0.20084057 0.06947833 0.03299144
0.22595063 0.07739588 0.03697103
0.25106035 0.08540667 0.04096875
0.27616977 0.09348392 0.04497924
0.30127891 0.10160989 0.04899900
0.32638783 0.10977249 0.05302569
0.35149656 0.11796320 0.05705767
0.37660515 0.12617589 0.06109377
0.40171361 0.13440604 0.06513313
0.42682197 0.14265027 0.06917512
0.45193024 0.15090598 0.07321924
0.47703845 0.15917117 0.07726512
0.50213836 0.16744427 0.08131248
0.52601075 0.17572401 0.08536106
0.54803488 0.18400940 0.08941069
0.56850326 0.19229960 0.09346121
0.58764168 0.20059396 0.09751249
0.60562829 0.20889191 0.10156444
0.62260633 0.21719299 0.10561697
0.63869282 0.22549681 0.10967001
0.65398470 0.23380304 0.11372348
0.66856327 0.24211140 0.11777736
0.68249744 0.25042166 0.12183158
0.69584616 0.25873361 0.12588611
0.70866032 0.26704707 0.12994092
0.03288139 0.05494787 0.01699964
0.03818525 0.05508549 0.01721814
0.05484406 0.05575236 0.01811777
0.07700734 0.05732262 0.01978962
0.10106694 0.06002567 0.02212823
0.12577339 0.06384490 0.02496237
0.15071590 0.06861810 0.02813989
0.17575193 0.07414956 0.03155094
0.20082791 0.08026438 0.03512208
0.22592203 0.08682321 0.03880506
0.25102474 0.09372034 0.04256800
0.27613162 0.10087708 0.04638941
0.30124052 0.10823509 0.05025453
0.32635036 0.11575093 0.05415296
0.35146058 0.12339200 0.05807724
0.37657089 0.13113356 0.06202191
0.40168115 0.13895665 0.06598287
0.42679128 0.14684656 0.06995705
0.45190126 0.15479177 0.07394205
0.47701106 0.16278313 0.07793603
0.50211268 0.17081335 0.08193750
0.52598843 0.17887652 0.08594530
0.54801529 0.18696783 0.08995847
0.56848594 0.19508334 0.09397625
0.58762626 0.20321978 0.09799800
0.60561448 0.21137442 0.10202319
0.62259389 0.21954498 0.10605138
0.63868156 0.22772952 0.11008220
0.65397447 0.23592640 0.11411533
0.66855394 0.24413422 0.11815052
0.68248889 0.25235178 0.12218753
0.69583831 0.26057803 0.12622617
0.70865308 0.26881208 0.13026626
0.04932208 0.08242180 0.02549945
0.05248667 0.08249828 0.02562388
0.06411466 0.08284546 0.02614846
0.08226609 0.08362854 0.02717666
0.10395093 0.08501901 0.02872576
0.12736003 0.08714108 0.03075494
0.15160041 0.09003850 0.03319234
0.17624974 0.09368445 0.03595925
0.20110697 0.09800955 0.03898452
0.22607385 0.10292715 0.04220983
0.25110069 0.10834947 0.04558970
0.27616142 0.11419597 0.04908950
0.30124187 0.12039657 0.05268311
0.32633407 0.12689212 0.05635080
0.35143340 0.13363356 0.06007758
0.37653711 0.14058050 0.06385200
0.40164354 0.14769991 0.06766519
0.42675165 0.15496468 0.07151027
0.45186078 0.16235263 0.07538179
0.47697052 0.16984547 0.07927544
0.50207288 0.17742810 0.08318773
0.52595257 0.18508800 0.08711586
0.54798290 0.19281472 0.09105754
0.56845660 0.20059950 0.09501088
0.58759961 0.20843498 0.09897431
0.60559020 0.21631490 0.10294653
0.62257171 0.22423397 0.10692643
0.63866124 0.23218765 0.11091308
0.65395580 0.24017204 0.11490571
0.66853675 0.24818380 0.11890362
0.68247302 0.25622002 0.12290625
0.69582361 0.26427817 0.12691309
0.70863944 0.27235606 0.13092370
0.06576277 0.10989574 0.03399927
0.06791444 0.10994654 0.03408256
0.07637050 0.11017097 0.03443628
0.09089802 0.11065791 0.03514186
0.10968812 0.11150472 0.03623554
0.13108971 0.11280848 0.03772151
0.15401467 0.11464524 0.03957923
0.17781891 0.11705705 0.04177217
0.20213388 0.12005134 0.04425645
0.22674990 0.12360816 0.04698763
0.25154677 0.12768980 0.04992474
0.27645456 0.13224920 0.05303211
0.30143179 0.13723619 0.05627977
0.32645339 0.14260152 0.05964306
0.35150386 0.14829912 0.06310188
0.37657343 0.15428722 0.06663997
0.40165583 0.16052876 0.07024415
0.42674695 0.16699124 0.07390376
0.45184406 0.17364642 0.07761012
0.47694532 0.18046991 0.08135614
0.50204198 0.18744067 0.08513599
0.52592045 0.19454061 0.08894488
0.54795085 0.20175415 0.09277882
0.56842535 0.20906786 0.09663448
0.58756957 0.21647017 0.10050906
0.60556158 0.22395106 0.10440021
0.62254459 0.23150186 0.10830592
0.63863564 0.23911503 0.11222450
0.65393169 0.24678400 0.11615449
0.66851406 0.25450304 0.12009462
0.68245169 0.26226712 0.12404381
0.69580356 0.27007184 0.12800113
0.70862059 0.27791330 0.13196575
0.08220347 0.13736967 0.04249909
0.08378937 0.13740674 0.04256007
0.09022852 0.13756845 0.04281982
0.10193156 0.13791127 0.04334183
0.11796951 0.13849405 0.04416125
0.13711015 0.13938090 0.04529443
0.15832535 0.14063384 0.04674204
0.18088861 0.14230383 0.04849202
0.20432019 0.14442478 0.05052320
0.22831186 0.14701202 0.05280895
0.25266735 0.15006417 0.05532057
0.27726161 0.15356678 0.05802960
0.30201452 0.15749631 0.06090950
0.32687422 0.16182377 0.06393632
0.35180679 0.16651750 0.06708910
0.37678974 0.17154524 0.07034972
0.40180796 0.17687557 0.07370272
0.42685116 0.18247873 0.07713501
0.45191226 0.18832710 0.08063551
0.47698630 0.19439545 0.08419486
0.50206213 0.20066095 0.08780519
0.52592461 0.20710310 0.09145981
0.54794456 0.21370358 0.09515307
0.56841226 0.22044608 0.09888015
0.58755215 0.22731612 0.10263696
0.60554149 0.23430084 0.10641999
0.62252298 0.24138884 0.11022623
0.63861329 0.24857001 0.11405308
0.65390913 0.25583538 0.11789831
0.66849167 0.26317697 0.12175995
0.68242970 0.27058772 0.12563632
0.69578215 0.27806129 0.12952594
0.70859986 0.28559207 0.13342750
0.09864416 0.16484361 0.05099891
0.09987736 0.16487229 0.05104616
0.10497333 0.16499657 0.05124776
0.11455574 0.16525646 0.05165443
0.12822931 0.16569091 0.05229692
0.14517079 0.16634279 0.05319375
0.16453218 0.16725708 0.05435332
0.18561567 0.16847669 0.05577518
0.20790187 0.17003802 0.05745151
0.23102201 0.17196786 0.05936885
0.25472005 0.17428216 0.06150988
0.27881992 0.17698641 0.06385518
0.30320082 0.18007701 0.06638468
0.32777977 0.18354317 0.06907865
0.35249948 0.18736889 0.07191850
0.37732016 0.19153470 0.07488711
0.40221394 0.19601910 0.07796905
0.42716112 0.20079975 0.08115060
0.45214769 0.20585429 0.08441966
0.47716355 0.21116095 0.08776567
0.50219272 0.21669894 0.09117939
0.52601177 0.22244867 0.09465283
0.54800119 0.22839194 0.09817900
0.56844722 0.23451191 0.10175189
0.58757156 0.24079314 0.10536623
0.60554973 0.24722153 0.10901746
0.62252316 0.25378425 0.11270160
0.63860767 0.26046963 0.11641518
0.65389937 0.26726711 0.12015516
0.66847898 0.27416712 0.12391888
0.68241500 0.28116101 0.12770399
0.69576609 0.28824093 0.13150843
0.70858295 0.29539981 0.13533039
0.11508485 0.19231754 0.05949873
0.11608077 0.19234064 0.05953681
0.12023897 0.19244033 0.05969945
0.12822747 0.19264706 0.06002820
0.13995184 0.19298868 0.06054950
0.15490440 0.19349519 0.06128110
0.17244126 0.19419900 0.06223378
0.19195421 0.19513326 0.06341220
0.21293977 0.19632935 0.06481559
0.23500819 0.19781451 0.06643850
0.25786815 0.19961012 0.06827178
0.28130589 0.20173076 0.07030350
0.30516602 0.20418419 0.07251999
0.32933597 0.20697187 0.07490669
0.35373429 0.21008984 0.07744879
0.37830188 0.21352983 0.08013186
0.40299575 0.21728026 0.08294214
0.42778444 0.22132723 0.08586680
0.45264482 0.22565534 0.08889405
0.47755978 0.23024838 0.09201320
0.50250528 0.23508984 0.09521459
0.52623948 0.24016334 0.09848961
0.54816746 0.24545293 0.10183054
0.56856838 0.25094325 0.10523056
0.58765925 0.25661973 0.10868360
0.60561233 0.26246862 0.11218428
0.62256684 0.26847703 0.11572786
0.63863699 0.27463298 0.11931010
0.65391775 0.28092533 0.12292727
0.66848899 0.28734379 0.12657604
0.68241861 0.29387888 0.13025348
0.69576482 0.30052184 0.13395695
0.70857796 0.30726464 0.13768412
0.13152555 0.21979148 0.06799854
0.13235272 0.21981063 0.06803014
0.13582888 0.21989308 0.06816513
0.14260184 0.22006315 0.06843835
0.15274099 0.22034194 0.06887257
0.16595964 0.22075154 0.06948398
0.18179604 0.22131582 0.07028373
0.19975287 0.22206001 0.07127852
0.21937624 0.22300944 0.07247109
0.24028617 0.22418804 0.07386058
0.26217941 0.22561696 0.07544302
0.28482049 0.22731349 0.07721183
0.30802935 0.22929048 0.07915846
0.33166947 0.23155610 0.08127292
0.35563782 0.23411411 0.08354433
0.37985676 0.23696421 0.08596143
0.40426776 0.24010268 0.08851290
0.42882659 0.24352297 0.09118771
0.45349980 0.24721632 0.09397527
0.47826193 0.25117237 0.09686562
0.50307650 0.25537959 0.09984948
0.52667110 0.25982579 0.10291829
0.54849594 0.26449839 0.10606422
0.56881960 0.26938476 0.10928013
0.58785192 0.27447239 0.11255955
0.60576020 0.27974908 0.11589664
0.62268013 0.28520305 0.11928612
0.63872340 0.29082301 0.12272326
0.65398314 0.29659823 0.12620377
0.66853787 0.30251856 0.12972381
0.68245444 0.30857444 0.13327994
0.69579032 0.31475689 0.13686904
0.70859525 0.32105752 0.14048830
0.14796624 0.24726541 0.07649836
0.14866827 0.24728164 0.07652516
0.15163120 0.24735143 0.07663967
0.15746000 0.24749485 0.07687165
0.16631042 0.24772864 0.07724086
0.17804365 0.24806976 0.07776187
0.19234397 0.24853637 0.07844537
0.20882272 0.24914784 0.07929875
0.22709090 0.24992428 0.08032640
0.24679827 0.25088562 0.08152998
0.26764804 0.25205071 0.08290864
0.28939757 0.25343644 0.08445937
0.31185280 0.25505703 0.08617727
0.33486055 0.25692363 0.08805595
0.35830083 0.25904415 0.09008790
0.38208008 0.26142325 0.09226481
0.40612554 0.26406259 0.09457793
0.43038059 0.26696113 0.09701831
0.45480123 0.27011551 0.09957702
0.47935311 0.27352043 0.10224534
0.50398088 0.27716905 0.10501491
0.52737018 0.28105334 0.10787775
0.54904082 0.28516441 0.11082638
0.56924712 0.28949279 0.11385381
0.58818911 0.29402864 0.11695357
0.60602719 0.29876200 0.12011969
0.62289211 0.30368288 0.12334667
0.63889195 0.30878144 0.12662949
0.65411717 0.31404804 0.12996357
0.66864430 0.31947336 0.13334471
0.68253871 0.32504841 0.13676909
0.69585670 0.33076458 0.14023325
0.70864713 0.33661368 0.14373401
0.16440693 0.27473934 0.08499818
0.16501303 0.27475335 0.08502130
0.16757873 0.27481349 0.08512014
0.17266047 0.27493676 0.08532047
0.18045703 0.27513691 0.08563964
0.19092624 0.27542743 0.08609071
0.20386312 0.27582254 0.08668366
0.21897447 0.27633744 0.08742588
0.23593902 0.27698810 0.08832250
0.25444689 0.27779086 0.08937649
0.27422030 0.27876180 0.09058886
0.29502108 0.27991615 0.09195885
0.31665070 0.28126769 0.09348408
0.33894662 0.28282829 0.09516078
0.36177721 0.28460766 0.09698405
0.38503669 0.28661310 0.09894808
0.40864037 0.28884956 0.10104639
0.43252069 0.29131969 0.10327206
0.45662372 0.29402404 0.10561791
0.48090649 0.29696126 0.10807667
0.50528431 0.30012835 0.11064113
0.52839527 0.30352094 0.11330425
0.54985371 0.30713356 0.11605921
0.56989624 0.31095980 0.11889951
0.58871048 0.31499263 0.12181899
0.60644799 0.31922449 0.12481185
0.62323309 0.32364754 0.12787265
0.63916913 0.32825374 0.13099633
0.65434303 0.33303499 0.13417820
0.66882864 0.33798323 0.13741391
0.68268928 0.34309049 0.14069944
0.69597968 0.34834898 0.14403109
0.70874747 0.35375115 0.14740545
0.18084763 0.30221328 0.09349800
0.18137824 0.30222553 0.09351823
0.18362916 0.30227811 0.09360474
0.18810951 0.30238569 0.09378016
0.19503679 0.30255983 0.09405983
0.20443106 0.30281161 0.09445549
0.21616879 0.30315248 0.09497636
0.23003569 0.30359460 0.09562957
0.24577394 0.30415081 0.09642043
0.26311772 0.30483449 0.09735261
0.28181566 0.30565913 0.09842817
0.30164233 0.30663798 0.09964775
0.32240245 0.30778358 0.10101063
0.34393058 0.30910739 0.10251491
0.36608865 0.31061948 0.10415761
0.38876254 0.31232827 0.10593487
0.41185856 0.31424045 0.10784212
0.43530012 0.31636090 0.10987418
0.45902474 0.31869275 0.11202550
0.48298155 0.32123744 0.11429025
0.50703960 0.32399491 0.11666245
0.52979594 0.32696370 0.11913609
0.55098024 0.33014118 0.12170524
0.57080840 0.33352368 0.12436407
0.58945336 0.33710669 0.12710695
0.60705605 0.34088503 0.12992846
0.62373296 0.34485298 0.13282343
0.63958159 0.34900441 0.13578699
0.65468444 0.35333293 0.13881451
0.66911197 0.35783194 0.14190166
0.68292491 0.36249477 0.14504439
0.69617594 0.36731474 0.14823889
0.70891112 0.37228518 0.15148165
0.19728832 0.32968721 0.10199782
0.19775822 0.32969806 0.10201573
0.19975472 0.32974458 0.10209233
0.20374332 0.32983962 0.10224769
0.20994666 0.32999313 0.10249553
0.21842429 0.33021442 0.10284643
0.22911149 0.33051291 0.10330885
0.24185692 0.33089855 0.10388956
0.25645863 0.33138182 0.10459383
0.27269406 0.33197373 0.10542559
0.29034159 0.33268558 0.10638750
0.30919382 0.33352869 0.10748106
0.32906436 0.33451416 0.10870663
0.34979020 0.33565250 0.11006359
0.37123135 0.33695339 0.11155035
0.39326912 0.33842544 0.11316453
0.41580374 0.34007604 0.11490302
0.43875184 0.34191124 0.11676213
0.46204402 0.34393572 0.11873769
0.48562269 0.34615276 0.12082516
0.50928401 0.34856433 0.12301975
0.53161025 0.35117116 0.12531650
0.55245757 0.35397283 0.12771037
0.57201892 0.35696789 0.13019632
0.59045075 0.36015402 0.13276936
0.60788183 0.36352809 0.13542460
0.62441960 0.36708634 0.13815731
0.64015471 0.37082448 0.14096290
0.65516441 0.37473779 0.14383700
0.66951512 0.37882119 0.14677543
0.68326440 0.38306939 0.14977422
0.69646245 0.38747692 0.15282962
0.70915335 0.39203819 0.15593810
0.21372902 0.35716115 0.11049763
0.21414919 0.35717084 0.11051365
0.21593658 0.35721241 0.11058213
0.21951743 0.35729725 0.11072108
0.22511201 0.35743404 0.11094280
0.23280436 0.35763075 0.11125692
0.24257181 0.35789534 0.11167119
0.25431214 0.35823607 0.11219198
0.26787069 0.35866163 0.11282437
0.28306481 0.35918118 0.11357237
0.29970317 0.35980419 0.11443894
0.31759915 0.36054033 0.11542608
0.33657909 0.36139925 0.11653487
0.35648639 0.36239034 0.11776552
0.37718293 0.36352255 0.11911745
0.39854873 0.36480417 0.12058936
0.42048070 0.36624264 0.12217928
0.44289093 0.36784448 0.12388466
0.46570487 0.36961515 0.12570250
0.48885953 0.37155905 0.12762935
0.51203869 0.37367946 0.12966148
0.53386363 0.37597863 0.13179490
0.55431305 0.37845777 0.13402544
0.57355561 0.38111715 0.13634887
0.59172992 0.38395616 0.13876087
0.60895149 0.38697342 0.14125715
0.62531772 0.39016685 0.14383347
0.64091158 0.39353378 0.14648567
0.65580436 0.39707102 0.14920970
0.67005783 0.40077495 0.15200166
0.68372587 0.40464161 0.15485776
0.69685578 0.40866676 0.15777440
0.70948932 0.41284593 0.16074815
0.23016971 0.38463508 0.11899745
0.23054854 0.38464382 0.11901189
0.23216154 0.38468128 0.11907363
0.23540008 0.38475766 0.11919891
0.24047794 0.38488066 0.11939890
0.24749386 0.38505721 0.11968234
0.25645494 0.38529412 0.12005640
0.26729674 0.38559840 0.12052700
0.27990368 0.38597735 0.12109901
0.29412849 0.38643867 0.12177638
0.30980879 0.38699037 0.12256220
0.32677971 0.38764070 0.12345875
0.34488252 0.38839801 0.12446756
0.36396987 0.38927059 0.12558941
0.38390842 0.39026652 0.12682441
0.40457964 0.39139350 0.12817204
0.42587955 0.39265869 0.12963118
0.44771779 0.39406861 0.13120021
0.47001638 0.39562902 0.13287701
0.49270833 0.39734487 0.13465907
0.51530952 0.39922023 0.13654355
0.53656899 0.40125834 0.13852731
0.55656390 0.40346152 0.14060699
0.57543806 0.40583129 0.14277910
0.59331160 0.40836838 0.14503999
0.61028601 0.41107276 0.14738598
0.62644798 0.41394373 0.14981337
0.64187215 0.41697999 0.15231846
0.65662328 0.42017969 0.15489758
0.67075801 0.42354049 0.15754717
0.68432611 0.42705967 0.16026372
0.69737158 0.43073414 0.16304384
0.70993353 0.43456053 0.16588427
0.24661040 0.41210902 0.12749727
0.24695441 0.41211695 0.12751038
0.24842015 0.41215095 0.12756644
0.25136810 0.41222023 0.12768021
0.25600352 0.41233168 0.12786186
0.26243333 0.41249142 0.12811941
0.27068555 0.41270536 0.12845947
0.28072455 0.41297953 0.12888754
0.29246651 0.41332017 0.12940827
0.30579468 0.41373381 0.13002548
0.32057328 0.41422728 0.13074229
0.33665882 0.41480765 0.13156112
0.35390852 0.41548215 0.13248375
0.37218608 0.41625805 0.13351135
0.39136502 0.41714256 0.13464452
0.41133045 0.41814270 0.13588329
0.43197956 0.41926515 0.13722719
0.45322137 0.42051618 0.13867526
0.47497606 0.42190153 0.14022611
0.49717398 0.42342632 0.14187799
0.51908889 0.42509505 0.14362878
0.53972769 0.42691149 0.14547607
0.55921754 0.42887872 0.14741722
0.57767772 0.43099911 0.14944939
0.59520974 0.43327433 0.15156959
0.61190081 0.43570541 0.15377469
0.62782649 0.43829272 0.15606152
0.64305268 0.44103606 0.15842686
0.65763724 0.44393470 0.16086747
0.67163126 0.44698740 0.16338014
0.68508006 0.45019252 0.16596170
0.69802405 0.45354801 0.16860901
0.71049939 0.45705150 0.17131903
0.26305110 0.43958295 0.13599709
0.26336541 0.43959020 0.13600906
0.26470545 0.43962125 0.13606028
0.26740428 0.43968451 0.13616424
0.27165776 0.43978616 0.13633026
0.27757671 0.43993169 0.13656571
0.28520368 0.44012630 0.13687670
0.29452488 0.44037523 0.13726839
0.30548198 0.44068388 0.13774514
0.31798412 0.44105787 0.13831065
0.33191928 0.44150307 0.13896797
0.34716417 0.44202557 0.13971959
0.36359207 0.44263164 0.14056745
0.38107865 0.44332766 0.14151296
0.39950573 0.44412003 0.14255704
0.41876368 0.44501505 0.14370011
0.43875248 0.44601888 0.14494218
0.45938212 0.44713738 0.14628281
0.48057233 0.44837608 0.14772117
0.50224302 0.44974005 0.14925608
0.52335809 0.45123391 0.15088604
0.54333103 0.45286173 0.15260925
0.56227256 0.45462699 0.15442367
0.58027835 0.45653262 0.15632704
0.59743173 0.45858095 0.15831692
0.61380571 0.46077375 0.16039075
0.62946464 0.46311220 0.16254583
0.64446551 0.46559697 0.16477941
0.65885901 0.46822821 0.16708866
0.67269045 0.47100561 0.16947076
0.68600046 0.47392842 0.17192286
0.69882560 0.47699549 0.17444214
0.71119886 0.48020535 0.17702581
0.27949179 0.46705689 0.14449691
0.27978056 0.46706355 0.14450791
0.28101223 0.46709206 0.14455496
0.28349561 0.46715013 0.14465047
0.28741688 0.46724340 0.14480302
0.29288797 0.46737677 0.14501942
0.29996136 0.46755491 0.14530534
0.30863970 0.46778242 0.14566560
0.31888501 0.46806402 0.14610431
0.33062806 0.46840460 0.14662500
0.34377766 0.46880924 0.14723066
0.35822909 0.46928323 0.14792377
0.37387117 0.46983205 0.14870633
0.39059181 0.47046128 0.14957992
0.40828198 0.47117658 0.15054566
0.42683842 0.47198362 0.15160427
0.44616520 0.47288797 0.15275609
0.46617451 0.47389506 0.15400107
0.48678688 0.47501008 0.15533881
0.50782035 0.47623794 0.15676859
0.52808969 0.47758317 0.15828940
0.54736207 0.47904992 0.15989994
0.56571990 0.48064189 0.16159866
0.58323683 0.48236232 0.16338382
0.59997885 0.48421396 0.16525347
0.61600521 0.48619908 0.16720551
0.63136922 0.48831945 0.16923771
0.64611899 0.49057639 0.17134773
0.66029799 0.49297073 0.17353317
0.67394562 0.49550290 0.17579155
0.68709765 0.49817288 0.17812038
0.69978663 0.50097857 0.18051713
0.71204226 0.50389703 0.18297930
0.29593248 0.49453082 0.15299672
0.29619906 0.49453697 0.15300688
0.29733653 0.49456329 0.15305032
0.29963208 0.49461687 0.15313849
0.30326240 0.49470287 0.15327934
0.30833868 0.49482575 0.15347919
0.31491999 0.49498970 0.15374329
0.32302134 0.49519883 0.15407618
0.33262085 0.49545728 0.15448172
0.34366723 0.49576937 0.15496328
0.35608731 0.49613953 0.15552374
0.36979307 0.49657239 0.15616555
0.38468794 0.49707274 0.15689075
0.40067190 0.49764550 0.15770097
0.41764543 0.49829569 0.15859750
0.43551238 0.49902836 0.15958125
0.45418179 0.49984856 0.16065280
0.47356908 0.50076021 0.16181239
0.49359654 0.50176563 0.16305995
0.51384491 0.50286836 0.16439513
0.53325001 0.50407155 0.16581728
0.55179740 0.50537789 0.16732553
0.56954427 0.50678958 0.16891874
0.58654419 0.50830831 0.17059558
0.60284701 0.50993519 0.17235453
0.61849894 0.51167081 0.17419391
0.63354269 0.51351520 0.17611190
0.64801768 0.51546785 0.17810654
0.66196023 0.51752776 0.18017580
0.67540386 0.51969341 0.18231755
0.68837943 0.52196286 0.18452963
0.70091540 0.52433374 0.18680981
0.71303803 0.52680334 0.18915587
0.31237318 0.52118331 0.16149654
0.31262034 0.52118859 0.16150596
0.31367528 0.52121122 0.16154623
0.31580592 0.52125726 0.16162798
0.31917978 0.52133111 0.16175859
0.32390616 0.52143652 0.16194393
0.33004834 0.52157697 0.16218892
0.33763048 0.52175583 0.16249779
0.34664345 0.52197644 0.16287421
0.35705074 0.52224223 0.16332137
0.36879455 0.52255668 0.16384203
0.38180172 0.52292340 0.16443860
0.39598912 0.52334606 0.16511310
0.41126830 0.52382842 0.16586721
0.42754927 0.52437423 0.16670230
0.44474333 0.52498729 0.16761941
0.46276514 0.52567129 0.16861930
0.48153406 0.52642983 0.16970242
0.50097325 0.52726635 0.17086896
0.52026726 0.52818407 0.17211884
0.53880130 0.52918593 0.17345172
0.55660895 0.53027460 0.17486704
0.57372552 0.53145235 0.17636402
0.59018666 0.53272113 0.17794168
0.60602754 0.53408245 0.17959885
0.62128228 0.53553742 0.18133421
0.63598359 0.53708674 0.18314628
0.65016257 0.53873066 0.18503347
0.66384863 0.54046905 0.18699407
0.67706949 0.54230135 0.18902629
0.68985114 0.54422663 0.19112826
0.70221796 0.54624359 0.19329804
0.71419274 0.54835059 0.19553368
0.32881387 0.54558901 0.16999636
0.32904392 0.54559352 0.17000512
0.33002607 0.54561286 0.17004260
0.33201096 0.54565220 0.17011870
0.33515747 0.54571527 0.17024028
0.33957220 0.54580526 0.17041282
0.34532094 0.54592508 0.17064094
0.35243460 0.54607753 0.17092861
0.36091406 0.54626540 0.17127929
0.37073493 0.54649149 0.17169600
0.38185248 0.54675867 0.17218142
0.39420656 0.54706990 0.17273786
0.40772624 0.54742819 0.17336731
0.42233395 0.54783664 0.17407148
0.43794893 0.54829837 0.17485177
0.45449009 0.54881654 0.17570932
0.47187803 0.54939427 0.17664500
0.49003658 0.55003466 0.17765943
0.50875504 0.55074068 0.17875297
0.52703721 0.55151519 0.17992577
0.54470355 0.55236088 0.18117772
0.56176555 0.55328022 0.18250854
0.57823992 0.55427546 0.18391770
0.59414673 0.55534856 0.18540453
0.60950805 0.55650122 0.18696815
0.62434701 0.55773481 0.18860755
0.63868706 0.55905037 0.19032155
0.65255150 0.56044864 0.19210887
0.66596317 0.56193000 0.19396809
0.67894416 0.56349453 0.19589772
0.69151576 0.56514197 0.19789615
0.70369829 0.56687175 0.19996175
