LUTS_for_Software_DaVinci_Premiere_Avid_FinalCutPro/DaVinci-Resolve-with-Video-Range-Tag/Philips-Gamma-Adaption_1.08_Test/3b-Gamma.1.08-Philips-NBCU-HLG2SDR-DL_VRT_v1.2.cube
TITLE "NBC3 with Gamma 1.08 Adaption for 100nit SDR Grading ONLY"
# 
# PLEASE DO NOT ALTER THE LINES BELOW
# 
# Copyright 2023 NBCUniversal, LLC - Please do not remove this line
#
# Built using tools from and in collaboration with Cromorama and Nick Shaw - the creators of ORION-CONVERT
#
# Parameters designed by Chris Seeger, NBCU Advanced Technology (chris.seeger@nbcuni.com)
# In collaboration with Michael Drazin, NBCU Sports Group
#
# NBC HLG to SDR Display Light
# with 1.08 gamma compensation
# Type III LUT - Full Range Processing for Narrow Range Signals (Unscaled code values in and out)
# RESOLVE 17 VIDEO RANGE TAGS
LUT_IN_VIDEO_RANGE
LUT_OUT_VIDEO_RANGE
LUT_3D_SIZE 33
0.0039101 0.0039101 0.0039101
0.1091218 0.0039101 0.0039101
0.1327222 0.0039101 0.0039101
0.1480836 0.0039101 0.0039101
0.1785054 0.0039101 0.0039101
0.2059603 0.0039101 0.0039101
0.2458607 0.0039101 0.0039101
0.2912371 0.0039101 0.0039101
0.3339766 0.0039101 0.0039101
0.3757684 0.0039101 0.0039101
0.4169804 0.0039101 0.0039101
0.4577571 0.0039101 0.0039101
0.4981751 0.0039101 0.0039101
0.5382834 0.0039101 0.0039101
0.5781171 0.0039101 0.0039101
0.6177031 0.0039101 0.0039101
0.6572922 0.0039101 0.0039101
0.7007082 0.0039101 0.0039101
0.7496650 0.0039101 0.0039101
0.8006523 0.0039101 0.0039101
0.8428534 0.0039101 0.0039101
0.8775524 0.0039101 0.0039101
0.9063626 0.0039101 0.0039101
0.9304912 0.0039101 0.0039101
0.9508558 0.0039101 0.0039101
0.9670714 0.0039101 0.0039101
0.9773143 0.0039101 0.0039101
0.9841823 0.0039101 0.0039101
0.9891012 0.0039101 0.0039101
0.9927948 0.0039101 0.0039101
0.9956689 0.0039101 0.0039101
0.9960899 0.0039101 0.0039101
0.9960899 0.0039101 0.0039101
0.0039101 0.0253371 0.0039101
0.0220248 0.0181226 0.0039101
0.1046187 0.0163796 0.0039101
0.1268701 0.0150233 0.0039101
0.1564153 0.0132714 0.0039101
0.2054947 0.0039101 0.0039101
0.2493068 0.0039101 0.0039101
0.2920587 0.0039101 0.0039101
0.3341366 0.0039101 0.0039101
0.3756893 0.0039101 0.0039101
0.4168038 0.0039101 0.0039101
0.4575406 0.0039101 0.0039101
0.4979445 0.0039101 0.0039101
0.5380513 0.0039101 0.0039101
0.5778894 0.0039101 0.0039101
0.6174827 0.0039101 0.0039101
0.6570805 0.0039101 0.0039101
0.7005065 0.0039101 0.0039101
0.7494744 0.0039101 0.0039101
0.8005091 0.0039101 0.0039101
0.8427559 0.0039101 0.0039101
0.8774856 0.0039101 0.0039101
0.9063164 0.0039101 0.0039101
0.9304591 0.0039101 0.0039101
0.9508335 0.0039101 0.0039101
0.9670553 0.0039101 0.0039101
0.9773016 0.0039101 0.0039101
0.9841716 0.0039101 0.0039101
0.9890918 0.0039101 0.0039101
0.9927863 0.0039101 0.0039101
0.9956611 0.0039101 0.0039101
0.9960899 0.0039101 0.0039101
0.9960899 0.0039101 0.0039101
0.0039101 0.0971867 0.0039101
0.0133435 0.0825674 0.0039101
0.0874953 0.0726720 0.0039101
0.1120188 0.0487814 0.0039101
0.1612283 0.0305675 0.0039101
0.2057713 0.0148881 0.0039101
0.2492347 0.0039101 0.0039101
0.2919201 0.0039101 0.0039101
0.3339891 0.0039101 0.0039101
0.3755479 0.0039101 0.0039101
0.4166724 0.0039101 0.0039101
0.4574195 0.0039101 0.0039101
0.4978331 0.0039101 0.0039101
0.5379484 0.0039101 0.0039101
0.5777942 0.0039101 0.0039101
0.6173942 0.0039101 0.0039101
0.6569981 0.0039101 0.0039101
0.7004299 0.0039101 0.0039101
0.7494036 0.0039101 0.0039101
0.8004569 0.0039101 0.0039101
0.8427208 0.0039101 0.0039101
0.8774618 0.0039101 0.0039101
0.9063002 0.0039101 0.0039101
0.9304480 0.0039101 0.0039101
0.9508257 0.0039101 0.0039101
0.9670498 0.0039101 0.0039101
0.9772972 0.0039101 0.0039101
0.9841680 0.0039101 0.0039101
0.9890886 0.0039101 0.0039101
0.9927834 0.0039101 0.0039101
0.9956584 0.0039101 0.0039101
0.9960899 0.0039101 0.0039101
0.9960899 0.0039101 0.0039101
0.0039101 0.1163152 0.0039101
0.0082180 0.1081639 0.0039101
0.0368646 0.1081581 0.0039101
0.1123196 0.1070108 0.0039101
0.1603496 0.1007824 0.0039101
0.2052513 0.0750669 0.0039101
0.2488717 0.0184049 0.0039101
0.2916424 0.0039101 0.0039101
0.3337645 0.0039101 0.0039101
0.3753596 0.0039101 0.0039101
0.4165104 0.0039101 0.0039101
0.4572774 0.0039101 0.0039101
0.4977067 0.0039101 0.0039101
0.5378346 0.0039101 0.0039101
0.5776908 0.0039101 0.0039101
0.6172995 0.0039101 0.0039101
0.6569108 0.0039101 0.0039101
0.7003495 0.0039101 0.0039101
0.7493300 0.0039101 0.0039101
0.8004029 0.0039101 0.0039101
0.8426848 0.0039101 0.0039101
0.8774376 0.0039101 0.0039101
0.9062838 0.0039101 0.0039101
0.9304367 0.0039101 0.0039101
0.9508179 0.0039101 0.0039101
0.9670442 0.0039101 0.0039101
0.9772929 0.0039101 0.0039101
0.9841643 0.0039101 0.0039101
0.9890854 0.0039101 0.0039101
0.9927805 0.0039101 0.0039101
0.9956558 0.0039101 0.0039101
0.9960899 0.0039101 0.0039101
0.9960899 0.0039101 0.0039101
0.0039101 0.1513733 0.0039101
0.0039101 0.1503440 0.0039101
0.0039101 0.1498117 0.0039101
0.0307518 0.1492145 0.0039101
0.1513967 0.1470757 0.0039101
0.2012682 0.1425729 0.0039101
0.2466105 0.1344534 0.0039101
0.2901629 0.1199547 0.0039101
0.3327007 0.0795373 0.0039101
0.3745428 0.0039101 0.0039101
0.4158531 0.0039101 0.0039101
0.4567298 0.0039101 0.0039101
0.4972384 0.0039101 0.0039101
0.5374260 0.0039101 0.0039101
0.5773286 0.0039101 0.0039101
0.6169743 0.0039101 0.0039101
0.6566159 0.0039101 0.0039101
0.7000823 0.0039101 0.0039101
0.7490883 0.0039101 0.0039101
0.8002278 0.0039101 0.0039101
0.8425695 0.0039101 0.0039101
0.8773607 0.0039101 0.0039101
0.9062320 0.0039101 0.0039101
0.9304014 0.0039101 0.0039101
0.9507938 0.0039101 0.0039101
0.9670271 0.0039101 0.0039101
0.9772794 0.0039101 0.0039101
0.9841530 0.0039101 0.0039101
0.9890755 0.0039101 0.0039101
0.9927717 0.0039101 0.0039101
0.9956476 0.0039101 0.0039101
0.9960899 0.0039101 0.0039101
0.9960899 0.0039101 0.0039101
0.0039101 0.1910368 0.0039101
0.0039101 0.1900374 0.0039101
0.0039101 0.1896621 0.0039101
0.0039101 0.1892713 0.0039101
0.1223085 0.1879943 0.0039101
0.1901660 0.1855644 0.0039101
0.2404026 0.1816111 0.0039101
0.2861948 0.1756576 0.0039101
0.3299443 0.1670040 0.0039101
0.3725085 0.1543727 0.0039101
0.4142801 0.1345572 0.0039101
0.4554679 0.0848411 0.0039101
0.4961959 0.0039101 0.0039101
0.5365440 0.0039101 0.0039101
0.5765677 0.0039101 0.0039101
0.6163072 0.0039101 0.0039101
0.6560237 0.0039101 0.0039101
0.6995559 0.0039101 0.0039101
0.7486216 0.0039101 0.0039101
0.7998952 0.0039101 0.0039101
0.8423542 0.0039101 0.0039101
0.8772194 0.0039101 0.0039101
0.9061381 0.0039101 0.0039101
0.9303384 0.0039101 0.0039101
0.9507510 0.0039101 0.0039101
0.9669971 0.0039101 0.0039101
0.9772560 0.0039101 0.0039101
0.9841335 0.0039101 0.0039101
0.9890585 0.0039101 0.0039101
0.9927563 0.0039101 0.0039101
0.9956336 0.0039101 0.0039101
0.9960899 0.0039101 0.0039101
0.9960899 0.0039101 0.0039101
0.0039101 0.2295708 0.0039101
0.0039101 0.2287722 0.0039101
0.0039101 0.2284894 0.0039101
0.0039101 0.2282015 0.0039101
0.0039101 0.2272928 0.0039101
0.1668705 0.2256461 0.0039101
0.2283117 0.2230909 0.0039101
0.2785202 0.2194189 0.0039101
0.3246223 0.2143802 0.0039101
0.3686039 0.2076545 0.0039101
0.4112928 0.1987845 0.0039101
0.4531051 0.1870294 0.0039101
0.4942750 0.1709701 0.0039101
0.5349462 0.1469994 0.0039101
0.5752126 0.0904701 0.0039101
0.6151389 0.0039101 0.0039101
0.6550028 0.0039101 0.0039101
0.6986636 0.0039101 0.0039101
0.7478436 0.0039101 0.0039101
0.7993488 0.0039101 0.0039101
0.8420068 0.0039101 0.0039101
0.8769954 0.0039101 0.0039101
0.9059917 0.0039101 0.0039101
0.9302415 0.0039101 0.0039101
0.9506862 0.0039101 0.0039101
0.9669520 0.0039101 0.0039101
0.9772211 0.0039101 0.0039101
0.9841045 0.0039101 0.0039101
0.9890333 0.0039101 0.0039101
0.9927337 0.0039101 0.0039101
0.9956129 0.0039101 0.0039101
0.9960899 0.0039101 0.0039101
0.9960899 0.0039101 0.0039101
0.0039101 0.2674583 0.0039101
0.0039101 0.2668082 0.0039101
0.0039101 0.2665832 0.0039101
0.0039101 0.2663563 0.0039101
0.0039101 0.2656521 0.0039101
0.1018988 0.2644096 0.0039101
0.2074396 0.2625364 0.0039101
0.2658869 0.2599179 0.0039101
0.3159328 0.2564213 0.0039101
0.3622312 0.2518933 0.0039101
0.4064190 0.2461501 0.0039101
0.4492589 0.2389566 0.0039101
0.4911623 0.2299893 0.0039101
0.5323736 0.2187644 0.0039101
0.5730477 0.2044780 0.0039101
0.6132886 0.1855778 0.0039101
0.6534008 0.1579150 0.0039101
0.6972780 0.0405454 0.0039101
0.7466500 0.0039101 0.0039101
0.7985173 0.0039101 0.0039101
0.8414860 0.0039101 0.0039101
0.8766646 0.0039101 0.0039101
0.9057787 0.0039101 0.0039101
0.9301026 0.0039101 0.0039101
0.9505944 0.0039101 0.0039101
0.9668891 0.0039101 0.0039101
0.9771728 0.0039101 0.0039101
0.9840645 0.0039101 0.0039101
0.9889987 0.0039101 0.0039101
0.9927028 0.0039101 0.0039101
0.9955846 0.0039101 0.0039101
0.9960899 0.0039101 0.0039101
0.9960899 0.0039101 0.0039101
0.0039101 0.3048350 0.0039101
0.0039101 0.3042912 0.0039101
0.0039101 0.3041051 0.0039101
0.0039101 0.3039184 0.0039101
0.0039101 0.3033444 0.0039101
0.0039101 0.3023475 0.0039101
0.1696739 0.3008725 0.0039101
0.2464019 0.2988494 0.0039101
0.3029727 0.2961964 0.0039101
0.3528066 0.2928219 0.0039101
0.3992207 0.2886225 0.0039101
0.4435767 0.2834788 0.0039101
0.4865642 0.2772475 0.0039101
0.5285775 0.2697474 0.0039101
0.5698607 0.2607375 0.0039101
0.6105737 0.2498770 0.0039101
0.6510606 0.2365632 0.0039101
0.6952649 0.2180252 0.0039101
0.7449280 0.1889226 0.0039101
0.7973196 0.1249879 0.0039101
0.8407445 0.0039101 0.0039101
0.8761993 0.0039101 0.0039101
0.9054828 0.0039101 0.0039101
0.9299121 0.0039101 0.0039101
0.9504702 0.0039101 0.0039101
0.9668048 0.0039101 0.0039101
0.9771085 0.0039101 0.0039101
0.9840117 0.0039101 0.0039101
0.9889531 0.0039101 0.0039101
0.9926623 0.0039101 0.0039101
0.9955477 0.0039101 0.0039101
0.9960899 0.0039101 0.0039101
0.9960899 0.0039101 0.0039101
0.0039101 0.3417827 0.0039101
0.0039101 0.3413172 0.0039101
0.0039101 0.3411590 0.0039101
0.0039101 0.3410007 0.0039101
0.0039101 0.3405168 0.0039101
0.0039101 0.3396849 0.0039101
0.0039101 0.3384696 0.0039101
0.2159597 0.3368251 0.0039101
0.2844047 0.3346971 0.0039101
0.3396383 0.3320250 0.0039101
0.3892441 0.3287415 0.0039101
0.4357179 0.3247726 0.0039101
0.4802053 0.3200345 0.0039101
0.5233262 0.3144306 0.0039101
0.5654520 0.3078449 0.0039101
0.6068207 0.3001331 0.0039101
0.6478298 0.2910517 0.0039101
0.6924921 0.2791849 0.0039101
0.7425640 0.2627376 0.0039101
0.7956672 0.2380518 0.0039101
0.8397304 0.1958540 0.0039101
0.8755686 0.0253692 0.0039101
0.9050857 0.0039101 0.0039101
0.9296590 0.0039101 0.0039101
0.9503069 0.0039101 0.0039101
0.9666951 0.0039101 0.0039101
0.9770256 0.0039101 0.0039101
0.9839439 0.0039101 0.0039101
0.9888948 0.0039101 0.0039101
0.9926105 0.0039101 0.0039101
0.9955006 0.0039101 0.0039101
0.9960899 0.0039101 0.0039101
0.9960899 0.0039101 0.0039101
0.0039101 0.3783605 0.0039101
0.0039101 0.3779547 0.0039101
0.0039101 0.3778173 0.0039101
0.0039101 0.3776801 0.0039101
0.0039101 0.3772623 0.0039101
0.0039101 0.3765489 0.0039101
0.0039101 0.3755160 0.0039101
0.1592143 0.3741320 0.0039101
0.2577250 0.3723593 0.0039101
0.3217307 0.3701551 0.0039101
0.3759388 0.3674726 0.0039101
0.4253150 0.3642605 0.0039101
0.4718092 0.3604631 0.0039101
0.5163962 0.3560187 0.0039101
0.5596328 0.3508574 0.0039101
0.6018658 0.3448987 0.0039101
0.6435644 0.3380035 0.0039101
0.6888331 0.3292067 0.0039101
0.7394483 0.3174578 0.0039101
0.7934656 0.3005970 0.0039101
0.8383885 0.2730342 0.0039101
0.8747400 0.2323179 0.0039101
0.9045679 0.1644326 0.0039101
0.9293316 0.0039101 0.0039101
0.9500976 0.0039101 0.0039101
0.9665556 0.0039101 0.0039101
0.9769207 0.0039101 0.0039101
0.9838585 0.0039101 0.0039101
0.9888217 0.0039101 0.0039101
0.9925458 0.0039101 0.0039101
0.9954419 0.0039101 0.0039101
0.9960899 0.0039101 0.0039101
0.9960899 0.0039101 0.0039101
0.0039101 0.4146139 0.0039101
0.0039101 0.4142547 0.0039101
0.0039101 0.4141335 0.0039101
0.0039101 0.4140126 0.0039101
0.0039101 0.4136453 0.0039101
0.0039101 0.4130212 0.0039101
0.0039101 0.4121234 0.0039101
0.0039101 0.4109292 0.0039101
0.2166562 0.4094116 0.0039101
0.2973934 0.4075393 0.0039101
0.3585346 0.4052779 0.0039101
0.4119179 0.4025903 0.0039101
0.4610694 0.3994362 0.0039101
0.5075561 0.3957721 0.0039101
0.5522164 0.3915506 0.0039101
0.5955511 0.3867191 0.0039101
0.6381273 0.3811839 0.0039101
0.6841681 0.3742101 0.0039101
0.7354763 0.3650580 0.0039101
0.7906130 0.3521024 0.0039101
0.8366606 0.3296543 0.0039101
0.8736793 0.2977735 0.0039101
0.9039089 0.2552396 0.0039101
0.9289176 0.1930688 0.0039101
0.9498346 0.0039101 0.0039101
0.9663817 0.0039101 0.0039101
0.9767906 0.0039101 0.0039101
0.9837530 0.0039101 0.0039101
0.9887317 0.0039101 0.0039101
0.9924662 0.0039101 0.0039101
0.9953699 0.0039101 0.0039101
0.9960899 0.0039101 0.0039101
0.9960899 0.0039101 0.0039101
0.0039101 0.4505787 0.0039101
0.0039101 0.4502570 0.0039101
0.0039101 0.4501486 0.0039101
0.0039101 0.4500406 0.0039101
0.0039101 0.4497132 0.0039101
0.0039101 0.4491588 0.0039101
0.0039101 0.4483650 0.0039101
0.0039101 0.4473152 0.0039101
0.1229710 0.4459891 0.0039101
0.2631537 0.4443634 0.0039101
0.3358133 0.4424120 0.0039101
0.3949136 0.4401069 0.0039101
0.4476109 0.4374176 0.0039101
0.4965454 0.4343118 0.0039101
0.5430047 0.4307547 0.0039101
0.5877167 0.4267088 0.0039101
0.6313836 0.4221044 0.0039101
0.6783814 0.4163491 0.0039101
0.7305481 0.4088737 0.0039101
0.7869968 0.3984215 0.0039101
0.8344843 0.3786592 0.0039101
0.8723505 0.3501872 0.0039101
0.9030875 0.3139701 0.0039101
0.9284041 0.2685907 0.0039101
0.9495102 0.2060665 0.0039101
0.9661683 0.0039101 0.0039101
0.9766317 0.0039101 0.0039101
0.9836246 0.0039101 0.0039101
0.9886224 0.0039101 0.0039101
0.9923699 0.0039101 0.0039101
0.9952829 0.0039101 0.0039101
0.9960899 0.0039101 0.0039101
0.9960899 0.0039101 0.0039101
0.0039101 0.4862840 0.0039101
0.0039101 0.4859929 0.0039101
0.0039101 0.4858950 0.0039101
0.0039101 0.4857975 0.0039101
0.0039101 0.4855024 0.0039101
0.0039101 0.4850039 0.0039101
0.0039101 0.4842927 0.0039101
0.0039101 0.4833563 0.0039101
0.0039101 0.4821792 0.0039101
0.2088630 0.4807434 0.0039101
0.3055651 0.4790288 0.0039101
0.3733822 0.4770137 0.0039101
0.4309339 0.4746743 0.0039101
0.4830464 0.4719856 0.0039101
0.5317729 0.4689209 0.0039101
0.5781905 0.4654519 0.0039101
0.6231941 0.4615239 0.0039101
0.6713574 0.4566416 0.0039101
0.7245660 0.4503440 0.0039101
0.7824883 0.4417166 0.0039101
0.8317915 0.4237025 0.0039101
0.8707154 0.3967814 0.0039101
0.9020814 0.3629946 0.0039101
0.9277779 0.3227251 0.0039101
0.9491164 0.2741027 0.0039101
0.9659104 0.2140633 0.0039101
0.9764403 0.1388137 0.0039101
0.9834703 0.0039101 0.0039101
0.9884913 0.0039101 0.0039101
0.9922545 0.0039101 0.0039101
0.9951788 0.0039101 0.0039101
0.9960899 0.0039101 0.0039101
0.9960899 0.0039101 0.0039101
0.0039101 0.5217538 0.0039101
0.0039101 0.5214883 0.0039101
0.0039101 0.5213991 0.0039101
0.0039101 0.5213103 0.0039101
0.0039101 0.5210418 0.0039101
0.0039101 0.5205891 0.0039101
0.0039101 0.5199451 0.0039101
0.0039101 0.5191002 0.0039101
0.0039101 0.5180421 0.0039101
0.0039101 0.5167569 0.0039101
0.2628415 0.5152288 0.0039101
0.3457944 0.5134403 0.0039101
0.4103198 0.5113727 0.0039101
0.4666439 0.5090062 0.0039101
0.5182481 0.5063196 0.0039101
0.5667759 0.5032906 0.0039101
0.6134073 0.4998746 0.0039101
0.6629755 0.4956472 0.0039101
0.7174319 0.4902227 0.0039101
0.7769346 0.4830081 0.0039101
0.8285052 0.4663890 0.0039101
0.8687328 0.4401557 0.0039101
0.9008672 0.4072271 0.0039101
0.9270253 0.3688757 0.0039101
0.9486449 0.3248959 0.0039101
0.9656028 0.2766777 0.0039101
0.9762126 0.2341314 0.0039101
0.9832872 0.1933098 0.0039101
0.9883361 0.1455135 0.0039101
0.9921181 0.0039101 0.0039101
0.9950558 0.0039101 0.0039101
0.9960899 0.0039101 0.0039101
0.9960899 0.0039101 0.0039101
0.0039101 0.5570084 0.0039101
0.0039101 0.5567644 0.0039101
0.0039101 0.5566825 0.0039101
0.0039101 0.5566010 0.0039101
0.0039101 0.5563548 0.0039101
0.0039101 0.5559404 0.0039101
0.0039101 0.5553522 0.0039101
0.0039101 0.5545826 0.0039101
0.0039101 0.5536219 0.0039101
0.0039101 0.5524589 0.0039101
0.1895323 0.5510810 0.0039101
0.3092124 0.5494742 0.0039101
0.3846480 0.5476233 0.0039101
0.4467614 0.5455122 0.0039101
0.5020803 0.5431240 0.0039101
0.5532361 0.5404405 0.0039101
0.6018502 0.5374243 0.0039101
0.6531044 0.5337052 0.0039101
0.7090429 0.5289524 0.0039101
0.7701484 0.5228137 0.0039101
0.8245360 0.5075736 0.0039101
0.8663568 0.4815824 0.0039101
0.8994201 0.4486893 0.0039101
0.9261318 0.4108304 0.0039101
0.9480872 0.3685948 0.0039101
0.9652400 0.3246041 0.0039101
0.9759448 0.2889928 0.0039101
0.9830722 0.2593179 0.0039101
0.9881541 0.2332140 0.0039101
0.9919584 0.2090422 0.0039101
0.9949120 0.1853602 0.0039101
0.9960899 0.1603036 0.0039101
0.9960899 0.1295257 0.0039101
0.0039101 0.5922691 0.0039101
0.0039101 0.5920437 0.0039101
0.0039101 0.5919681 0.0039101
0.0039101 0.5918929 0.0039101
0.0039101 0.5916657 0.0039101
0.0039101 0.5912839 0.0039101
0.0039101 0.5907430 0.0039101
0.0039101 0.5900368 0.0039101
0.0039101 0.5891575 0.0039101
0.0039101 0.5880963 0.0039101
0.0039101 0.5868426 0.0039101
0.2559282 0.5853852 0.0039101
0.3517575 0.5837117 0.0039101
0.4223863 0.5818088 0.0039101
0.4826736 0.5796625 0.0039101
0.5371709 0.5772581 0.0039101
0.5882301 0.5745636 0.0039101
0.6415221 0.5712512 0.0039101
0.6992260 0.5670330 0.0039101
0.7619032 0.5616310 0.0039101
0.8197466 0.5479921 0.0039101
0.8635173 0.5220272 0.0039101
0.8977018 0.4886703 0.0039101
0.9250759 0.4505002 0.0039101
0.9474302 0.4086414 0.0039101
0.9648140 0.3663035 0.0039101
0.9756309 0.3334178 0.0039101
0.9828206 0.3073774 0.0039101
0.9879413 0.2858839 0.0039101
0.9917718 0.2675558 0.0039101
0.9947442 0.2515087 0.0039101
0.9960899 0.2371438 0.0039101
0.9960899 0.2240344 0.0039101
0.0039101 0.6309406 0.0039101
0.0039101 0.6307327 0.0039101
0.0039101 0.6306630 0.0039101
0.0039101 0.6305937 0.0039101
0.0039101 0.6303845 0.0039101
0.0039101 0.6300333 0.0039101
0.0039101 0.6295366 0.0039101
0.0039101 0.6288893 0.0039101
0.0039101 0.6280854 0.0039101
0.0039101 0.6271176 0.0039101
0.0039101 0.6259775 0.0039101
0.1052571 0.6246560 0.0039101
0.3022325 0.6231430 0.0039101
0.3887027 0.6214277 0.0039101
0.4567819 0.6194986 0.0039101
0.5161235 0.6173437 0.0039101
0.5705727 0.6149356 0.0039101
0.6266089 0.6119840 0.0039101
0.6866420 0.6082375 0.0039101
0.7513077 0.6034575 0.0039101
0.8133772 0.5917624 0.0039101
0.8597884 0.5657722 0.0039101
0.8954640 0.5315310 0.0039101
0.9237083 0.4924166 0.0039101
0.9465829 0.4500551 0.0039101
0.9642662 0.4080942 0.0039101
0.9752280 0.3763599 0.0039101
0.9824982 0.3519484 0.0039101
0.9876690 0.3324145 0.0039101
0.9915333 0.3163048 0.0039101
0.9945298 0.3027018 0.0039101
0.9960899 0.2909972 0.0039101
0.9960899 0.2807700 0.0039101
0.0039101 0.6745491 0.0039101
0.0039101 0.6743582 0.0039101
0.0039101 0.6742942 0.0039101
0.0039101 0.6742306 0.0039101
0.0039101 0.6740387 0.0039101
0.0039101 0.6737169 0.0039101
0.0039101 0.6732624 0.0039101
0.0039101 0.6726712 0.0039101
0.0039101 0.6719387 0.0039101
0.0039101 0.6710588 0.0039101
0.0039101 0.6700252 0.0039101
0.0039101 0.6688304 0.0039101
0.2031694 0.6674662 0.0039101
0.3371892 0.6659241 0.0039101
0.4198749 0.6641947 0.0039101
0.4870654 0.6622683 0.0039101
0.5466188 0.6601216 0.0039101
0.6066049 0.6574980 0.0039101
0.6698873 0.6541784 0.0039101
0.7372662 0.6499582 0.0039101
0.8044881 0.6406499 0.0039101
0.8546766 0.6148141 0.0039101
0.8924316 0.5792715 0.0039101
0.9218693 0.5385526 0.0039101
0.9454493 0.4948671 0.0039101
0.9635359 0.4522946 0.0039101
0.9746921 0.4207216 0.0039101
0.9820699 0.3969027 0.0039101
0.9873077 0.3782036 0.0039101
0.9912171 0.3630693 0.0039101
0.9942457 0.3505250 0.0039101
0.9960899 0.3399276 0.0039101
0.9960899 0.3308350 0.0039101
0.0039101 0.7235387 0.0039101
0.0039101 0.7233640 0.0039101
0.0039101 0.7233055 0.0039101
0.0039101 0.7232474 0.0039101
0.0039101 0.7230720 0.0039101
0.0039101 0.7227781 0.0039101
0.0039101 0.7223636 0.0039101
0.0039101 0.7218254 0.0039101
0.0039101 0.7211597 0.0039101
0.0039101 0.7203620 0.0039101
0.0039101 0.7194271 0.0039101
0.0039101 0.7183492 0.0039101
0.0039101 0.7171218 0.0039101
0.2401901 0.7157382 0.0039101
0.3633146 0.7141907 0.0039101
0.4453545 0.7124717 0.0039101
0.5133102 0.7105613 0.0039101
0.5793225 0.7082330 0.0039101
0.6473215 0.7052963 0.0039101
0.7185060 0.7015758 0.0039101
0.7917547 0.6949924 0.0039101
0.8475424 0.6700047 0.0039101
0.8882696 0.6327978 0.0039101
0.9193724 0.5897580 0.0039101
0.9439213 0.5438893 0.0039101
0.9625560 0.4997816 0.0039101
0.9739750 0.4675695 0.0039101
0.9814978 0.4436153 0.0039101
0.9868255 0.4250572 0.0039101
0.9907954 0.4102203 0.0039101
0.9938673 0.3980626 0.0039101
0.9960899 0.3879016 0.0039101
0.9960899 0.3792713 0.0039101
0.0039101 0.7779669 0.0039101
0.0039101 0.7778185 0.0039101
0.0039101 0.7777688 0.0039101
0.0039101 0.7777194 0.0039101
0.0039101 0.7775704 0.0039101
0.0039101 0.7773206 0.0039101
0.0039101 0.7769679 0.0039101
0.0039101 0.7765095 0.0039101
0.0039101 0.7759417 0.0039101
0.0039101 0.7752601 0.0039101
0.0039101 0.7744592 0.0039101
0.0039101 0.7735329 0.0039101
0.0039101 0.7724743 0.0039101
0.0039101 0.7712755 0.0039101
0.2564270 0.7699276 0.0039101
0.3805687 0.7684210 0.0039101
0.4649435 0.7667343 0.0039101
0.5411067 0.7646704 0.0039101
0.6163975 0.7620745 0.0039101
0.6931481 0.7587969 0.0039101
0.7728137 0.7545163 0.0039101
0.8373371 0.7323179 0.0039101
0.8824601 0.6932676 0.0039101
0.9159415 0.6471120 0.0039101
0.9418429 0.5980969 0.0039101
0.9612317 0.5514947 0.0039101
0.9730090 0.5178983 0.0039101
0.9807287 0.4932001 0.0039101
0.9861783 0.4742572 0.0039101
0.9902301 0.4592473 0.0039101
0.9933603 0.4470459 0.0039101
0.9958510 0.4369221 0.0039101
0.9960899 0.4283800 0.0039101
0.0039101 0.8262093 0.0039101
0.0039101 0.8261126 0.0039101
0.0039101 0.8260802 0.0039101
0.0039101 0.8260480 0.0039101
0.0039101 0.8259510 0.0039101
0.0039101 0.8257885 0.0039101
0.0039101 0.8255595 0.0039101
0.0039101 0.8252623 0.0039101
0.0039101 0.8248951 0.0039101
0.0039101 0.8244553 0.0039101
0.0039101 0.8239403 0.0039101
0.0039101 0.8233468 0.0039101
0.0039101 0.8226709 0.0039101
0.0039101 0.8219087 0.0039101
0.0039101 0.8210554 0.0039101
0.2488948 0.8201061 0.0039101
0.3836160 0.8190485 0.0039101
0.4796285 0.8177556 0.0039101
0.5668161 0.8161169 0.0039101
0.6518745 0.8140265 0.0039101
0.7380756 0.8113391 0.0039101
0.8222062 0.8026682 0.0039101
0.8741588 0.7621669 0.0039101
0.9111517 0.7120287 0.0039101
0.9389842 0.6587229 0.0039101
0.9594267 0.6085364 0.0039101
0.9716986 0.5727729 0.0039101
0.9796882 0.5467412 0.0039101
0.9853043 0.5269413 0.0039101
0.9894676 0.5113636 0.0039101
0.9926771 0.4987788 0.0039101
0.9952267 0.4883936 0.0039101
0.9960899 0.4796732 0.0039101
0.0039101 0.8650562 0.0039101
0.0039101 0.8649921 0.0039101
0.0039101 0.8649707 0.0039101
0.0039101 0.8649494 0.0039101
0.0039101 0.8648853 0.0039101
0.0039101 0.8647779 0.0039101
0.0039101 0.8646268 0.0039101
0.0039101 0.8644310 0.0039101
0.0039101 0.8641895 0.0039101
0.0039101 0.8639009 0.0039101
0.0039101 0.8635639 0.0039101
0.0039101 0.8631766 0.0039101
0.0039101 0.8627369 0.0039101
0.0039101 0.8622428 0.0039101
0.0039101 0.8616916 0.0039101
0.0039101 0.8610807 0.0039101
0.2044559 0.8604030 0.0039101
0.3779959 0.8595782 0.0039101
0.4885175 0.8585385 0.0039101
0.5856861 0.8572207 0.0039101
0.6792646 0.8555398 0.0039101
0.7735867 0.8533792 0.0039101
0.8618837 0.8413539 0.0039101
0.9043134 0.7864143 0.0039101
0.9349924 0.7273998 0.0039101
0.9569399 0.6722931 0.0039101
0.9699053 0.6334539 0.0039101
0.9782698 0.6054436 0.0039101
0.9841158 0.5842979 0.0039101
0.9884325 0.5677644 0.0039101
0.9917508 0.5544772 0.0039101
0.9943812 0.5435616 0.0039101
0.9960899 0.5344316 0.0039101
0.0039101 0.8967816 0.0039101
0.0039101 0.8967387 0.0039101
0.0039101 0.8967243 0.0039101
0.0039101 0.8967100 0.0039101
0.0039101 0.8966671 0.0039101
0.0039101 0.8965952 0.0039101
0.0039101 0.8964941 0.0039101
0.0039101 0.8963633 0.0039101
0.0039101 0.8962022 0.0039101
0.0039101 0.8960102 0.0039101
0.0039101 0.8957863 0.0039101
0.0039101 0.8955297 0.0039101
0.0039101 0.8952392 0.0039101
0.0039101 0.8949135 0.0039101
0.0039101 0.8945514 0.0039101
0.0039101 0.8941514 0.0039101
0.0039101 0.8937091 0.0039101
0.0039101 0.8931729 0.0039101
