LUTS_for_Software_DaVinci_Premiere_Avid_FinalCutPro/DaVinci-Resolve-with-Video-Range-Tag/Philips-Gamma-Adaption_1.08_Test/3b-Gamma.1.08-Philips-NBCU-HLG2SDR-DL_VRT_v1.2.cube
TITLE "NBC3 with Gamma 1.08 Adaption for 100nit SDR Grading ONLY"
# 
# PLEASE DO NOT ALTER THE LINES BELOW
# 
# Copyright 2023 NBCUniversal, LLC - Please do not remove this line
#
# Built using tools from and in collaboration with Cromorama and Nick Shaw - the creators of ORION-CONVERT
#
# Parameters designed by Chris Seeger, NBCU Advanced Technology (chris.seeger@nbcuni.com)
# In collaboration with Michael Drazin, NBCU Sports Group
#
# NBC HLG to SDR Display Light
# with 1.08 gamma compensation
# Type III LUT - Full Range Processing for Narrow Range Signals (Unscaled code values in and out)
# RESOLVE 17 VIDEO RANGE TAGS
LUT_IN_VIDEO_RANGE
LUT_OUT_VIDEO_RANGE
LUT_3D_SIZE 9
0.0039101 0.0039101 0.0039101
0.1785054 0.0039101 0.0039101
0.3339766 0.0039101 0.0039101
0.4981751 0.0039101 0.0039101
0.6572922 0.0039101 0.0039101
0.8428534 0.0039101 0.0039101
0.9508558 0.0039101 0.0039101
0.9891012 0.0039101 0.0039101
0.9960899 0.0039101 0.0039101
0.0039101 0.1513733 0.0039101
0.1513967 0.1470757 0.0039101
0.3327007 0.0795373 0.0039101
0.4972384 0.0039101 0.0039101
0.6566159 0.0039101 0.0039101
0.8425695 0.0039101 0.0039101
0.9507938 0.0039101 0.0039101
0.9890755 0.0039101 0.0039101
0.9960899 0.0039101 0.0039101
0.0039101 0.3048350 0.0039101
0.0039101 0.3033444 0.0039101
0.3029727 0.2961964 0.0039101
0.4865642 0.2772475 0.0039101
0.6510606 0.2365632 0.0039101
0.8407445 0.0039101 0.0039101
0.9504702 0.0039101 0.0039101
0.9889531 0.0039101 0.0039101
0.9960899 0.0039101 0.0039101
0.0039101 0.4505787 0.0039101
0.0039101 0.4497132 0.0039101
0.1229710 0.4459891 0.0039101
0.4476109 0.4374176 0.0039101
0.6313836 0.4221044 0.0039101
0.8344843 0.3786592 0.0039101
0.9495102 0.2060665 0.0039101
0.9886224 0.0039101 0.0039101
0.9960899 0.0039101 0.0039101
0.0039101 0.5922691 0.0039101
0.0039101 0.5916657 0.0039101
0.0039101 0.5891575 0.0039101
0.3517575 0.5837117 0.0039101
0.5882301 0.5745636 0.0039101
0.8197466 0.5479921 0.0039101
0.9474302 0.4086414 0.0039101
0.9879413 0.2858839 0.0039101
0.9960899 0.2240344 0.0039101
0.0039101 0.7779669 0.0039101
0.0039101 0.7775704 0.0039101
0.0039101 0.7759417 0.0039101
0.0039101 0.7724743 0.0039101
0.4649435 0.7667343 0.0039101
0.7728137 0.7545163 0.0039101
0.9418429 0.5980969 0.0039101
0.9861783 0.4742572 0.0039101
0.9960899 0.4283800 0.0039101
0.0039101 0.9230038 0.0039101
0.0039101 0.9229262 0.0039101
0.0039101 0.9226120 0.0039101
0.0039101 0.9219652 0.0039101
0.0039101 0.9209472 0.0039101
0.4965164 0.9188932 0.0039101
0.9209130 0.8989153 0.0039101
0.9802244 0.7189960 0.0039101
0.9939840 0.6597785 0.0039101
0.0039101 0.9709304 0.0039101
0.0039101 0.9708995 0.0039101
0.0039101 0.9707749 0.0039101
0.0039101 0.9705212 0.0039101
0.0039101 0.9701288 0.0039101
0.0039101 0.9693581 0.0039101
0.6938526 0.9674443 0.0039101
0.9695923 0.9463896 0.0039101
0.9873352 0.8629041 0.0039101
0.0039101 0.9840993 0.0039101
0.0039101 0.9840769 0.0039101
0.0039101 0.9839869 0.0039101
0.0039101 0.9838041 0.0039101
0.0039101 0.9835226 0.0039101
0.0039101 0.9829740 0.0039101
0.5873190 0.9816303 0.0039101
0.8909229 0.9798765 0.0039101
0.9829456 0.9594126 0.0039101
0.0039101 0.0039101 0.1543183
0.1739363 0.0039101 0.1494955
0.3337956 0.0039101 0.1511701
0.4979507 0.0039101 0.1445389
0.6571180 0.0039101 0.1221144
0.8427779 0.0039101 0.0039101
0.9508390 0.0039101 0.0039101
0.9890942 0.0039101 0.0039101
0.9960899 0.0039101 0.0039101
0.0039101 0.1520645 0.1453525
0.1469834 0.1469834 0.1469834
0.3320437 0.0694192 0.1458642
0.4969210 0.0039101 0.1354204
0.6564089 0.0039101 0.1027946
0.8424868 0.0039101 0.0039101
0.9507762 0.0039101 0.0039101
0.9890683 0.0039101 0.0039101
0.9960899 0.0039101 0.0039101
0.0039101 0.3048982 0.1122707
0.0039101 0.3033845 0.1090210
0.3016190 0.2961679 0.0890278
0.4860364 0.2771290 0.0099976
0.6507606 0.2363169 0.0039101
0.8406371 0.0039101 0.0039101
0.9504499 0.0039101 0.0039101
0.9889452 0.0039101 0.0039101
0.9960899 0.0039101 0.0039101
0.0039101 0.4506107 0.0039101
0.0039101 0.4497404 0.0039101
0.1095949 0.4459994 0.0039101
0.4468292 0.4374011 0.0039101
0.6309703 0.4220576 0.0039101
0.8343368 0.3786019 0.0039101
0.9494853 0.2058358 0.0039101
0.9886132 0.0039101 0.0039101
0.9960899 0.0039101 0.0039101
0.0039101 0.5922906 0.0039101
0.0039101 0.5916855 0.0039101
0.0039101 0.5891709 0.0039101
0.3504163 0.5837140 0.0039101
0.5876859 0.5745521 0.0039101
0.8195410 0.5480146 0.0039101
0.9473993 0.4086229 0.0039101
0.9879305 0.2858134 0.0039101
0.9960899 0.2239212 0.0039101
0.0039101 0.7779807 0.0039101
0.0039101 0.7775837 0.0039101
0.0039101 0.7759529 0.0039101
0.0039101 0.7724814 0.0039101
0.4640389 0.7667357 0.0039101
0.7724446 0.7545222 0.0039101
0.9418018 0.5981469 0.0039101
0.9861648 0.4742620 0.0039101
0.9960899 0.4283729 0.0039101
0.0039101 0.9230065 0.0039101
0.0039101 0.9229288 0.0039101
0.0039101 0.9226145 0.0039101
0.0039101 0.9219672 0.0039101
0.0039101 0.9209486 0.0039101
0.4958898 0.9188937 0.0039101
0.9208413 0.8990576 0.0039101
0.9802050 0.7190547 0.0039101
0.9939713 0.6598178 0.0039101
0.0039101 0.9709315 0.0039101
0.0039101 0.9709006 0.0039101
0.0039101 0.9707759 0.0039101
0.0039101 0.9705221 0.0039101
0.0039101 0.9701295 0.0039101
0.0039101 0.9693586 0.0039101
0.6935922 0.9674443 0.0039101
0.9695639 0.9465012 0.0039101
0.9873177 0.8629818 0.0039101
0.0039101 0.9841000 0.0039101
0.0039101 0.9840776 0.0039101
0.0039101 0.9839876 0.0039101
0.0039101 0.9838047 0.0039101
0.0039101 0.9835232 0.0039101
0.0039101 0.9829744 0.0039101
0.5870233 0.9816304 0.0039101
0.8907713 0.9798762 0.0039101
0.9829250 0.9595112 0.0039101
0.0039101 0.0039101 0.2758189
0.1554248 0.0039101 0.2635184
0.3324594 0.0039101 0.2913404
0.4969564 0.0039101 0.2998797
0.6563889 0.0039101 0.3028317
0.8424689 0.0039101 0.2940087
0.9507711 0.0039101 0.2377425
0.9890661 0.0039101 0.1896169
0.9960899 0.0039101 0.1686552
0.0039101 0.1528777 0.2823769
0.1222185 0.1460631 0.2865471
0.3291471 0.0339421 0.2944487
0.4955806 0.0039101 0.2999024
0.6555536 0.0039101 0.3017573
0.8421492 0.0039101 0.2923269
0.9507054 0.0039101 0.2357486
0.9890394 0.0039101 0.1873013
0.9960899 0.0039101 0.1660267
0.0039101 0.3051049 0.2942706
0.0039101 0.3035059 0.2947336
0.2960303 0.2960303 0.2960303
0.4838876 0.2766424 0.2969585
0.6495433 0.2353205 0.2961549
0.8402016 0.0039101 0.2850066
0.9503681 0.0039101 0.2272716
0.9889134 0.0039101 0.1772578
0.9960899 0.0039101 0.1543166
0.0039101 0.4507293 0.2863969
0.0039101 0.4498405 0.2862581
0.0039101 0.4460333 0.2855972
0.4436678 0.4373302 0.2838485
0.6293056 0.4218668 0.2803986
0.8337418 0.3783709 0.2673340
0.9493849 0.2049059 0.2072342
0.9885762 0.0039101 0.1513869
0.9960899 0.0039101 0.1193795
0.0039101 0.5923730 0.2591620
0.0039101 0.5917613 0.2587236
0.0039101 0.5892216 0.2569188
0.3449542 0.5837208 0.2530643
0.5854972 0.5745045 0.2466762
0.8187127 0.5481026 0.2305134
0.9472754 0.4085486 0.1624514
0.9878869 0.2855308 0.0065936
0.9960899 0.2234670 0.0039101
0.0039101 0.7780347 0.1464405
0.0039101 0.7776355 0.1443975
0.0039101 0.7759963 0.1353521
0.0039101 0.7725087 0.1091558
0.4603898 0.7667403 0.0039101
0.7709558 0.7545370 0.0039101
0.9416371 0.5983473 0.0039101
0.9861104 0.4742812 0.0039101
0.9960899 0.4283442 0.0039101
0.0039101 0.9230170 0.0039101
0.0039101 0.9229392 0.0039101
0.0039101 0.9226240 0.0039101
0.0039101 0.9219751 0.0039101
0.0039101 0.9209543 0.0039101
0.4933706 0.9188953 0.0039101
0.9205538 0.8996276 0.0039101
0.9801273 0.7192900 0.0039101
0.9939202 0.6599754 0.0039101
0.0039101 0.9709357 0.0039101
0.0039101 0.9709047 0.0039101
0.0039101 0.9707799 0.0039101
0.0039101 0.9705256 0.0039101
0.0039101 0.9701325 0.0039101
0.0039101 0.9693605 0.0039101
0.6925495 0.9674440 0.0039101
0.9694498 0.9469481 0.0039101
0.9872478 0.8632927 0.0039101
0.0039101 0.9841031 0.0039101
0.0039101 0.9840807 0.0039101
0.0039101 0.9839905 0.0039101
0.0039101 0.9838074 0.0039101
0.0039101 0.9835255 0.0039101
0.0039101 0.9829761 0.0039101
0.5858383 0.9816307 0.0039101
0.8901646 0.9798750 0.0039101
0.9828425 0.9599057 0.0039101
0.0039101 0.0039101 0.3921618
0.1219192 0.0039101 0.4024564
0.3277464 0.0039101 0.4191588
0.4945540 0.0039101 0.4316815
0.6547841 0.0039101 0.4398338
0.8418166 0.0039101 0.4350640
0.9506319 0.0039101 0.3654092
0.9890089 0.0039101 0.3117816
0.9960899 0.0039101 0.2919425
0.0039101 0.1512582 0.4107396
0.0039101 0.1426594 0.4144906
0.3222468 0.0164165 0.4239661
0.4925845 0.0039101 0.4334303
0.6537164 0.0039101 0.4403063
0.8414419 0.0039101 0.4348775
0.9505602 0.0039101 0.3648037
0.9889807 0.0039101 0.3110698
0.9960899 0.0039101 0.2912097
0.0039101 0.3053278 0.4285750
0.0039101 0.3035841 0.4295395
0.2839336 0.2956524 0.4327379
0.4794073 0.2756108 0.4370935
0.6470250 0.2332706 0.4408926
0.8393031 0.0039101 0.4338243
0.9502015 0.0039101 0.3623003
0.9888490 0.0039101 0.3081585
0.9960899 0.0039101 0.2882165
0.0039101 0.4509240 0.4345920
0.0039101 0.4500004 0.4348592
0.0039101 0.4460685 0.4357972
0.4371653 0.4371653 0.4371653
0.6259159 0.4214695 0.4383012
0.8325260 0.3778985 0.4305177
0.9491815 0.2030103 0.3568928
0.9885016 0.0039101 0.3020021
0.9960899 0.0039101 0.2819029
0.0039101 0.5925226 0.4301179
0.0039101 0.5918979 0.4301324
0.0039101 0.5893096 0.4301495
0.3335068 0.5837236 0.4300076
0.5810567 0.5744007 0.4294262
0.8170249 0.5482687 0.4229922
0.9470250 0.4083988 0.3477120
0.9877990 0.2849619 0.2918189
0.9960899 0.2225505 0.2714906
0.0039101 0.7781374 0.4078270
0.0039101 0.7777340 0.4076870
0.0039101 0.7760780 0.4071085
0.0039101 0.7725587 0.4058602
0.4529278 0.7667454 0.4037535
0.7679130 0.7545232 0.3992391
0.9413048 0.5987493 0.3264315
0.9860012 0.4743197 0.2689043
0.9960899 0.4282866 0.2480917
0.0039101 0.9230377 0.2811622
0.0039101 0.9229594 0.2808444
0.0039101 0.9226426 0.2795611
0.0039101 0.9219906 0.2769300
0.0039101 0.9209652 0.2728072
0.4882630 0.9188982 0.2644804
0.9199737 0.9007718 0.2392342
0.9799711 0.7197619 0.1732504
0.9938177 0.6602913 0.1434219
0.0039101 0.9709440 0.0039101
0.0039101 0.9709129 0.0039101
0.0039101 0.9707877 0.0039101
0.0039101 0.9705326 0.0039101
0.0039101 0.9701383 0.0039101
0.0039101 0.9693642 0.0039101
0.6904549 0.9674434 0.0039101
0.9692204 0.9478448 0.0039101
0.9871072 0.8639163 0.0039101
0.0039101 0.9841091 0.0039101
0.0039101 0.9840866 0.0039101
0.0039101 0.9839962 0.0039101
0.0039101 0.9838126 0.0039101
0.0039101 0.9835300 0.0039101
0.0039101 0.9829793 0.0039101
0.5834553 0.9816312 0.0039101
0.8889483 0.9798726 0.0039101
0.9826769 0.9606970 0.0039101
0.0039101 0.0039101 0.5253576
0.0039101 0.0039101 0.5303029
0.3173837 0.0039101 0.5431253
0.4900896 0.0039101 0.5566187
0.6520421 0.0039101 0.5673841
0.8407541 0.0039101 0.5635951
0.9504140 0.0039101 0.4757396
0.9889207 0.0039101 0.4094062
0.9960899 0.0039101 0.3854642
0.0039101 0.1458526 0.5359462
0.0039101 0.1350773 0.5390249
0.3095507 0.0039101 0.5481376
0.4873988 0.0039101 0.5591243
0.6506666 0.0039101 0.5685981
0.8403008 0.0039101 0.5641212
0.9503338 0.0039101 0.4756561
0.9888904 0.0039101 0.4091301
0.9960899 0.0039101 0.3851483
0.0039101 0.3052870 0.5544660
0.0039101 0.3033704 0.5556505
0.2630020 0.2948655 0.5597491
0.4722344 0.2739261 0.5658613
0.6430421 0.2300471 0.5720658
0.8378848 0.0039101 0.5659333
0.9499436 0.0039101 0.4752867
0.9887502 0.0039101 0.4080043
0.9960899 0.0039101 0.3838656
0.0039101 0.4511196 0.5666716
0.0039101 0.4501487 0.5671401
0.0039101 0.4460458 0.5688654
0.4269249 0.4368630 0.5717327
0.6206747 0.4208347 0.5749732
0.8306343 0.3771628 0.5684796
0.9488693 0.2000680 0.4743941
0.9883877 0.0039101 0.4056482
0.9960899 0.0039101 0.3812032
0.0039101 0.5927105 0.5708011
0.0039101 0.5920674 0.5709871
0.0039101 0.5894098 0.5716827
0.3147690 0.5837014 0.5728688
0.5742244 0.5742244 0.5742244
0.8144099 0.5484921 0.5701465
0.9466426 0.4081706 0.4727220
0.9876654 0.2840984 0.4018446
0.9960899 0.2211528 0.3769536
0.0039101 0.7782786 0.5647867
0.0039101 0.7778689 0.5648229
0.0039101 0.7761886 0.5649466
0.0039101 0.7726226 0.5650913
0.4412786 0.7667431 0.5650452
0.7632048 0.7544182 0.5643705
0.9407989 0.5993567 0.4686396
0.9858354 0.4743775 0.3938233
0.9960899 0.4281994 0.3681251
0.0039101 0.9230675 0.4621749
0.0039101 0.9229886 0.4621535
0.0039101 0.9226694 0.4620667
0.0039101 0.9220127 0.4618862
0.0039101 0.9209805 0.4615976
0.4804093 0.9189017 0.4610025
0.9190895 0.9025014 0.4542696
0.9797346 0.7204743 0.3703250
0.9936627 0.6607678 0.3428859
0.0039101 0.9709562 0.3533615
0.0039101 0.9709249 0.3532462
0.0039101 0.9707991 0.3527832
0.0039101 0.9705429 0.3518459
0.0039101 0.9701468 0.3504099
0.0039101 0.9693696 0.3476276
0.6872856 0.9674422 0.3408518
0.9688728 0.9491994 0.3272670
0.9868946 0.8648573 0.2980211
0.0039101 0.9841180 0.3039656
0.0039101 0.9840954 0.3038047
0.0039101 0.9840046 0.3031579
0.0039101 0.9838203 0.3018480
0.0039101 0.9835366 0.2998382
0.0039101 0.9829840 0.2959340
0.5798422 0.9816318 0.2863509
0.8871143 0.9798689 0.2735412
0.9824264 0.9618915 0.2624354
0.0039101 0.0039101 0.6938369
0.0039101 0.0039101 0.6968732
0.2902596 0.0039101 0.7065507
0.4795834 0.0039101 0.7194690
0.6459956 0.0039101 0.7317051
0.8385124 0.0039101 0.7278247
0.9499791 0.0039101 0.6138445
0.9887487 0.0039101 0.5288902
0.9960899 0.0039101 0.4986208
0.0039101 0.1295660 0.7008281
0.0039101 0.1116838 0.7032099
0.2785495 0.0039101 0.7111274
0.4758508 0.0039101 0.7223293
0.6441400 0.0039101 0.7334331
0.8379224 0.0039101 0.7289628
0.9498838 0.0039101 0.6141787
0.9887143 0.0039101 0.5289222
0.9960899 0.0039101 0.4985842
0.0039101 0.3043526 0.7179400
0.0039101 0.3021944 0.7192037
0.2090669 0.2928342 0.7237360
0.4574175 0.2703853 0.7309731
0.6349856 0.2235324 0.7389919
0.8350117 0.0039101 0.7332165
0.9494368 0.0039101 0.6154986
0.9885588 0.0039101 0.5290436
0.9960899 0.0039101 0.4984316
0.0039101 0.4512181 0.7340361
0.0039101 0.4501713 0.7346584
0.0039101 0.4457901 0.7369939
0.4060656 0.4361390 0.7410518
0.6103838 0.4195330 0.7459949
0.8268782 0.3756997 0.7406020
0.9482635 0.1942215 0.6180865
0.9881686 0.0039101 0.5292572
0.9960899 0.0039101 0.4980983
0.0039101 0.5929533 0.7444270
0.0039101 0.5922787 0.7447489
0.0039101 0.5895017 0.7459818
0.2725831 0.5835806 0.7482140
0.5608901 0.5738321 0.7510788
0.8092449 0.5488190 0.7493022
0.9459067 0.4077331 0.6219290
0.9874099 0.2824526 0.5295192
0.9960899 0.2184663 0.4975336
0.0039101 0.7785027 0.7491746
0.0039101 0.7780818 0.7493363
0.0039101 0.7763577 0.7499564
0.0039101 0.7727077 0.7510680
0.4178414 0.7667081 0.7524034
0.7541851 0.7541851 0.7541851
0.9398295 0.6005046 0.6292684
0.9855202 0.4744861 0.5298718
0.9960899 0.4280343 0.4962916
0.0039101 0.9231193 0.6417166
0.0039101 0.9230393 0.6418322
0.0039101 0.9227157 0.6422945
0.0039101 0.9220503 0.6432211
0.0039101 0.9210058 0.6446180
0.4650723 0.9189051 0.6472528
0.9173915 0.9057736 0.6480056
0.9792859 0.7218191 0.5302567
0.9933692 0.6616664 0.4926621
0.0039101 0.9709780 0.5332544
0.0039101 0.9709465 0.5332784
0.0039101 0.9708195 0.5333743
0.0039101 0.9705610 0.5335663
0.0039101 0.9701617 0.5338550
0.0039101 0.9693788 0.5343975
0.6812780 0.9674394 0.5356378
0.9682125 0.9517590 0.5302316
0.9864920 0.8666329 0.4868275
0.0039101 0.9841339 0.4905464
0.0039101 0.9841112 0.4905444
0.0039101 0.9840197 0.4905362
0.0039101 0.9838341 0.4905189
0.0039101 0.9835484 0.4904910
0.0039101 0.9829922 0.4904328
0.5729689 0.9816326 0.4902730
0.8836588 0.9798616 0.4900390
0.9819515 0.9641463 0.4830274
0.0039101 0.0039101 0.8850678
0.0039101 0.0039101 0.8858378
0.1586710 0.0039101 0.8885494
0.4140923 0.0039101 0.8927384
0.5750687 0.0039101 0.8972248
0.7669380 0.0039101 0.9027338
0.9488737 0.0039101 0.8229304
0.9883275 0.0039101 0.7068911
0.9960899 0.0039101 0.6660460
0.0039101 0.0042498 0.8869019
0.0039101 0.0039101 0.8875758
0.0930282 0.0039101 0.8899795
0.4083899 0.0039101 0.8937767
0.5719751 0.0039101 0.8979390
0.7651353 0.0039101 0.9031567
0.9487466 0.0039101 0.8237235
0.9882844 0.0039101 0.7072282
0.9960899 0.0039101 0.6662735
0.0039101 0.2790508 0.8923445
0.0039101 0.2765689 0.8927877
0.0039101 0.2661023 0.8944203
0.3833193 0.2419787 0.8971580
0.5588670 0.1917801 0.9003651
0.7576099 0.0039101 0.9046524
0.9481802 0.0039101 0.8268955
0.9880960 0.0039101 0.7085781
0.9960899 0.0039101 0.6671848
0.0039101 0.4126321 0.8987589
0.0039101 0.4114030 0.8990128
0.0039101 0.4063813 0.8999755
0.3188063 0.3958129 0.9016849
0.5292857 0.3785420 0.9038346
0.7412061 0.3407641 0.9069414
0.9467929 0.1789395 0.8332748
0.9876460 0.0039101 0.7112953
0.9960899 0.0039101 0.6690167
0.0039101 0.5365473 0.9039764
0.0039101 0.5357519 0.9041238
0.0039101 0.5325310 0.9046924
0.0039101 0.5258945 0.9057398
0.4756319 0.5154413 0.9071244
0.7135548 0.4942737 0.9092524
0.9441456 0.4066934 0.8430472
0.9868073 0.2785848 0.7154413
0.9960899 0.2120256 0.6718036
0.0039101 0.6968827 0.9086462
0.0039101 0.6963577 0.9087217
0.0039101 0.6942430 0.9090167
0.0039101 0.6899374 0.9095748
0.3193338 0.6832825 0.9103413
0.6520079 0.6702334 0.9115816
0.9375282 0.6031533 0.8623485
0.9847833 0.4747329 0.7235033
0.9960899 0.4276517 0.6771846
0.0039101 0.9232182 0.8881389
0.0039101 0.9231358 0.8883862
0.0039101 0.9228027 0.8893768
0.0039101 0.9221188 0.8913656
0.0039101 0.9210473 0.8943734
0.4267069 0.9188989 0.9000738
0.9133361 0.9133361 0.9133361
0.9782416 0.7249138 0.7438707
0.9926894 0.6637289 0.6905167
0.0039101 0.9710226 0.7584206
0.0039101 0.9709905 0.7585431
0.0039101 0.9708610 0.7590336
0.0039101 0.9705977 0.7600191
0.0039101 0.9701914 0.7615103
0.0039101 0.9693957 0.7643383
0.6673239 0.9674297 0.7709184
0.9666715 0.9576620 0.7732897
0.9855591 0.8707141 0.7091095
0.0039101 0.9841673 0.7094274
0.0039101 0.9841441 0.7095155
0.0039101 0.9840511 0.7098686
0.0039101 0.9838625 0.7105776
0.0039101 0.9835725 0.7116499
0.0039101 0.9830084 0.7136812
0.5568712 0.9816321 0.7183949
0.8757397 0.9798431 0.7241430
0.9808497 0.9693341 0.7202616
0.0039101 0.0039101 0.9475004
0.0039101 0.0039101 0.9477858
0.0039101 0.0039101 0.9488409
0.3264209 0.0039101 0.9506248
0.4857776 0.0039101 0.9527401
0.6601547 0.0039101 0.9556184
0.9081550 0.0039101 0.9596448
0.9877806 0.0039101 0.8564868
0.9960899 0.0039101 0.8060232
0.0039101 0.0039101 0.9481908
0.0039101 0.0039101 0.9484538
0.0039101 0.0039101 0.9494314
0.3197407 0.0039101 0.9511006
0.4825183 0.0039101 0.9531033
0.6582666 0.0039101 0.9558622
0.9071086 0.0039101 0.9597718
0.9877283 0.0039101 0.8570274
0.9960899 0.0039101 0.8064209
0.0039101 0.2430686 0.9504695
0.0039101 0.2406544 0.9506687
0.0039101 0.2304661 0.9514201
0.2898364 0.2067259 0.9527421
0.4689308 0.1532223 0.9543876
0.6505237 0.0039101 0.9567482
0.9028541 0.0039101 0.9602460
0.9875040 0.0039101 0.8591967
0.9960899 0.0039101 0.8080161
0.0039101 0.3632324 0.9536166
0.0039101 0.3620769 0.9537483
0.0039101 0.3573751 0.9542537
0.1990692 0.3475564 0.9551738
0.4388444 0.3316480 0.9563722
0.6341325 0.2970541 0.9581870
0.8940219 0.1498084 0.9610575
0.9869877 0.0039101 0.8635808
0.9960899 0.0039101 0.8112363
0.0039101 0.4710270 0.9565929
0.0039101 0.4702831 0.9566780
0.0039101 0.4672800 0.9570082
0.0039101 0.4611323 0.9576252
0.3841304 0.4515332 0.9584587
0.6072390 0.4323028 0.9597822
0.8800039 0.3812505 0.9620128
0.9860584 0.2737801 0.8703045
0.9960899 0.2037348 0.8161615
0.0039101 0.6082871 0.9597487
0.0039101 0.6077959 0.9597974
0.0039101 0.6058210 0.9599882
0.0039101 0.6018177 0.9603526
0.1906649 0.5956698 0.9608608
0.5484922 0.5837241 0.9617048
0.8514769 0.5544990 0.9632249
0.9838782 0.4750245 0.8834493
0.9960899 0.4271875 0.8257283
0.0039101 0.8192447 0.9627200
0.0039101 0.8189391 0.9627416
0.0039101 0.8177139 0.9628271
0.0039101 0.8152450 0.9629930
0.0039101 0.8114906 0.9632302
0.3309994 0.8043164 0.9636388
0.7753413 0.7873983 0.9644197
0.9769659 0.7286332 0.9167762
0.9918648 0.6661979 0.8495420
0.0039101 0.9710670 0.9341027
0.0039101 0.9710342 0.9342854
0.0039101 0.9709020 0.9350171
0.0039101 0.9706332 0.9364873
0.0039101 0.9702189 0.9387122
0.0039101 0.9694089 0.9429323
0.6502926 0.9674127 0.9527520
0.9647796 0.9647796 0.9647796
0.9844263 0.8756102 0.8826716
0.0039101 0.9842014 0.8772747
0.0039101 0.9841779 0.8774146
0.0039101 0.9840832 0.8779750
0.0039101 0.9838911 0.8791004
0.0039101 0.9835962 0.8808026
0.0039101 0.9830232 0.8840272
0.5369429 0.9816280 0.8915087
0.8662818 0.9798184 0.9006262
0.9795087 0.9755671 0.9024274
0.0039101 0.0039101 0.9640871
0.0039101 0.0039101 0.9642896
0.0039101 0.0039101 0.9650479
0.2862517 0.0039101 0.9663629
0.4497836 0.0039101 0.9679713
0.6189925 0.0039101 0.9702364
0.8551531 0.0039101 0.9735351
0.9874815 0.0039101 0.9206909
0.9960899 0.0039101 0.8659028
0.0039101 0.0039101 0.9645790
0.0039101 0.0039101 0.9647682
0.0039101 0.0039101 0.9654792
0.2787554 0.0039101 0.9667212
0.4464869 0.0039101 0.9682539
0.6171125 0.0039101 0.9704341
0.8541051 0.0039101 0.9736442
0.9874246 0.0039101 0.9213124
0.9960899 0.0039101 0.8663669
0.0039101 0.2284833 0.9662509
0.0039101 0.2260920 0.9664000
0.0039101 0.2159707 0.9669670
0.2439740 0.1921034 0.9679799
0.4327557 0.1341908 0.9692666
0.6094252 0.0039101 0.9711589
0.8498555 0.0039101 0.9740544
0.9871830 0.0039101 0.9238079
0.9960899 0.0039101 0.8682292
0.0039101 0.3442297 0.9686736
0.0039101 0.3431130 0.9687771
0.0039101 0.3385718 0.9691754
0.0049477 0.3290978 0.9699072
0.4022937 0.3137602 0.9708721
0.5932319 0.2803708 0.9723580
0.8410792 0.1293043 0.9747666
0.9866342 0.0039101 0.9288562
0.9960899 0.0039101 0.8719918
0.0039101 0.4464016 0.9710799
0.0039101 0.4456853 0.9711492
0.0039101 0.4427956 0.9714191
0.0039101 0.4368874 0.9719259
0.3460719 0.4276780 0.9726158
0.5667774 0.4092659 0.9737234
0.8272376 0.3604768 0.9756256
0.9856598 0.2712125 0.9366084
0.9960899 0.1991477 0.8777527
0.0039101 0.5756400 0.9737651
0.0039101 0.5751673 0.9738063
0.0039101 0.5732677 0.9739682
0.0039101 0.5694206 0.9742781
0.0039101 0.5635209 0.9747124
0.5090524 0.5520805 0.9754391
0.7992661 0.5241781 0.9767673
0.9834001 0.4751742 0.9517847
0.9959999 0.4269445 0.8889558
0.0039101 0.7730445 0.9765352
0.0039101 0.7727494 0.9765546
0.0039101 0.7715660 0.9766310
0.0039101 0.7691829 0.9767798
0.0039101 0.7655624 0.9769934
0.2869977 0.7586544 0.9773639
0.7251995 0.7424076 0.9780829
0.9649225 0.7222521 0.9787597
0.9914333 0.6674764 0.9168670
0.0039101 0.9426618 0.9776211
0.0039101 0.9424478 0.9776314
0.0039101 0.9415906 0.9776721
0.0039101 0.9398679 0.9777518
0.0039101 0.9372596 0.9778672
0.0039101 0.9323117 0.9780700
0.6115220 0.9208152 0.9784718
0.9024266 0.9068145 0.9788576
0.9838328 0.8781501 0.9556806
0.0039101 0.9842168 0.9467350
0.0039101 0.9841931 0.9468945
0.0039101 0.9840975 0.9475331
0.0039101 0.9839039 0.9488155
0.0039101 0.9836065 0.9507552
0.0039101 0.9830290 0.9544296
0.5263043 0.9816244 0.9629543
0.8613928 0.9798045 0.9733412
0.9788046 0.9788046 0.9788046
