LUTS_for_Software_DaVinci_Premiere_Avid_FinalCutPro/DaVinci-Resolve-with-Video-Range-Tag/Philips-Gamma-Adaption_1.08_Test/3b-Gamma.1.08-Philips-NBCU-HLG2SDR-DL_VRT_v1.2.cube
TITLE "NBC3 with Gamma 1.08 Adaption for 100nit SDR Grading ONLY"
# 
# PLEASE DO NOT ALTER THE LINES BELOW
# 
# Copyright 2023 NBCUniversal, LLC - Please do not remove this line
#
# Built using tools from and in collaboration with Cromorama and Nick Shaw - the creators of ORION-CONVERT
#
# Parameters designed by Chris Seeger, NBCU Advanced Technology (chris.seeger@nbcuni.com)
# In collaboration with Michael Drazin, NBCU Sports Group
#
# NBC HLG to SDR Display Light
# with 1.08 gamma compensation
# Type III LUT - Full Range Processing for Narrow Range Signals (Unscaled code values in and out)
# RESOLVE 17 VIDEO RANGE TAGS
LUT_IN_VIDEO_RANGE
LUT_OUT_VIDEO_RANGE
LUT_3D_SIZE 5
0.0039101 0.0039101 0.0039101
0.3339766 0.0039101 0.0039101
0.6572922 0.0039101 0.0039101
0.9508558 0.0039101 0.0039101
0.9960899 0.0039101 0.0039101
0.0039101 0.3048350 0.0039101
0.3029727 0.2961964 0.0039101
0.6510606 0.2365632 0.0039101
0.9504702 0.0039101 0.0039101
0.9960899 0.0039101 0.0039101
0.0039101 0.5922691 0.0039101
0.0039101 0.5891575 0.0039101
0.5882301 0.5745636 0.0039101
0.9474302 0.4086414 0.0039101
0.9960899 0.2240344 0.0039101
0.0039101 0.9230038 0.0039101
0.0039101 0.9226120 0.0039101
0.0039101 0.9209472 0.0039101
0.9209130 0.8989153 0.0039101
0.9939840 0.6597785 0.0039101
0.0039101 0.9840993 0.0039101
0.0039101 0.9839869 0.0039101
0.0039101 0.9835226 0.0039101
0.5873190 0.9816303 0.0039101
0.9829456 0.9594126 0.0039101
0.0039101 0.0039101 0.2758189
0.3324594 0.0039101 0.2913404
0.6563889 0.0039101 0.3028317
0.9507711 0.0039101 0.2377425
0.9960899 0.0039101 0.1686552
0.0039101 0.3051049 0.2942706
0.2960303 0.2960303 0.2960303
0.6495433 0.2353205 0.2961549
0.9503681 0.0039101 0.2272716
0.9960899 0.0039101 0.1543166
0.0039101 0.5923730 0.2591620
0.0039101 0.5892216 0.2569188
0.5854972 0.5745045 0.2466762
0.9472754 0.4085486 0.1624514
0.9960899 0.2234670 0.0039101
0.0039101 0.9230170 0.0039101
0.0039101 0.9226240 0.0039101
0.0039101 0.9209543 0.0039101
0.9205538 0.8996276 0.0039101
0.9939202 0.6599754 0.0039101
0.0039101 0.9841031 0.0039101
0.0039101 0.9839905 0.0039101
0.0039101 0.9835255 0.0039101
0.5858383 0.9816307 0.0039101
0.9828425 0.9599057 0.0039101
0.0039101 0.0039101 0.5253576
0.3173837 0.0039101 0.5431253
0.6520421 0.0039101 0.5673841
0.9504140 0.0039101 0.4757396
0.9960899 0.0039101 0.3854642
0.0039101 0.3052870 0.5544660
0.2630020 0.2948655 0.5597491
0.6430421 0.2300471 0.5720658
0.9499436 0.0039101 0.4752867
0.9960899 0.0039101 0.3838656
0.0039101 0.5927105 0.5708011
0.0039101 0.5894098 0.5716827
0.5742244 0.5742244 0.5742244
0.9466426 0.4081706 0.4727220
0.9960899 0.2211528 0.3769536
0.0039101 0.9230675 0.4621749
0.0039101 0.9226694 0.4620667
0.0039101 0.9209805 0.4615976
0.9190895 0.9025014 0.4542696
0.9936627 0.6607678 0.3428859
0.0039101 0.9841180 0.3039656
0.0039101 0.9840046 0.3031579
0.0039101 0.9835366 0.2998382
0.5798422 0.9816318 0.2863509
0.9824264 0.9618915 0.2624354
0.0039101 0.0039101 0.8850678
0.1586710 0.0039101 0.8885494
0.5750687 0.0039101 0.8972248
0.9488737 0.0039101 0.8229304
0.9960899 0.0039101 0.6660460
0.0039101 0.2790508 0.8923445
0.0039101 0.2661023 0.8944203
0.5588670 0.1917801 0.9003651
0.9481802 0.0039101 0.8268955
0.9960899 0.0039101 0.6671848
0.0039101 0.5365473 0.9039764
0.0039101 0.5325310 0.9046924
0.4756319 0.5154413 0.9071244
0.9441456 0.4066934 0.8430472
0.9960899 0.2120256 0.6718036
0.0039101 0.9232182 0.8881389
0.0039101 0.9228027 0.8893768
0.0039101 0.9210473 0.8943734
0.9133361 0.9133361 0.9133361
0.9926894 0.6637289 0.6905167
0.0039101 0.9841673 0.7094274
0.0039101 0.9840511 0.7098686
0.0039101 0.9835725 0.7116499
0.5568712 0.9816321 0.7183949
0.9808497 0.9693341 0.7202616
0.0039101 0.0039101 0.9640871
0.0039101 0.0039101 0.9650479
0.4497836 0.0039101 0.9679713
0.8551531 0.0039101 0.9735351
0.9960899 0.0039101 0.8659028
0.0039101 0.2284833 0.9662509
0.0039101 0.2159707 0.9669670
0.4327557 0.1341908 0.9692666
0.8498555 0.0039101 0.9740544
0.9960899 0.0039101 0.8682292
0.0039101 0.4464016 0.9710799
0.0039101 0.4427956 0.9714191
0.3460719 0.4276780 0.9726158
0.8272376 0.3604768 0.9756256
0.9960899 0.1991477 0.8777527
0.0039101 0.7730445 0.9765352
0.0039101 0.7715660 0.9766310
0.0039101 0.7655624 0.9769934
0.7251995 0.7424076 0.9780829
0.9914333 0.6674764 0.9168670
0.0039101 0.9842168 0.9467350
0.0039101 0.9840975 0.9475331
0.0039101 0.9836065 0.9507552
0.5263043 0.9816244 0.9629543
0.9788046 0.9788046 0.9788046
